(G-CODE GENERATED BY FLATCAM v8.994 - www.flatcam.org - Version Date: 2020/11/7)

(Name: Gerber_BoardOutlineLayer.GKO_cutout_cnc)
(Type: G-code from Geometry)
(Units: MM)

(Created on Monday, 19 May 2025 at 13:23)

/TOOL DIAMETER = ДИАМЕТР ИНСТРУМЕНТА: 2.0 mm
/Feedrate_XY = подача XY: 120.0 mm/min
/Feedrate_Z = подача Z: 500.0 mm/min
/Feedrate rapids = быстрая подача1500.0 mm/min

/Z_Cut = проходы по Z: -1.8 mm
/DepthPerCut = углубиться за проход: 0.6 mm <=>3 passes
/Z_Move: 2.0 mm
/Z Start: None mm
/Z End: 15.0 mm
/X,Y End: None mm
(Steps per circle: 64)
/Steps per circle: 64
/Preprocessor Geometry: Charly4U

/X range:   -0.9731 ...  151.3411  mm
/Y range:  -61.0441 ...    1.3490  mm

/Скорость шпинделя: 20000.0 RPM
G71 / измерения в мм
G90 / программирование в абсолютных координатах

F120
/Tool switching while working is not supported! = Смена инструмента в процессе работы не поддерживается!
M3 S20000.0
F120
G0 X151.3395 Y-0.0678
F500
G1 Z-0.6000 F500
F120
G1 X151.3411 Y-0.1270
G1 X151.3411 Y-59.8170
G1 X151.3391 Y-59.8835
G1 X151.3285 Y-59.9909
G1 X151.3267 Y-60.0033
G1 X151.3056 Y-60.1092
G1 X151.3026 Y-60.1213
G1 X151.2712 Y-60.2247
G1 X151.2670 Y-60.2364
G1 X151.2257 Y-60.3362
G1 X151.2203 Y-60.3475
G1 X151.1694 Y-60.4427
G1 X151.1630 Y-60.4534
G1 X151.1029 Y-60.5432
G1 X151.0955 Y-60.5532
G1 X151.0270 Y-60.6367
G1 X151.0186 Y-60.6459
G1 X150.9422 Y-60.7223
G1 X150.9329 Y-60.7306
G1 X150.8494 Y-60.7991
G1 X150.8394 Y-60.8065
G1 X150.7495 Y-60.8665
G1 X150.7388 Y-60.8729
G1 X150.6436 Y-60.9238
G1 X150.6323 Y-60.9291
G1 X150.5325 Y-60.9704
G1 X150.5207 Y-60.9746
G1 X150.4173 Y-61.0058
G1 X150.4052 Y-61.0089
G1 X150.2993 Y-61.0299
G1 X150.2869 Y-61.0317
G1 X150.1794 Y-61.0422
G1 X150.1130 Y-61.0441
G1 X0.2530 Y-60.9196
G1 X0.1866 Y-60.9176
G1 X0.0792 Y-60.9070
G1 X0.0669 Y-60.9051
G1 X-0.0389 Y-60.8840
G1 X-0.0510 Y-60.8810
G1 X-0.1542 Y-60.8496
G1 X-0.1659 Y-60.8454
G1 X-0.2656 Y-60.8040
G1 X-0.2769 Y-60.7987
G1 X-0.3720 Y-60.7478
G1 X-0.3827 Y-60.7413
G1 X-0.4724 Y-60.6814
G1 X-0.4824 Y-60.6739
G1 X-0.5657 Y-60.6054
G1 X-0.5750 Y-60.5971
G1 X-0.6512 Y-60.5207
G1 X-0.6596 Y-60.5115
G1 X-0.7280 Y-60.4281
G1 X-0.7354 Y-60.4181
G1 X-0.7953 Y-60.3283
G1 X-0.8017 Y-60.3177
G1 X-0.8526 Y-60.2225
G1 X-0.8579 Y-60.2112
G1 X-0.8992 Y-60.1115
G1 X-0.9034 Y-60.0998
G1 X-0.9347 Y-59.9965
G1 X-0.9377 Y-59.9845
G1 X-0.9587 Y-59.8786
G1 X-0.9606 Y-59.8663
G1 X-0.9711 Y-59.7589
G1 X-0.9731 Y-59.6925
G1 X-0.9731 Y0.1219
G1 X-0.9711 Y0.1884
G1 X-0.9605 Y0.2960
G1 X-0.9587 Y0.3083
G1 X-0.9376 Y0.4143
G1 X-0.9345 Y0.4264
G1 X-0.9031 Y0.5298
G1 X-0.8989 Y0.5415
G1 X-0.8575 Y0.6414
G1 X-0.8522 Y0.6527
G1 X-0.8012 Y0.7479
G1 X-0.7948 Y0.7586
G1 X-0.7347 Y0.8484
G1 X-0.7272 Y0.8585
G1 X-0.6586 Y0.9419
G1 X-0.6502 Y0.9512
G1 X-0.5738 Y1.0275
G1 X-0.5645 Y1.0359
G1 X-0.4809 Y1.1044
G1 X-0.4709 Y1.1118
G1 X-0.3810 Y1.1718
G1 X-0.3703 Y1.1782
G1 X-0.2749 Y1.2290
G1 X-0.2636 Y1.2343
G1 X-0.1637 Y1.2756
G1 X-0.1520 Y1.2797
G1 X-0.0485 Y1.3110
G1 X-0.0364 Y1.3140
G1 X0.0696 Y1.3349
G1 X0.0820 Y1.3367
G1 X0.1895 Y1.3472
G1 X0.2560 Y1.3490
G1 X150.1160 Y1.1001
G1 X150.1813 Y1.0981
G1 X150.2354 Y1.0940
G1 X150.3011 Y1.0856
G1 X150.3545 Y1.0763
G1 X150.4190 Y1.0614
G1 X150.4713 Y1.0469
G1 X150.5341 Y1.0258
G1 X150.5846 Y1.0062
G1 X150.6450 Y0.9791
G1 X150.6934 Y0.9546
G1 X150.7509 Y0.9217
G1 X150.7967 Y0.8926
G1 X150.8506 Y0.8542
G1 X150.8933 Y0.8208
G1 X150.9432 Y0.7773
G1 X150.9823 Y0.7400
G1 X151.0197 Y0.7007
G1 X151.0631 Y0.6507
G1 X151.0964 Y0.6080
G1 X151.1348 Y0.5540
G1 X151.1637 Y0.5081
G1 X151.1966 Y0.4506
G1 X151.2209 Y0.4022
G1 X151.2480 Y0.3417
G1 X151.2675 Y0.2911
G1 X151.2885 Y0.2283
G1 X151.3029 Y0.1761
G1 X151.3177 Y0.1115
G1 X151.3269 Y0.0581
G1 X151.3352 Y-0.0076
G1 X151.3395 Y-0.0678
G0 X151.3395 Y-0.0678
F500
G1 Z-1.2000 F500
F120
G1 X151.3352 Y-0.0076
G1 X151.3269 Y0.0581
G1 X151.3177 Y0.1115
G1 X151.3029 Y0.1761
G1 X151.2885 Y0.2283
G1 X151.2675 Y0.2911
G1 X151.2480 Y0.3417
G1 X151.2209 Y0.4022
G1 X151.1966 Y0.4506
G1 X151.1637 Y0.5081
G1 X151.1348 Y0.5540
G1 X151.0964 Y0.6080
G1 X151.0631 Y0.6507
G1 X151.0197 Y0.7007
G1 X150.9823 Y0.7400
G1 X150.9432 Y0.7773
G1 X150.8933 Y0.8208
G1 X150.8506 Y0.8542
G1 X150.7967 Y0.8926
G1 X150.7509 Y0.9217
G1 X150.6934 Y0.9546
G1 X150.6450 Y0.9791
G1 X150.5846 Y1.0062
G1 X150.5341 Y1.0258
G1 X150.4713 Y1.0469
G1 X150.4190 Y1.0614
G1 X150.3545 Y1.0763
G1 X150.3011 Y1.0856
G1 X150.2354 Y1.0940
G1 X150.1813 Y1.0981
G1 X150.1160 Y1.1001
G1 X0.2560 Y1.3490
G1 X0.1895 Y1.3472
G1 X0.0820 Y1.3367
G1 X0.0696 Y1.3349
G1 X-0.0364 Y1.3140
G1 X-0.0485 Y1.3110
G1 X-0.1520 Y1.2797
G1 X-0.1637 Y1.2756
G1 X-0.2636 Y1.2343
G1 X-0.2749 Y1.2290
G1 X-0.3703 Y1.1782
G1 X-0.3810 Y1.1718
G1 X-0.4709 Y1.1118
G1 X-0.4809 Y1.1044
G1 X-0.5645 Y1.0359
G1 X-0.5738 Y1.0275
G1 X-0.6502 Y0.9512
G1 X-0.6586 Y0.9419
G1 X-0.7272 Y0.8585
G1 X-0.7347 Y0.8484
G1 X-0.7948 Y0.7586
G1 X-0.8012 Y0.7479
G1 X-0.8522 Y0.6527
G1 X-0.8575 Y0.6414
G1 X-0.8989 Y0.5415
G1 X-0.9031 Y0.5298
G1 X-0.9345 Y0.4264
G1 X-0.9376 Y0.4143
G1 X-0.9587 Y0.3083
G1 X-0.9605 Y0.2960
G1 X-0.9711 Y0.1884
G1 X-0.9731 Y0.1219
G1 X-0.9731 Y-59.6925
G1 X-0.9711 Y-59.7589
G1 X-0.9606 Y-59.8663
G1 X-0.9587 Y-59.8786
G1 X-0.9377 Y-59.9845
G1 X-0.9347 Y-59.9965
G1 X-0.9034 Y-60.0998
G1 X-0.8992 Y-60.1115
G1 X-0.8579 Y-60.2112
G1 X-0.8526 Y-60.2225
G1 X-0.8017 Y-60.3177
G1 X-0.7953 Y-60.3283
G1 X-0.7354 Y-60.4181
G1 X-0.7280 Y-60.4281
G1 X-0.6596 Y-60.5115
G1 X-0.6512 Y-60.5207
G1 X-0.5750 Y-60.5971
G1 X-0.5657 Y-60.6054
G1 X-0.4824 Y-60.6739
G1 X-0.4724 Y-60.6814
G1 X-0.3827 Y-60.7413
G1 X-0.3720 Y-60.7478
G1 X-0.2769 Y-60.7987
G1 X-0.2656 Y-60.8040
G1 X-0.1659 Y-60.8454
G1 X-0.1542 Y-60.8496
G1 X-0.0510 Y-60.8810
G1 X-0.0389 Y-60.8840
G1 X0.0669 Y-60.9051
G1 X0.0792 Y-60.9070
G1 X0.1866 Y-60.9176
G1 X0.2530 Y-60.9196
G1 X150.1130 Y-61.0441
G1 X150.1794 Y-61.0422
G1 X150.2869 Y-61.0317
G1 X150.2993 Y-61.0299
G1 X150.4052 Y-61.0089
G1 X150.4173 Y-61.0058
G1 X150.5207 Y-60.9746
G1 X150.5325 Y-60.9704
G1 X150.6323 Y-60.9291
G1 X150.6436 Y-60.9238
G1 X150.7388 Y-60.8729
G1 X150.7495 Y-60.8665
G1 X150.8394 Y-60.8065
G1 X150.8494 Y-60.7991
G1 X150.9329 Y-60.7306
G1 X150.9422 Y-60.7223
G1 X151.0186 Y-60.6459
G1 X151.0270 Y-60.6367
G1 X151.0955 Y-60.5532
G1 X151.1029 Y-60.5432
G1 X151.1630 Y-60.4534
G1 X151.1694 Y-60.4427
G1 X151.2203 Y-60.3475
G1 X151.2257 Y-60.3362
G1 X151.2670 Y-60.2364
G1 X151.2712 Y-60.2247
G1 X151.3026 Y-60.1213
G1 X151.3056 Y-60.1092
G1 X151.3267 Y-60.0033
G1 X151.3285 Y-59.9909
G1 X151.3391 Y-59.8835
G1 X151.3411 Y-59.8170
G1 X151.3411 Y-0.1270
G1 X151.3395 Y-0.0678
G0 X151.3395 Y-0.0678
F500
G1 Z-1.8000 F500
F120
G1 X151.3411 Y-0.1270
G1 X151.3411 Y-59.8170
G1 X151.3391 Y-59.8835
G1 X151.3285 Y-59.9909
G1 X151.3267 Y-60.0033
G1 X151.3056 Y-60.1092
G1 X151.3026 Y-60.1213
G1 X151.2712 Y-60.2247
G1 X151.2670 Y-60.2364
G1 X151.2257 Y-60.3362
G1 X151.2203 Y-60.3475
G1 X151.1694 Y-60.4427
G1 X151.1630 Y-60.4534
G1 X151.1029 Y-60.5432
G1 X151.0955 Y-60.5532
G1 X151.0270 Y-60.6367
G1 X151.0186 Y-60.6459
G1 X150.9422 Y-60.7223
G1 X150.9329 Y-60.7306
G1 X150.8494 Y-60.7991
G1 X150.8394 Y-60.8065
G1 X150.7495 Y-60.8665
G1 X150.7388 Y-60.8729
G1 X150.6436 Y-60.9238
G1 X150.6323 Y-60.9291
G1 X150.5325 Y-60.9704
G1 X150.5207 Y-60.9746
G1 X150.4173 Y-61.0058
G1 X150.4052 Y-61.0089
G1 X150.2993 Y-61.0299
G1 X150.2869 Y-61.0317
G1 X150.1794 Y-61.0422
G1 X150.1130 Y-61.0441
G1 X0.2530 Y-60.9196
G1 X0.1866 Y-60.9176
G1 X0.0792 Y-60.9070
G1 X0.0669 Y-60.9051
G1 X-0.0389 Y-60.8840
G1 X-0.0510 Y-60.8810
G1 X-0.1542 Y-60.8496
G1 X-0.1659 Y-60.8454
G1 X-0.2656 Y-60.8040
G1 X-0.2769 Y-60.7987
G1 X-0.3720 Y-60.7478
G1 X-0.3827 Y-60.7413
G1 X-0.4724 Y-60.6814
G1 X-0.4824 Y-60.6739
G1 X-0.5657 Y-60.6054
G1 X-0.5750 Y-60.5971
G1 X-0.6512 Y-60.5207
G1 X-0.6596 Y-60.5115
G1 X-0.7280 Y-60.4281
G1 X-0.7354 Y-60.4181
G1 X-0.7953 Y-60.3283
G1 X-0.8017 Y-60.3177
G1 X-0.8526 Y-60.2225
G1 X-0.8579 Y-60.2112
G1 X-0.8992 Y-60.1115
G1 X-0.9034 Y-60.0998
G1 X-0.9347 Y-59.9965
G1 X-0.9377 Y-59.9845
G1 X-0.9587 Y-59.8786
G1 X-0.9606 Y-59.8663
G1 X-0.9711 Y-59.7589
G1 X-0.9731 Y-59.6925
G1 X-0.9731 Y0.1219
G1 X-0.9711 Y0.1884
G1 X-0.9605 Y0.2960
G1 X-0.9587 Y0.3083
G1 X-0.9376 Y0.4143
G1 X-0.9345 Y0.4264
G1 X-0.9031 Y0.5298
G1 X-0.8989 Y0.5415
G1 X-0.8575 Y0.6414
G1 X-0.8522 Y0.6527
G1 X-0.8012 Y0.7479
G1 X-0.7948 Y0.7586
G1 X-0.7347 Y0.8484
G1 X-0.7272 Y0.8585
G1 X-0.6586 Y0.9419
G1 X-0.6502 Y0.9512
G1 X-0.5738 Y1.0275
G1 X-0.5645 Y1.0359
G1 X-0.4809 Y1.1044
G1 X-0.4709 Y1.1118
G1 X-0.3810 Y1.1718
G1 X-0.3703 Y1.1782
G1 X-0.2749 Y1.2290
G1 X-0.2636 Y1.2343
G1 X-0.1637 Y1.2756
G1 X-0.1520 Y1.2797
G1 X-0.0485 Y1.3110
G1 X-0.0364 Y1.3140
G1 X0.0696 Y1.3349
G1 X0.0820 Y1.3367
G1 X0.1895 Y1.3472
G1 X0.2560 Y1.3490
G1 X150.1160 Y1.1001
G1 X150.1813 Y1.0981
G1 X150.2354 Y1.0940
G1 X150.3011 Y1.0856
G1 X150.3545 Y1.0763
G1 X150.4190 Y1.0614
G1 X150.4713 Y1.0469
G1 X150.5341 Y1.0258
G1 X150.5846 Y1.0062
G1 X150.6450 Y0.9791
G1 X150.6934 Y0.9546
G1 X150.7509 Y0.9217
G1 X150.7967 Y0.8926
G1 X150.8506 Y0.8542
G1 X150.8933 Y0.8208
G1 X150.9432 Y0.7773
G1 X150.9823 Y0.7400
G1 X151.0197 Y0.7007
G1 X151.0631 Y0.6507
G1 X151.0964 Y0.6080
G1 X151.1348 Y0.5540
G1 X151.1637 Y0.5081
G1 X151.1966 Y0.4506
G1 X151.2209 Y0.4022
G1 X151.2480 Y0.3417
G1 X151.2675 Y0.2911
G1 X151.2885 Y0.2283
G1 X151.3029 Y0.1761
G1 X151.3177 Y0.1115
G1 X151.3269 Y0.0581
G1 X151.3352 Y-0.0076
G1 X151.3395 Y-0.0678
G0 Z2.0000
M5 / выключение шпинделя
G0 Z2.0000
G0 Z15.00 X0 Y0


