(G-CODE GENERATED BY FLATCAM v8.994 - www.flatcam.org - Version Date: 2020/11/7)

(Name: Drill_PTH_Through.DRL_edit_mill_cnc)
(Type: G-code from Geometry)
(Units: MM)

(Created on Monday, 19 May 2025 at 13:19)

/TOOL DIAMETER = ДИАМЕТР ИНСТРУМЕНТА: 0.8 mm
/Feedrate_XY = подача XY: 120.0 mm/min
/Feedrate_Z = подача Z: 500.0 mm/min
/Feedrate rapids = быстрая подача1500.0 mm/min

/Z_Cut = проходы по Z: -1.8 mm
/DepthPerCut = углубиться за проход: 0.6 mm <=>3 passes
/Z_Move: 2.0 mm
/Z Start: None mm
/Z End: 15.0 mm
/X,Y End: None mm
(Steps per circle: 64)
/Steps per circle: 64
/Preprocessor Geometry: Charly4U

/X range:    4.5720 ...  148.0820  mm
/Y range:  -56.2610 ...   -1.6510  mm

/Скорость шпинделя: 20000.0 RPM
G71 / измерения в мм
G90 / программирование в абсолютных координатах

F120
/Tool switching while working is not supported! = Смена инструмента в процессе работы не поддерживается!
M3 S20000.0
F120
G0 X4.5720 Y-18.6690
F500
G1 Z-0.6000 F500
F120
G1 X4.5720 Y-18.6690
G1 X4.5720 Y-18.6690
G1 X4.5720 Y-18.6690
G1 X4.5720 Y-18.6690
G0 X4.5720 Y-18.6690
F500
G1 Z-1.2000 F500
F120
G1 X4.5720 Y-18.6690
G1 X4.5720 Y-18.6690
G1 X4.5720 Y-18.6690
G1 X4.5720 Y-18.6690
G0 X4.5720 Y-18.6690
F500
G1 Z-1.8000 F500
F120
G1 X4.5720 Y-18.6690
G1 X4.5720 Y-18.6690
G1 X4.5720 Y-18.6690
G1 X4.5720 Y-18.6690
G0 Z2.0000
G0 X4.5720 Y-23.6690
F500
G1 Z-0.6000 F500
F120
G1 X4.5720 Y-23.6690
G1 X4.5720 Y-23.6690
G1 X4.5720 Y-23.6690
G1 X4.5720 Y-23.6690
G0 X4.5720 Y-23.6690
F500
G1 Z-1.2000 F500
F120
G1 X4.5720 Y-23.6690
G1 X4.5720 Y-23.6690
G1 X4.5720 Y-23.6690
G1 X4.5720 Y-23.6690
G0 X4.5720 Y-23.6690
F500
G1 Z-1.8000 F500
F120
G1 X4.5720 Y-23.6690
G1 X4.5720 Y-23.6690
G1 X4.5720 Y-23.6690
G1 X4.5720 Y-23.6690
G0 Z2.0000
G0 X4.5720 Y-28.6690
F500
G1 Z-0.6000 F500
F120
G1 X4.5720 Y-28.6690
G1 X4.5720 Y-28.6690
G1 X4.5720 Y-28.6690
G1 X4.5720 Y-28.6690
G0 X4.5720 Y-28.6690
F500
G1 Z-1.2000 F500
F120
G1 X4.5720 Y-28.6690
G1 X4.5720 Y-28.6690
G1 X4.5720 Y-28.6690
G1 X4.5720 Y-28.6690
G0 X4.5720 Y-28.6690
F500
G1 Z-1.8000 F500
F120
G1 X4.5720 Y-28.6690
G1 X4.5720 Y-28.6690
G1 X4.5720 Y-28.6690
G1 X4.5720 Y-28.6690
G0 Z2.0000
G0 X4.5720 Y-33.6690
F500
G1 Z-0.6000 F500
F120
G1 X4.5720 Y-33.6690
G1 X4.5720 Y-33.6690
G1 X4.5720 Y-33.6690
G1 X4.5720 Y-33.6690
G0 X4.5720 Y-33.6690
F500
G1 Z-1.2000 F500
F120
G1 X4.5720 Y-33.6690
G1 X4.5720 Y-33.6690
G1 X4.5720 Y-33.6690
G1 X4.5720 Y-33.6690
G0 X4.5720 Y-33.6690
F500
G1 Z-1.8000 F500
F120
G1 X4.5720 Y-33.6690
G1 X4.5720 Y-33.6690
G1 X4.5720 Y-33.6690
G1 X4.5720 Y-33.6690
G0 Z2.0000
G0 X9.1440 Y-35.0520
F500
G1 Z-0.6000 F500
F120
G1 X9.1440 Y-35.0520
G1 X9.1440 Y-35.0520
G1 X9.1440 Y-35.0520
G1 X9.1440 Y-35.0520
G0 X9.1440 Y-35.0520
F500
G1 Z-1.2000 F500
F120
G1 X9.1440 Y-35.0520
G1 X9.1440 Y-35.0520
G1 X9.1440 Y-35.0520
G1 X9.1440 Y-35.0520
G0 X9.1440 Y-35.0520
F500
G1 Z-1.8000 F500
F120
G1 X9.1440 Y-35.0520
G1 X9.1440 Y-35.0520
G1 X9.1440 Y-35.0520
G1 X9.1440 Y-35.0520
G0 Z2.0000
G0 X9.0170 Y-38.4810
F500
G1 Z-0.6000 F500
F120
G1 X9.0170 Y-38.4810
G1 X9.0170 Y-38.4810
G1 X9.0170 Y-38.4810
G1 X9.0170 Y-38.4810
G0 X9.0170 Y-38.4810
F500
G1 Z-1.2000 F500
F120
G1 X9.0170 Y-38.4810
G1 X9.0170 Y-38.4810
G1 X9.0170 Y-38.4810
G1 X9.0170 Y-38.4810
G0 X9.0170 Y-38.4810
F500
G1 Z-1.8000 F500
F120
G1 X9.0170 Y-38.4810
G1 X9.0170 Y-38.4810
G1 X9.0170 Y-38.4810
G1 X9.0170 Y-38.4810
G0 Z2.0000
G0 X4.5720 Y-38.6690
F500
G1 Z-0.6000 F500
F120
G1 X4.5720 Y-38.6690
G1 X4.5720 Y-38.6690
G1 X4.5720 Y-38.6690
G1 X4.5720 Y-38.6690
G0 X4.5720 Y-38.6690
F500
G1 Z-1.2000 F500
F120
G1 X4.5720 Y-38.6690
G1 X4.5720 Y-38.6690
G1 X4.5720 Y-38.6690
G1 X4.5720 Y-38.6690
G0 X4.5720 Y-38.6690
F500
G1 Z-1.8000 F500
F120
G1 X4.5720 Y-38.6690
G1 X4.5720 Y-38.6690
G1 X4.5720 Y-38.6690
G1 X4.5720 Y-38.6690
G0 Z2.0000
G0 X4.5720 Y-43.6690
F500
G1 Z-0.6000 F500
F120
G1 X4.5720 Y-43.6690
G1 X4.5720 Y-43.6690
G1 X4.5720 Y-43.6690
G1 X4.5720 Y-43.6690
G0 X4.5720 Y-43.6690
F500
G1 Z-1.2000 F500
F120
G1 X4.5720 Y-43.6690
G1 X4.5720 Y-43.6690
G1 X4.5720 Y-43.6690
G1 X4.5720 Y-43.6690
G0 X4.5720 Y-43.6690
F500
G1 Z-1.8000 F500
F120
G1 X4.5720 Y-43.6690
G1 X4.5720 Y-43.6690
G1 X4.5720 Y-43.6690
G1 X4.5720 Y-43.6690
G0 Z2.0000
G0 X4.5720 Y-48.6690
F500
G1 Z-0.6000 F500
F120
G1 X4.5720 Y-48.6690
G1 X4.5720 Y-48.6690
G1 X4.5720 Y-48.6690
G1 X4.5720 Y-48.6690
G0 X4.5720 Y-48.6690
F500
G1 Z-1.2000 F500
F120
G1 X4.5720 Y-48.6690
G1 X4.5720 Y-48.6690
G1 X4.5720 Y-48.6690
G1 X4.5720 Y-48.6690
G0 X4.5720 Y-48.6690
F500
G1 Z-1.8000 F500
F120
G1 X4.5720 Y-48.6690
G1 X4.5720 Y-48.6690
G1 X4.5720 Y-48.6690
G1 X4.5720 Y-48.6690
G0 Z2.0000
G0 X4.5720 Y-53.6690
F500
G1 Z-0.6000 F500
F120
G1 X4.5720 Y-53.6690
G1 X4.5720 Y-53.6690
G1 X4.5720 Y-53.6690
G1 X4.5720 Y-53.6690
G0 X4.5720 Y-53.6690
F500
G1 Z-1.2000 F500
F120
G1 X4.5720 Y-53.6690
G1 X4.5720 Y-53.6690
G1 X4.5720 Y-53.6690
G1 X4.5720 Y-53.6690
G0 X4.5720 Y-53.6690
F500
G1 Z-1.8000 F500
F120
G1 X4.5720 Y-53.6690
G1 X4.5720 Y-53.6690
G1 X4.5720 Y-53.6690
G1 X4.5720 Y-53.6690
G0 Z2.0000
G0 X14.2240 Y-51.8160
F500
G1 Z-0.6000 F500
F120
G1 X14.2240 Y-51.8160
G1 X14.2240 Y-51.8160
G1 X14.2240 Y-51.8160
G1 X14.2240 Y-51.8160
G0 X14.2240 Y-51.8160
F500
G1 Z-1.2000 F500
F120
G1 X14.2240 Y-51.8160
G1 X14.2240 Y-51.8160
G1 X14.2240 Y-51.8160
G1 X14.2240 Y-51.8160
G0 X14.2240 Y-51.8160
F500
G1 Z-1.8000 F500
F120
G1 X14.2240 Y-51.8160
G1 X14.2240 Y-51.8160
G1 X14.2240 Y-51.8160
G1 X14.2240 Y-51.8160
G0 Z2.0000
G0 X16.6370 Y-46.7360
F500
G1 Z-0.6000 F500
F120
G1 X16.6370 Y-46.7360
G1 X16.6370 Y-46.7360
G1 X16.6370 Y-46.7360
G1 X16.6370 Y-46.7360
G0 X16.6370 Y-46.7360
F500
G1 Z-1.2000 F500
F120
G1 X16.6370 Y-46.7360
G1 X16.6370 Y-46.7360
G1 X16.6370 Y-46.7360
G1 X16.6370 Y-46.7360
G0 X16.6370 Y-46.7360
F500
G1 Z-1.8000 F500
F120
G1 X16.6370 Y-46.7360
G1 X16.6370 Y-46.7360
G1 X16.6370 Y-46.7360
G1 X16.6370 Y-46.7360
G0 Z2.0000
G0 X19.6850 Y-42.6720
F500
G1 Z-0.6000 F500
F120
G1 X19.6850 Y-42.6720
G1 X19.6850 Y-42.6720
G1 X19.6850 Y-42.6720
G1 X19.6850 Y-42.6720
G0 X19.6850 Y-42.6720
F500
G1 Z-1.2000 F500
F120
G1 X19.6850 Y-42.6720
G1 X19.6850 Y-42.6720
G1 X19.6850 Y-42.6720
G1 X19.6850 Y-42.6720
G0 X19.6850 Y-42.6720
F500
G1 Z-1.8000 F500
F120
G1 X19.6850 Y-42.6720
G1 X19.6850 Y-42.6720
G1 X19.6850 Y-42.6720
G1 X19.6850 Y-42.6720
G0 Z2.0000
G0 X16.6370 Y-38.4810
F500
G1 Z-0.6000 F500
F120
G1 X16.6370 Y-38.4810
G1 X16.6370 Y-38.4810
G1 X16.6370 Y-38.4810
G1 X16.6370 Y-38.4810
G0 X16.6370 Y-38.4810
F500
G1 Z-1.2000 F500
F120
G1 X16.6370 Y-38.4810
G1 X16.6370 Y-38.4810
G1 X16.6370 Y-38.4810
G1 X16.6370 Y-38.4810
G0 X16.6370 Y-38.4810
F500
G1 Z-1.8000 F500
F120
G1 X16.6370 Y-38.4810
G1 X16.6370 Y-38.4810
G1 X16.6370 Y-38.4810
G1 X16.6370 Y-38.4810
G0 Z2.0000
G0 X16.7640 Y-35.0520
F500
G1 Z-0.6000 F500
F120
G1 X16.7640 Y-35.0520
G1 X16.7640 Y-35.0520
G1 X16.7640 Y-35.0520
G1 X16.7640 Y-35.0520
G0 X16.7640 Y-35.0520
F500
G1 Z-1.2000 F500
F120
G1 X16.7640 Y-35.0520
G1 X16.7640 Y-35.0520
G1 X16.7640 Y-35.0520
G1 X16.7640 Y-35.0520
G0 X16.7640 Y-35.0520
F500
G1 Z-1.8000 F500
F120
G1 X16.7640 Y-35.0520
G1 X16.7640 Y-35.0520
G1 X16.7640 Y-35.0520
G1 X16.7640 Y-35.0520
G0 Z2.0000
G0 X20.1930 Y-31.4960
F500
G1 Z-0.6000 F500
F120
G1 X20.1930 Y-31.4960
G1 X20.1930 Y-31.4960
G1 X20.1930 Y-31.4960
G1 X20.1930 Y-31.4960
G0 X20.1930 Y-31.4960
F500
G1 Z-1.2000 F500
F120
G1 X20.1930 Y-31.4960
G1 X20.1930 Y-31.4960
G1 X20.1930 Y-31.4960
G1 X20.1930 Y-31.4960
G0 X20.1930 Y-31.4960
F500
G1 Z-1.8000 F500
F120
G1 X20.1930 Y-31.4960
G1 X20.1930 Y-31.4960
G1 X20.1930 Y-31.4960
G1 X20.1930 Y-31.4960
G0 Z2.0000
G0 X20.1930 Y-28.9560
F500
G1 Z-0.6000 F500
F120
G1 X20.1930 Y-28.9560
G1 X20.1930 Y-28.9560
G1 X20.1930 Y-28.9560
G1 X20.1930 Y-28.9560
G0 X20.1930 Y-28.9560
F500
G1 Z-1.2000 F500
F120
G1 X20.1930 Y-28.9560
G1 X20.1930 Y-28.9560
G1 X20.1930 Y-28.9560
G1 X20.1930 Y-28.9560
G0 X20.1930 Y-28.9560
F500
G1 Z-1.8000 F500
F120
G1 X20.1930 Y-28.9560
G1 X20.1930 Y-28.9560
G1 X20.1930 Y-28.9560
G1 X20.1930 Y-28.9560
G0 Z2.0000
G0 X20.1930 Y-26.4160
F500
G1 Z-0.6000 F500
F120
G1 X20.1930 Y-26.4160
G1 X20.1930 Y-26.4160
G1 X20.1930 Y-26.4160
G1 X20.1930 Y-26.4160
G0 X20.1930 Y-26.4160
F500
G1 Z-1.2000 F500
F120
G1 X20.1930 Y-26.4160
G1 X20.1930 Y-26.4160
G1 X20.1930 Y-26.4160
G1 X20.1930 Y-26.4160
G0 X20.1930 Y-26.4160
F500
G1 Z-1.8000 F500
F120
G1 X20.1930 Y-26.4160
G1 X20.1930 Y-26.4160
G1 X20.1930 Y-26.4160
G1 X20.1930 Y-26.4160
G0 Z2.0000
G0 X20.1930 Y-23.8760
F500
G1 Z-0.6000 F500
F120
G1 X20.1930 Y-23.8760
G1 X20.1930 Y-23.8760
G1 X20.1930 Y-23.8760
G1 X20.1930 Y-23.8760
G0 X20.1930 Y-23.8760
F500
G1 Z-1.2000 F500
F120
G1 X20.1930 Y-23.8760
G1 X20.1930 Y-23.8760
G1 X20.1930 Y-23.8760
G1 X20.1930 Y-23.8760
G0 X20.1930 Y-23.8760
F500
G1 Z-1.8000 F500
F120
G1 X20.1930 Y-23.8760
G1 X20.1930 Y-23.8760
G1 X20.1930 Y-23.8760
G1 X20.1930 Y-23.8760
G0 Z2.0000
G0 X15.7480 Y-21.3360
F500
G1 Z-0.6000 F500
F120
G1 X15.7480 Y-21.3360
G1 X15.7480 Y-21.3360
G1 X15.7480 Y-21.3360
G1 X15.7480 Y-21.3360
G0 X15.7480 Y-21.3360
F500
G1 Z-1.2000 F500
F120
G1 X15.7480 Y-21.3360
G1 X15.7480 Y-21.3360
G1 X15.7480 Y-21.3360
G1 X15.7480 Y-21.3360
G0 X15.7480 Y-21.3360
F500
G1 Z-1.8000 F500
F120
G1 X15.7480 Y-21.3360
G1 X15.7480 Y-21.3360
G1 X15.7480 Y-21.3360
G1 X15.7480 Y-21.3360
G0 Z2.0000
G0 X12.8270 Y-26.2890
F500
G1 Z-0.6000 F500
F120
G1 X12.8270 Y-26.2890
G1 X12.8270 Y-26.2890
G1 X12.8270 Y-26.2890
G1 X12.8270 Y-26.2890
G0 X12.8270 Y-26.2890
F500
G1 Z-1.2000 F500
F120
G1 X12.8270 Y-26.2890
G1 X12.8270 Y-26.2890
G1 X12.8270 Y-26.2890
G1 X12.8270 Y-26.2890
G0 X12.8270 Y-26.2890
F500
G1 Z-1.8000 F500
F120
G1 X12.8270 Y-26.2890
G1 X12.8270 Y-26.2890
G1 X12.8270 Y-26.2890
G1 X12.8270 Y-26.2890
G0 Z2.0000
G0 X15.7480 Y-28.9560
F500
G1 Z-0.6000 F500
F120
G1 X15.7480 Y-28.9560
G1 X15.7480 Y-28.9560
G1 X15.7480 Y-28.9560
G1 X15.7480 Y-28.9560
G0 X15.7480 Y-28.9560
F500
G1 Z-1.2000 F500
F120
G1 X15.7480 Y-28.9560
G1 X15.7480 Y-28.9560
G1 X15.7480 Y-28.9560
G1 X15.7480 Y-28.9560
G0 X15.7480 Y-28.9560
F500
G1 Z-1.8000 F500
F120
G1 X15.7480 Y-28.9560
G1 X15.7480 Y-28.9560
G1 X15.7480 Y-28.9560
G1 X15.7480 Y-28.9560
G0 Z2.0000
G0 X27.8130 Y-28.9560
F500
G1 Z-0.6000 F500
F120
G1 X27.8130 Y-28.9560
G1 X27.8130 Y-28.9560
G1 X27.8130 Y-28.9560
G1 X27.8130 Y-28.9560
G0 X27.8130 Y-28.9560
F500
G1 Z-1.2000 F500
F120
G1 X27.8130 Y-28.9560
G1 X27.8130 Y-28.9560
G1 X27.8130 Y-28.9560
G1 X27.8130 Y-28.9560
G0 X27.8130 Y-28.9560
F500
G1 Z-1.8000 F500
F120
G1 X27.8130 Y-28.9560
G1 X27.8130 Y-28.9560
G1 X27.8130 Y-28.9560
G1 X27.8130 Y-28.9560
G0 Z2.0000
G0 X27.8130 Y-31.4960
F500
G1 Z-0.6000 F500
F120
G1 X27.8130 Y-31.4960
G1 X27.8130 Y-31.4960
G1 X27.8130 Y-31.4960
G1 X27.8130 Y-31.4960
G0 X27.8130 Y-31.4960
F500
G1 Z-1.2000 F500
F120
G1 X27.8130 Y-31.4960
G1 X27.8130 Y-31.4960
G1 X27.8130 Y-31.4960
G1 X27.8130 Y-31.4960
G0 X27.8130 Y-31.4960
F500
G1 Z-1.8000 F500
F120
G1 X27.8130 Y-31.4960
G1 X27.8130 Y-31.4960
G1 X27.8130 Y-31.4960
G1 X27.8130 Y-31.4960
G0 Z2.0000
G0 X27.8130 Y-26.4160
F500
G1 Z-0.6000 F500
F120
G1 X27.8130 Y-26.4160
G1 X27.8130 Y-26.4160
G1 X27.8130 Y-26.4160
G1 X27.8130 Y-26.4160
G0 X27.8130 Y-26.4160
F500
G1 Z-1.2000 F500
F120
G1 X27.8130 Y-26.4160
G1 X27.8130 Y-26.4160
G1 X27.8130 Y-26.4160
G1 X27.8130 Y-26.4160
G0 X27.8130 Y-26.4160
F500
G1 Z-1.8000 F500
F120
G1 X27.8130 Y-26.4160
G1 X27.8130 Y-26.4160
G1 X27.8130 Y-26.4160
G1 X27.8130 Y-26.4160
G0 Z2.0000
G0 X27.8130 Y-23.8760
F500
G1 Z-0.6000 F500
F120
G1 X27.8130 Y-23.8760
G1 X27.8130 Y-23.8760
G1 X27.8130 Y-23.8760
G1 X27.8130 Y-23.8760
G0 X27.8130 Y-23.8760
F500
G1 Z-1.2000 F500
F120
G1 X27.8130 Y-23.8760
G1 X27.8130 Y-23.8760
G1 X27.8130 Y-23.8760
G1 X27.8130 Y-23.8760
G0 X27.8130 Y-23.8760
F500
G1 Z-1.8000 F500
F120
G1 X27.8130 Y-23.8760
G1 X27.8130 Y-23.8760
G1 X27.8130 Y-23.8760
G1 X27.8130 Y-23.8760
G0 Z2.0000
G0 X35.1790 Y-32.7660
F500
G1 Z-0.6000 F500
F120
G1 X35.1790 Y-32.7660
G1 X35.1790 Y-32.7660
G1 X35.1790 Y-32.7660
G1 X35.1790 Y-32.7660
G0 X35.1790 Y-32.7660
F500
G1 Z-1.2000 F500
F120
G1 X35.1790 Y-32.7660
G1 X35.1790 Y-32.7660
G1 X35.1790 Y-32.7660
G1 X35.1790 Y-32.7660
G0 X35.1790 Y-32.7660
F500
G1 Z-1.8000 F500
F120
G1 X35.1790 Y-32.7660
G1 X35.1790 Y-32.7660
G1 X35.1790 Y-32.7660
G1 X35.1790 Y-32.7660
G0 Z2.0000
G0 X37.7190 Y-32.7660
F500
G1 Z-0.6000 F500
F120
G1 X37.7190 Y-32.7660
G1 X37.7190 Y-32.7660
G1 X37.7190 Y-32.7660
G1 X37.7190 Y-32.7660
G0 X37.7190 Y-32.7660
F500
G1 Z-1.2000 F500
F120
G1 X37.7190 Y-32.7660
G1 X37.7190 Y-32.7660
G1 X37.7190 Y-32.7660
G1 X37.7190 Y-32.7660
G0 X37.7190 Y-32.7660
F500
G1 Z-1.8000 F500
F120
G1 X37.7190 Y-32.7660
G1 X37.7190 Y-32.7660
G1 X37.7190 Y-32.7660
G1 X37.7190 Y-32.7660
G0 Z2.0000
G0 X42.2910 Y-35.6510
F500
G1 Z-0.6000 F500
F120
G1 X42.2910 Y-35.6510
G1 X42.2910 Y-35.6510
G1 X42.2910 Y-35.6510
G1 X42.2910 Y-35.6510
G0 X42.2910 Y-35.6510
F500
G1 Z-1.2000 F500
F120
G1 X42.2910 Y-35.6510
G1 X42.2910 Y-35.6510
G1 X42.2910 Y-35.6510
G1 X42.2910 Y-35.6510
G0 X42.2910 Y-35.6510
F500
G1 Z-1.8000 F500
F120
G1 X42.2910 Y-35.6510
G1 X42.2910 Y-35.6510
G1 X42.2910 Y-35.6510
G1 X42.2910 Y-35.6510
G0 Z2.0000
G0 X42.2910 Y-43.8510
F500
G1 Z-0.6000 F500
F120
G1 X42.2910 Y-43.8510
G1 X42.2910 Y-43.8510
G1 X42.2910 Y-43.8510
G1 X42.2910 Y-43.8510
G0 X42.2910 Y-43.8510
F500
G1 Z-1.2000 F500
F120
G1 X42.2910 Y-43.8510
G1 X42.2910 Y-43.8510
G1 X42.2910 Y-43.8510
G1 X42.2910 Y-43.8510
G0 X42.2910 Y-43.8510
F500
G1 Z-1.8000 F500
F120
G1 X42.2910 Y-43.8510
G1 X42.2910 Y-43.8510
G1 X42.2910 Y-43.8510
G1 X42.2910 Y-43.8510
G0 Z2.0000
G0 X45.9740 Y-43.9420
F500
G1 Z-0.6000 F500
F120
G1 X45.9740 Y-43.9420
G1 X45.9740 Y-43.9420
G1 X45.9740 Y-43.9420
G1 X45.9740 Y-43.9420
G0 X45.9740 Y-43.9420
F500
G1 Z-1.2000 F500
F120
G1 X45.9740 Y-43.9420
G1 X45.9740 Y-43.9420
G1 X45.9740 Y-43.9420
G1 X45.9740 Y-43.9420
G0 X45.9740 Y-43.9420
F500
G1 Z-1.8000 F500
F120
G1 X45.9740 Y-43.9420
G1 X45.9740 Y-43.9420
G1 X45.9740 Y-43.9420
G1 X45.9740 Y-43.9420
G0 Z2.0000
G0 X49.7520 Y-47.5380
F500
G1 Z-0.6000 F500
F120
G1 X49.7520 Y-47.5380
G1 X49.7520 Y-47.5380
G1 X49.7520 Y-47.5380
G1 X49.7520 Y-47.5380
G0 X49.7520 Y-47.5380
F500
G1 Z-1.2000 F500
F120
G1 X49.7520 Y-47.5380
G1 X49.7520 Y-47.5380
G1 X49.7520 Y-47.5380
G1 X49.7520 Y-47.5380
G0 X49.7520 Y-47.5380
F500
G1 Z-1.8000 F500
F120
G1 X49.7520 Y-47.5380
G1 X49.7520 Y-47.5380
G1 X49.7520 Y-47.5380
G1 X49.7520 Y-47.5380
G0 Z2.0000
G0 X51.7520 Y-50.0380
F500
G1 Z-0.6000 F500
F120
G1 X51.7520 Y-50.0380
G1 X51.7520 Y-50.0380
G1 X51.7520 Y-50.0380
G1 X51.7520 Y-50.0380
G0 X51.7520 Y-50.0380
F500
G1 Z-1.2000 F500
F120
G1 X51.7520 Y-50.0380
G1 X51.7520 Y-50.0380
G1 X51.7520 Y-50.0380
G1 X51.7520 Y-50.0380
G0 X51.7520 Y-50.0380
F500
G1 Z-1.8000 F500
F120
G1 X51.7520 Y-50.0380
G1 X51.7520 Y-50.0380
G1 X51.7520 Y-50.0380
G1 X51.7520 Y-50.0380
G0 Z2.0000
G0 X47.7520 Y-50.0380
F500
G1 Z-0.6000 F500
F120
G1 X47.7520 Y-50.0380
G1 X47.7520 Y-50.0380
G1 X47.7520 Y-50.0380
G1 X47.7520 Y-50.0380
G0 X47.7520 Y-50.0380
F500
G1 Z-1.2000 F500
F120
G1 X47.7520 Y-50.0380
G1 X47.7520 Y-50.0380
G1 X47.7520 Y-50.0380
G1 X47.7520 Y-50.0380
G0 X47.7520 Y-50.0380
F500
G1 Z-1.8000 F500
F120
G1 X47.7520 Y-50.0380
G1 X47.7520 Y-50.0380
G1 X47.7520 Y-50.0380
G1 X47.7520 Y-50.0380
G0 Z2.0000
G0 X53.5940 Y-43.9420
F500
G1 Z-0.6000 F500
F120
G1 X53.5940 Y-43.9420
G1 X53.5940 Y-43.9420
G1 X53.5940 Y-43.9420
G1 X53.5940 Y-43.9420
G0 X53.5940 Y-43.9420
F500
G1 Z-1.2000 F500
F120
G1 X53.5940 Y-43.9420
G1 X53.5940 Y-43.9420
G1 X53.5940 Y-43.9420
G1 X53.5940 Y-43.9420
G0 X53.5940 Y-43.9420
F500
G1 Z-1.8000 F500
F120
G1 X53.5940 Y-43.9420
G1 X53.5940 Y-43.9420
G1 X53.5940 Y-43.9420
G1 X53.5940 Y-43.9420
G0 Z2.0000
G0 X53.3400 Y-36.8350
F500
G1 Z-0.6000 F500
F120
G1 X53.3400 Y-36.8350
G1 X53.3400 Y-36.8350
G1 X53.3400 Y-36.8350
G1 X53.3400 Y-36.8350
G0 X53.3400 Y-36.8350
F500
G1 Z-1.2000 F500
F120
G1 X53.3400 Y-36.8350
G1 X53.3400 Y-36.8350
G1 X53.3400 Y-36.8350
G1 X53.3400 Y-36.8350
G0 X53.3400 Y-36.8350
F500
G1 Z-1.8000 F500
F120
G1 X53.3400 Y-36.8350
G1 X53.3400 Y-36.8350
G1 X53.3400 Y-36.8350
G1 X53.3400 Y-36.8350
G0 Z2.0000
G0 X50.8000 Y-36.8350
F500
G1 Z-0.6000 F500
F120
G1 X50.8000 Y-36.8350
G1 X50.8000 Y-36.8350
G1 X50.8000 Y-36.8350
G1 X50.8000 Y-36.8350
G0 X50.8000 Y-36.8350
F500
G1 Z-1.2000 F500
F120
G1 X50.8000 Y-36.8350
G1 X50.8000 Y-36.8350
G1 X50.8000 Y-36.8350
G1 X50.8000 Y-36.8350
G0 X50.8000 Y-36.8350
F500
G1 Z-1.8000 F500
F120
G1 X50.8000 Y-36.8350
G1 X50.8000 Y-36.8350
G1 X50.8000 Y-36.8350
G1 X50.8000 Y-36.8350
G0 Z2.0000
G0 X55.8800 Y-36.8250
F500
G1 Z-0.6000 F500
F120
G1 X55.8800 Y-36.8250
G1 X55.8800 Y-36.8250
G1 X55.8800 Y-36.8250
G1 X55.8800 Y-36.8250
G0 X55.8800 Y-36.8250
F500
G1 Z-1.2000 F500
F120
G1 X55.8800 Y-36.8250
G1 X55.8800 Y-36.8250
G1 X55.8800 Y-36.8250
G1 X55.8800 Y-36.8250
G0 X55.8800 Y-36.8250
F500
G1 Z-1.8000 F500
F120
G1 X55.8800 Y-36.8250
G1 X55.8800 Y-36.8250
G1 X55.8800 Y-36.8250
G1 X55.8800 Y-36.8250
G0 Z2.0000
G0 X61.2140 Y-33.2740
F500
G1 Z-0.6000 F500
F120
G1 X61.2140 Y-33.2740
G1 X61.2140 Y-33.2740
G1 X61.2140 Y-33.2740
G1 X61.2140 Y-33.2740
G0 X61.2140 Y-33.2740
F500
G1 Z-1.2000 F500
F120
G1 X61.2140 Y-33.2740
G1 X61.2140 Y-33.2740
G1 X61.2140 Y-33.2740
G1 X61.2140 Y-33.2740
G0 X61.2140 Y-33.2740
F500
G1 Z-1.8000 F500
F120
G1 X61.2140 Y-33.2740
G1 X61.2140 Y-33.2740
G1 X61.2140 Y-33.2740
G1 X61.2140 Y-33.2740
G0 Z2.0000
G0 X66.2950 Y-36.9570
F500
G1 Z-0.6000 F500
F120
G1 X66.2950 Y-36.9570
G1 X66.2950 Y-36.9570
G1 X66.2950 Y-36.9570
G1 X66.2950 Y-36.9570
G0 X66.2950 Y-36.9570
F500
G1 Z-1.2000 F500
F120
G1 X66.2950 Y-36.9570
G1 X66.2950 Y-36.9570
G1 X66.2950 Y-36.9570
G1 X66.2950 Y-36.9570
G0 X66.2950 Y-36.9570
F500
G1 Z-1.8000 F500
F120
G1 X66.2950 Y-36.9570
G1 X66.2950 Y-36.9570
G1 X66.2950 Y-36.9570
G1 X66.2950 Y-36.9570
G0 Z2.0000
G0 X68.8340 Y-36.9570
F500
G1 Z-0.6000 F500
F120
G1 X68.8340 Y-36.9570
G1 X68.8340 Y-36.9570
G1 X68.8340 Y-36.9570
G1 X68.8340 Y-36.9570
G0 X68.8340 Y-36.9570
F500
G1 Z-1.2000 F500
F120
G1 X68.8340 Y-36.9570
G1 X68.8340 Y-36.9570
G1 X68.8340 Y-36.9570
G1 X68.8340 Y-36.9570
G0 X68.8340 Y-36.9570
F500
G1 Z-1.8000 F500
F120
G1 X68.8340 Y-36.9570
G1 X68.8340 Y-36.9570
G1 X68.8340 Y-36.9570
G1 X68.8340 Y-36.9570
G0 Z2.0000
G0 X71.3730 Y-36.9570
F500
G1 Z-0.6000 F500
F120
G1 X71.3730 Y-36.9570
G1 X71.3730 Y-36.9570
G1 X71.3730 Y-36.9570
G1 X71.3730 Y-36.9570
G0 X71.3730 Y-36.9570
F500
G1 Z-1.2000 F500
F120
G1 X71.3730 Y-36.9570
G1 X71.3730 Y-36.9570
G1 X71.3730 Y-36.9570
G1 X71.3730 Y-36.9570
G0 X71.3730 Y-36.9570
F500
G1 Z-1.8000 F500
F120
G1 X71.3730 Y-36.9570
G1 X71.3730 Y-36.9570
G1 X71.3730 Y-36.9570
G1 X71.3730 Y-36.9570
G0 Z2.0000
G0 X68.8340 Y-33.2740
F500
G1 Z-0.6000 F500
F120
G1 X68.8340 Y-33.2740
G1 X68.8340 Y-33.2740
G1 X68.8340 Y-33.2740
G1 X68.8340 Y-33.2740
G0 X68.8340 Y-33.2740
F500
G1 Z-1.2000 F500
F120
G1 X68.8340 Y-33.2740
G1 X68.8340 Y-33.2740
G1 X68.8340 Y-33.2740
G1 X68.8340 Y-33.2740
G0 X68.8340 Y-33.2740
F500
G1 Z-1.8000 F500
F120
G1 X68.8340 Y-33.2740
G1 X68.8340 Y-33.2740
G1 X68.8340 Y-33.2740
G1 X68.8340 Y-33.2740
G0 Z2.0000
G0 X68.9610 Y-29.5910
F500
G1 Z-0.6000 F500
F120
G1 X68.9610 Y-29.5910
G1 X68.9610 Y-29.5910
G1 X68.9610 Y-29.5910
G1 X68.9610 Y-29.5910
G0 X68.9610 Y-29.5910
F500
G1 Z-1.2000 F500
F120
G1 X68.9610 Y-29.5910
G1 X68.9610 Y-29.5910
G1 X68.9610 Y-29.5910
G1 X68.9610 Y-29.5910
G0 X68.9610 Y-29.5910
F500
G1 Z-1.8000 F500
F120
G1 X68.9610 Y-29.5910
G1 X68.9610 Y-29.5910
G1 X68.9610 Y-29.5910
G1 X68.9610 Y-29.5910
G0 Z2.0000
G0 X66.4220 Y-29.5910
F500
G1 Z-0.6000 F500
F120
G1 X66.4220 Y-29.5910
G1 X66.4220 Y-29.5910
G1 X66.4220 Y-29.5910
G1 X66.4220 Y-29.5910
G0 X66.4220 Y-29.5910
F500
G1 Z-1.2000 F500
F120
G1 X66.4220 Y-29.5910
G1 X66.4220 Y-29.5910
G1 X66.4220 Y-29.5910
G1 X66.4220 Y-29.5910
G0 X66.4220 Y-29.5910
F500
G1 Z-1.8000 F500
F120
G1 X66.4220 Y-29.5910
G1 X66.4220 Y-29.5910
G1 X66.4220 Y-29.5910
G1 X66.4220 Y-29.5910
G0 Z2.0000
G0 X71.5000 Y-29.5910
F500
G1 Z-0.6000 F500
F120
G1 X71.5000 Y-29.5910
G1 X71.5000 Y-29.5910
G1 X71.5000 Y-29.5910
G1 X71.5000 Y-29.5910
G0 X71.5000 Y-29.5910
F500
G1 Z-1.2000 F500
F120
G1 X71.5000 Y-29.5910
G1 X71.5000 Y-29.5910
G1 X71.5000 Y-29.5910
G1 X71.5000 Y-29.5910
G0 X71.5000 Y-29.5910
F500
G1 Z-1.8000 F500
F120
G1 X71.5000 Y-29.5910
G1 X71.5000 Y-29.5910
G1 X71.5000 Y-29.5910
G1 X71.5000 Y-29.5910
G0 Z2.0000
G0 X72.5170 Y-24.7650
F500
G1 Z-0.6000 F500
F120
G1 X72.5170 Y-24.7650
G1 X72.5170 Y-24.7650
G1 X72.5170 Y-24.7650
G1 X72.5170 Y-24.7650
G0 X72.5170 Y-24.7650
F500
G1 Z-1.2000 F500
F120
G1 X72.5170 Y-24.7650
G1 X72.5170 Y-24.7650
G1 X72.5170 Y-24.7650
G1 X72.5170 Y-24.7650
G0 X72.5170 Y-24.7650
F500
G1 Z-1.8000 F500
F120
G1 X72.5170 Y-24.7650
G1 X72.5170 Y-24.7650
G1 X72.5170 Y-24.7650
G1 X72.5170 Y-24.7650
G0 Z2.0000
G0 X75.0570 Y-24.7650
F500
G1 Z-0.6000 F500
F120
G1 X75.0570 Y-24.7650
G1 X75.0570 Y-24.7650
G1 X75.0570 Y-24.7650
G1 X75.0570 Y-24.7650
G0 X75.0570 Y-24.7650
F500
G1 Z-1.2000 F500
F120
G1 X75.0570 Y-24.7650
G1 X75.0570 Y-24.7650
G1 X75.0570 Y-24.7650
G1 X75.0570 Y-24.7650
G0 X75.0570 Y-24.7650
F500
G1 Z-1.8000 F500
F120
G1 X75.0570 Y-24.7650
G1 X75.0570 Y-24.7650
G1 X75.0570 Y-24.7650
G1 X75.0570 Y-24.7650
G0 Z2.0000
G0 X75.0570 Y-22.2250
F500
G1 Z-0.6000 F500
F120
G1 X75.0570 Y-22.2250
G1 X75.0570 Y-22.2250
G1 X75.0570 Y-22.2250
G1 X75.0570 Y-22.2250
G0 X75.0570 Y-22.2250
F500
G1 Z-1.2000 F500
F120
G1 X75.0570 Y-22.2250
G1 X75.0570 Y-22.2250
G1 X75.0570 Y-22.2250
G1 X75.0570 Y-22.2250
G0 X75.0570 Y-22.2250
F500
G1 Z-1.8000 F500
F120
G1 X75.0570 Y-22.2250
G1 X75.0570 Y-22.2250
G1 X75.0570 Y-22.2250
G1 X75.0570 Y-22.2250
G0 Z2.0000
G0 X72.5170 Y-22.2250
F500
G1 Z-0.6000 F500
F120
G1 X72.5170 Y-22.2250
G1 X72.5170 Y-22.2250
G1 X72.5170 Y-22.2250
G1 X72.5170 Y-22.2250
G0 X72.5170 Y-22.2250
F500
G1 Z-1.2000 F500
F120
G1 X72.5170 Y-22.2250
G1 X72.5170 Y-22.2250
G1 X72.5170 Y-22.2250
G1 X72.5170 Y-22.2250
G0 X72.5170 Y-22.2250
F500
G1 Z-1.8000 F500
F120
G1 X72.5170 Y-22.2250
G1 X72.5170 Y-22.2250
G1 X72.5170 Y-22.2250
G1 X72.5170 Y-22.2250
G0 Z2.0000
G0 X72.5170 Y-19.6850
F500
G1 Z-0.6000 F500
F120
G1 X72.5170 Y-19.6850
G1 X72.5170 Y-19.6850
G1 X72.5170 Y-19.6850
G1 X72.5170 Y-19.6850
G0 X72.5170 Y-19.6850
F500
G1 Z-1.2000 F500
F120
G1 X72.5170 Y-19.6850
G1 X72.5170 Y-19.6850
G1 X72.5170 Y-19.6850
G1 X72.5170 Y-19.6850
G0 X72.5170 Y-19.6850
F500
G1 Z-1.8000 F500
F120
G1 X72.5170 Y-19.6850
G1 X72.5170 Y-19.6850
G1 X72.5170 Y-19.6850
G1 X72.5170 Y-19.6850
G0 Z2.0000
G0 X75.0570 Y-19.6850
F500
G1 Z-0.6000 F500
F120
G1 X75.0570 Y-19.6850
G1 X75.0570 Y-19.6850
G1 X75.0570 Y-19.6850
G1 X75.0570 Y-19.6850
G0 X75.0570 Y-19.6850
F500
G1 Z-1.2000 F500
F120
G1 X75.0570 Y-19.6850
G1 X75.0570 Y-19.6850
G1 X75.0570 Y-19.6850
G1 X75.0570 Y-19.6850
G0 X75.0570 Y-19.6850
F500
G1 Z-1.8000 F500
F120
G1 X75.0570 Y-19.6850
G1 X75.0570 Y-19.6850
G1 X75.0570 Y-19.6850
G1 X75.0570 Y-19.6850
G0 Z2.0000
G0 X75.0570 Y-17.1450
F500
G1 Z-0.6000 F500
F120
G1 X75.0570 Y-17.1450
G1 X75.0570 Y-17.1450
G1 X75.0570 Y-17.1450
G1 X75.0570 Y-17.1450
G0 X75.0570 Y-17.1450
F500
G1 Z-1.2000 F500
F120
G1 X75.0570 Y-17.1450
G1 X75.0570 Y-17.1450
G1 X75.0570 Y-17.1450
G1 X75.0570 Y-17.1450
G0 X75.0570 Y-17.1450
F500
G1 Z-1.8000 F500
F120
G1 X75.0570 Y-17.1450
G1 X75.0570 Y-17.1450
G1 X75.0570 Y-17.1450
G1 X75.0570 Y-17.1450
G0 Z2.0000
G0 X72.5170 Y-17.1450
F500
G1 Z-0.6000 F500
F120
G1 X72.5170 Y-17.1450
G1 X72.5170 Y-17.1450
G1 X72.5170 Y-17.1450
G1 X72.5170 Y-17.1450
G0 X72.5170 Y-17.1450
F500
G1 Z-1.2000 F500
F120
G1 X72.5170 Y-17.1450
G1 X72.5170 Y-17.1450
G1 X72.5170 Y-17.1450
G1 X72.5170 Y-17.1450
G0 X72.5170 Y-17.1450
F500
G1 Z-1.8000 F500
F120
G1 X72.5170 Y-17.1450
G1 X72.5170 Y-17.1450
G1 X72.5170 Y-17.1450
G1 X72.5170 Y-17.1450
G0 Z2.0000
G0 X82.5480 Y-16.1290
F500
G1 Z-0.6000 F500
F120
G1 X82.5480 Y-16.1290
G1 X82.5480 Y-16.1290
G1 X82.5480 Y-16.1290
G1 X82.5480 Y-16.1290
G0 X82.5480 Y-16.1290
F500
G1 Z-1.2000 F500
F120
G1 X82.5480 Y-16.1290
G1 X82.5480 Y-16.1290
G1 X82.5480 Y-16.1290
G1 X82.5480 Y-16.1290
G0 X82.5480 Y-16.1290
F500
G1 Z-1.8000 F500
F120
G1 X82.5480 Y-16.1290
G1 X82.5480 Y-16.1290
G1 X82.5480 Y-16.1290
G1 X82.5480 Y-16.1290
G0 Z2.0000
G0 X82.5480 Y-13.5890
F500
G1 Z-0.6000 F500
F120
G1 X82.5480 Y-13.5890
G1 X82.5480 Y-13.5890
G1 X82.5480 Y-13.5890
G1 X82.5480 Y-13.5890
G0 X82.5480 Y-13.5890
F500
G1 Z-1.2000 F500
F120
G1 X82.5480 Y-13.5890
G1 X82.5480 Y-13.5890
G1 X82.5480 Y-13.5890
G1 X82.5480 Y-13.5890
G0 X82.5480 Y-13.5890
F500
G1 Z-1.8000 F500
F120
G1 X82.5480 Y-13.5890
G1 X82.5480 Y-13.5890
G1 X82.5480 Y-13.5890
G1 X82.5480 Y-13.5890
G0 Z2.0000
G0 X82.5480 Y-11.0490
F500
G1 Z-0.6000 F500
F120
G1 X82.5480 Y-11.0490
G1 X82.5480 Y-11.0490
G1 X82.5480 Y-11.0490
G1 X82.5480 Y-11.0490
G0 X82.5480 Y-11.0490
F500
G1 Z-1.2000 F500
F120
G1 X82.5480 Y-11.0490
G1 X82.5480 Y-11.0490
G1 X82.5480 Y-11.0490
G1 X82.5480 Y-11.0490
G0 X82.5480 Y-11.0490
F500
G1 Z-1.8000 F500
F120
G1 X82.5480 Y-11.0490
G1 X82.5480 Y-11.0490
G1 X82.5480 Y-11.0490
G1 X82.5480 Y-11.0490
G0 Z2.0000
G0 X82.5510 Y-8.5090
F500
G1 Z-0.6000 F500
F120
G1 X82.5510 Y-8.5090
G1 X82.5510 Y-8.5090
G1 X82.5510 Y-8.5090
G1 X82.5510 Y-8.5090
G0 X82.5510 Y-8.5090
F500
G1 Z-1.2000 F500
F120
G1 X82.5510 Y-8.5090
G1 X82.5510 Y-8.5090
G1 X82.5510 Y-8.5090
G1 X82.5510 Y-8.5090
G0 X82.5510 Y-8.5090
F500
G1 Z-1.8000 F500
F120
G1 X82.5510 Y-8.5090
G1 X82.5510 Y-8.5090
G1 X82.5510 Y-8.5090
G1 X82.5510 Y-8.5090
G0 Z2.0000
G0 X95.7830 Y-8.3570
F500
G1 Z-0.6000 F500
F120
G1 X95.7830 Y-8.3570
G1 X95.7830 Y-8.3570
G1 X95.7830 Y-8.3570
G1 X95.7830 Y-8.3570
G0 X95.7830 Y-8.3570
F500
G1 Z-1.2000 F500
F120
G1 X95.7830 Y-8.3570
G1 X95.7830 Y-8.3570
G1 X95.7830 Y-8.3570
G1 X95.7830 Y-8.3570
G0 X95.7830 Y-8.3570
F500
G1 Z-1.8000 F500
F120
G1 X95.7830 Y-8.3570
G1 X95.7830 Y-8.3570
G1 X95.7830 Y-8.3570
G1 X95.7830 Y-8.3570
G0 Z2.0000
G0 X95.7830 Y-5.8170
F500
G1 Z-0.6000 F500
F120
G1 X95.7830 Y-5.8170
G1 X95.7830 Y-5.8170
G1 X95.7830 Y-5.8170
G1 X95.7830 Y-5.8170
G0 X95.7830 Y-5.8170
F500
G1 Z-1.2000 F500
F120
G1 X95.7830 Y-5.8170
G1 X95.7830 Y-5.8170
G1 X95.7830 Y-5.8170
G1 X95.7830 Y-5.8170
G0 X95.7830 Y-5.8170
F500
G1 Z-1.8000 F500
F120
G1 X95.7830 Y-5.8170
G1 X95.7830 Y-5.8170
G1 X95.7830 Y-5.8170
G1 X95.7830 Y-5.8170
G0 Z2.0000
G0 X100.2030 Y-6.7310
F500
G1 Z-0.6000 F500
F120
G1 X100.2030 Y-6.7310
G1 X100.2030 Y-6.7310
G1 X100.2030 Y-6.7310
G1 X100.2030 Y-6.7310
G0 X100.2030 Y-6.7310
F500
G1 Z-1.2000 F500
F120
G1 X100.2030 Y-6.7310
G1 X100.2030 Y-6.7310
G1 X100.2030 Y-6.7310
G1 X100.2030 Y-6.7310
G0 X100.2030 Y-6.7310
F500
G1 Z-1.8000 F500
F120
G1 X100.2030 Y-6.7310
G1 X100.2030 Y-6.7310
G1 X100.2030 Y-6.7310
G1 X100.2030 Y-6.7310
G0 Z2.0000
G0 X104.2670 Y-9.2710
F500
G1 Z-0.6000 F500
F120
G1 X104.2670 Y-9.2710
G1 X104.2670 Y-9.2710
G1 X104.2670 Y-9.2710
G1 X104.2670 Y-9.2710
G0 X104.2670 Y-9.2710
F500
G1 Z-1.2000 F500
F120
G1 X104.2670 Y-9.2710
G1 X104.2670 Y-9.2710
G1 X104.2670 Y-9.2710
G1 X104.2670 Y-9.2710
G0 X104.2670 Y-9.2710
F500
G1 Z-1.8000 F500
F120
G1 X104.2670 Y-9.2710
G1 X104.2670 Y-9.2710
G1 X104.2670 Y-9.2710
G1 X104.2670 Y-9.2710
G0 Z2.0000
G0 X100.2030 Y-14.3510
F500
G1 Z-0.6000 F500
F120
G1 X100.2030 Y-14.3510
G1 X100.2030 Y-14.3510
G1 X100.2030 Y-14.3510
G1 X100.2030 Y-14.3510
G0 X100.2030 Y-14.3510
F500
G1 Z-1.2000 F500
F120
G1 X100.2030 Y-14.3510
G1 X100.2030 Y-14.3510
G1 X100.2030 Y-14.3510
G1 X100.2030 Y-14.3510
G0 X100.2030 Y-14.3510
F500
G1 Z-1.8000 F500
F120
G1 X100.2030 Y-14.3510
G1 X100.2030 Y-14.3510
G1 X100.2030 Y-14.3510
G1 X100.2030 Y-14.3510
G0 Z2.0000
G0 X95.7830 Y-13.4370
F500
G1 Z-0.6000 F500
F120
G1 X95.7830 Y-13.4370
G1 X95.7830 Y-13.4370
G1 X95.7830 Y-13.4370
G1 X95.7830 Y-13.4370
G0 X95.7830 Y-13.4370
F500
G1 Z-1.2000 F500
F120
G1 X95.7830 Y-13.4370
G1 X95.7830 Y-13.4370
G1 X95.7830 Y-13.4370
G1 X95.7830 Y-13.4370
G0 X95.7830 Y-13.4370
F500
G1 Z-1.8000 F500
F120
G1 X95.7830 Y-13.4370
G1 X95.7830 Y-13.4370
G1 X95.7830 Y-13.4370
G1 X95.7830 Y-13.4370
G0 Z2.0000
G0 X95.7830 Y-10.8970
F500
G1 Z-0.6000 F500
F120
G1 X95.7830 Y-10.8970
G1 X95.7830 Y-10.8970
G1 X95.7830 Y-10.8970
G1 X95.7830 Y-10.8970
G0 X95.7830 Y-10.8970
F500
G1 Z-1.2000 F500
F120
G1 X95.7830 Y-10.8970
G1 X95.7830 Y-10.8970
G1 X95.7830 Y-10.8970
G1 X95.7830 Y-10.8970
G0 X95.7830 Y-10.8970
F500
G1 Z-1.8000 F500
F120
G1 X95.7830 Y-10.8970
G1 X95.7830 Y-10.8970
G1 X95.7830 Y-10.8970
G1 X95.7830 Y-10.8970
G0 Z2.0000
G0 X95.7830 Y-15.9770
F500
G1 Z-0.6000 F500
F120
G1 X95.7830 Y-15.9770
G1 X95.7830 Y-15.9770
G1 X95.7830 Y-15.9770
G1 X95.7830 Y-15.9770
G0 X95.7830 Y-15.9770
F500
G1 Z-1.2000 F500
F120
G1 X95.7830 Y-15.9770
G1 X95.7830 Y-15.9770
G1 X95.7830 Y-15.9770
G1 X95.7830 Y-15.9770
G0 X95.7830 Y-15.9770
F500
G1 Z-1.8000 F500
F120
G1 X95.7830 Y-15.9770
G1 X95.7830 Y-15.9770
G1 X95.7830 Y-15.9770
G1 X95.7830 Y-15.9770
G0 Z2.0000
G0 X95.7830 Y-18.5170
F500
G1 Z-0.6000 F500
F120
G1 X95.7830 Y-18.5170
G1 X95.7830 Y-18.5170
G1 X95.7830 Y-18.5170
G1 X95.7830 Y-18.5170
G0 X95.7830 Y-18.5170
F500
G1 Z-1.2000 F500
F120
G1 X95.7830 Y-18.5170
G1 X95.7830 Y-18.5170
G1 X95.7830 Y-18.5170
G1 X95.7830 Y-18.5170
G0 X95.7830 Y-18.5170
F500
G1 Z-1.8000 F500
F120
G1 X95.7830 Y-18.5170
G1 X95.7830 Y-18.5170
G1 X95.7830 Y-18.5170
G1 X95.7830 Y-18.5170
G0 Z2.0000
G0 X95.7830 Y-21.0570
F500
G1 Z-0.6000 F500
F120
G1 X95.7830 Y-21.0570
G1 X95.7830 Y-21.0570
G1 X95.7830 Y-21.0570
G1 X95.7830 Y-21.0570
G0 X95.7830 Y-21.0570
F500
G1 Z-1.2000 F500
F120
G1 X95.7830 Y-21.0570
G1 X95.7830 Y-21.0570
G1 X95.7830 Y-21.0570
G1 X95.7830 Y-21.0570
G0 X95.7830 Y-21.0570
F500
G1 Z-1.8000 F500
F120
G1 X95.7830 Y-21.0570
G1 X95.7830 Y-21.0570
G1 X95.7830 Y-21.0570
G1 X95.7830 Y-21.0570
G0 Z2.0000
G0 X95.7830 Y-23.5970
F500
G1 Z-0.6000 F500
F120
G1 X95.7830 Y-23.5970
G1 X95.7830 Y-23.5970
G1 X95.7830 Y-23.5970
G1 X95.7830 Y-23.5970
G0 X95.7830 Y-23.5970
F500
G1 Z-1.2000 F500
F120
G1 X95.7830 Y-23.5970
G1 X95.7830 Y-23.5970
G1 X95.7830 Y-23.5970
G1 X95.7830 Y-23.5970
G0 X95.7830 Y-23.5970
F500
G1 Z-1.8000 F500
F120
G1 X95.7830 Y-23.5970
G1 X95.7830 Y-23.5970
G1 X95.7830 Y-23.5970
G1 X95.7830 Y-23.5970
G0 Z2.0000
G0 X95.7830 Y-26.1370
F500
G1 Z-0.6000 F500
F120
G1 X95.7830 Y-26.1370
G1 X95.7830 Y-26.1370
G1 X95.7830 Y-26.1370
G1 X95.7830 Y-26.1370
G0 X95.7830 Y-26.1370
F500
G1 Z-1.2000 F500
F120
G1 X95.7830 Y-26.1370
G1 X95.7830 Y-26.1370
G1 X95.7830 Y-26.1370
G1 X95.7830 Y-26.1370
G0 X95.7830 Y-26.1370
F500
G1 Z-1.8000 F500
F120
G1 X95.7830 Y-26.1370
G1 X95.7830 Y-26.1370
G1 X95.7830 Y-26.1370
G1 X95.7830 Y-26.1370
G0 Z2.0000
G0 X95.7830 Y-28.6770
F500
G1 Z-0.6000 F500
F120
G1 X95.7830 Y-28.6770
G1 X95.7830 Y-28.6770
G1 X95.7830 Y-28.6770
G1 X95.7830 Y-28.6770
G0 X95.7830 Y-28.6770
F500
G1 Z-1.2000 F500
F120
G1 X95.7830 Y-28.6770
G1 X95.7830 Y-28.6770
G1 X95.7830 Y-28.6770
G1 X95.7830 Y-28.6770
G0 X95.7830 Y-28.6770
F500
G1 Z-1.8000 F500
F120
G1 X95.7830 Y-28.6770
G1 X95.7830 Y-28.6770
G1 X95.7830 Y-28.6770
G1 X95.7830 Y-28.6770
G0 Z2.0000
G0 X95.7830 Y-31.2170
F500
G1 Z-0.6000 F500
F120
G1 X95.7830 Y-31.2170
G1 X95.7830 Y-31.2170
G1 X95.7830 Y-31.2170
G1 X95.7830 Y-31.2170
G0 X95.7830 Y-31.2170
F500
G1 Z-1.2000 F500
F120
G1 X95.7830 Y-31.2170
G1 X95.7830 Y-31.2170
G1 X95.7830 Y-31.2170
G1 X95.7830 Y-31.2170
G0 X95.7830 Y-31.2170
F500
G1 Z-1.8000 F500
F120
G1 X95.7830 Y-31.2170
G1 X95.7830 Y-31.2170
G1 X95.7830 Y-31.2170
G1 X95.7830 Y-31.2170
G0 Z2.0000
G0 X95.7830 Y-33.7570
F500
G1 Z-0.6000 F500
F120
G1 X95.7830 Y-33.7570
G1 X95.7830 Y-33.7570
G1 X95.7830 Y-33.7570
G1 X95.7830 Y-33.7570
G0 X95.7830 Y-33.7570
F500
G1 Z-1.2000 F500
F120
G1 X95.7830 Y-33.7570
G1 X95.7830 Y-33.7570
G1 X95.7830 Y-33.7570
G1 X95.7830 Y-33.7570
G0 X95.7830 Y-33.7570
F500
G1 Z-1.8000 F500
F120
G1 X95.7830 Y-33.7570
G1 X95.7830 Y-33.7570
G1 X95.7830 Y-33.7570
G1 X95.7830 Y-33.7570
G0 Z2.0000
G0 X95.7830 Y-36.2970
F500
G1 Z-0.6000 F500
F120
G1 X95.7830 Y-36.2970
G1 X95.7830 Y-36.2970
G1 X95.7830 Y-36.2970
G1 X95.7830 Y-36.2970
G0 X95.7830 Y-36.2970
F500
G1 Z-1.2000 F500
F120
G1 X95.7830 Y-36.2970
G1 X95.7830 Y-36.2970
G1 X95.7830 Y-36.2970
G1 X95.7830 Y-36.2970
G0 X95.7830 Y-36.2970
F500
G1 Z-1.8000 F500
F120
G1 X95.7830 Y-36.2970
G1 X95.7830 Y-36.2970
G1 X95.7830 Y-36.2970
G1 X95.7830 Y-36.2970
G0 Z2.0000
G0 X95.7830 Y-38.8370
F500
G1 Z-0.6000 F500
F120
G1 X95.7830 Y-38.8370
G1 X95.7830 Y-38.8370
G1 X95.7830 Y-38.8370
G1 X95.7830 Y-38.8370
G0 X95.7830 Y-38.8370
F500
G1 Z-1.2000 F500
F120
G1 X95.7830 Y-38.8370
G1 X95.7830 Y-38.8370
G1 X95.7830 Y-38.8370
G1 X95.7830 Y-38.8370
G0 X95.7830 Y-38.8370
F500
G1 Z-1.8000 F500
F120
G1 X95.7830 Y-38.8370
G1 X95.7830 Y-38.8370
G1 X95.7830 Y-38.8370
G1 X95.7830 Y-38.8370
G0 Z2.0000
G0 X95.7830 Y-41.3770
F500
G1 Z-0.6000 F500
F120
G1 X95.7830 Y-41.3770
G1 X95.7830 Y-41.3770
G1 X95.7830 Y-41.3770
G1 X95.7830 Y-41.3770
G0 X95.7830 Y-41.3770
F500
G1 Z-1.2000 F500
F120
G1 X95.7830 Y-41.3770
G1 X95.7830 Y-41.3770
G1 X95.7830 Y-41.3770
G1 X95.7830 Y-41.3770
G0 X95.7830 Y-41.3770
F500
G1 Z-1.8000 F500
F120
G1 X95.7830 Y-41.3770
G1 X95.7830 Y-41.3770
G1 X95.7830 Y-41.3770
G1 X95.7830 Y-41.3770
G0 Z2.0000
G0 X95.7830 Y-43.9170
F500
G1 Z-0.6000 F500
F120
G1 X95.7830 Y-43.9170
G1 X95.7830 Y-43.9170
G1 X95.7830 Y-43.9170
G1 X95.7830 Y-43.9170
G0 X95.7830 Y-43.9170
F500
G1 Z-1.2000 F500
F120
G1 X95.7830 Y-43.9170
G1 X95.7830 Y-43.9170
G1 X95.7830 Y-43.9170
G1 X95.7830 Y-43.9170
G0 X95.7830 Y-43.9170
F500
G1 Z-1.8000 F500
F120
G1 X95.7830 Y-43.9170
G1 X95.7830 Y-43.9170
G1 X95.7830 Y-43.9170
G1 X95.7830 Y-43.9170
G0 Z2.0000
G0 X95.7830 Y-46.4570
F500
G1 Z-0.6000 F500
F120
G1 X95.7830 Y-46.4570
G1 X95.7830 Y-46.4570
G1 X95.7830 Y-46.4570
G1 X95.7830 Y-46.4570
G0 X95.7830 Y-46.4570
F500
G1 Z-1.2000 F500
F120
G1 X95.7830 Y-46.4570
G1 X95.7830 Y-46.4570
G1 X95.7830 Y-46.4570
G1 X95.7830 Y-46.4570
G0 X95.7830 Y-46.4570
F500
G1 Z-1.8000 F500
F120
G1 X95.7830 Y-46.4570
G1 X95.7830 Y-46.4570
G1 X95.7830 Y-46.4570
G1 X95.7830 Y-46.4570
G0 Z2.0000
G0 X95.7830 Y-48.9970
F500
G1 Z-0.6000 F500
F120
G1 X95.7830 Y-48.9970
G1 X95.7830 Y-48.9970
G1 X95.7830 Y-48.9970
G1 X95.7830 Y-48.9970
G0 X95.7830 Y-48.9970
F500
G1 Z-1.2000 F500
F120
G1 X95.7830 Y-48.9970
G1 X95.7830 Y-48.9970
G1 X95.7830 Y-48.9970
G1 X95.7830 Y-48.9970
G0 X95.7830 Y-48.9970
F500
G1 Z-1.8000 F500
F120
G1 X95.7830 Y-48.9970
G1 X95.7830 Y-48.9970
G1 X95.7830 Y-48.9970
G1 X95.7830 Y-48.9970
G0 Z2.0000
G0 X95.7830 Y-51.5370
F500
G1 Z-0.6000 F500
F120
G1 X95.7830 Y-51.5370
G1 X95.7830 Y-51.5370
G1 X95.7830 Y-51.5370
G1 X95.7830 Y-51.5370
G0 X95.7830 Y-51.5370
F500
G1 Z-1.2000 F500
F120
G1 X95.7830 Y-51.5370
G1 X95.7830 Y-51.5370
G1 X95.7830 Y-51.5370
G1 X95.7830 Y-51.5370
G0 X95.7830 Y-51.5370
F500
G1 Z-1.8000 F500
F120
G1 X95.7830 Y-51.5370
G1 X95.7830 Y-51.5370
G1 X95.7830 Y-51.5370
G1 X95.7830 Y-51.5370
G0 Z2.0000
G0 X95.7830 Y-54.0770
F500
G1 Z-0.6000 F500
F120
G1 X95.7830 Y-54.0770
G1 X95.7830 Y-54.0770
G1 X95.7830 Y-54.0770
G1 X95.7830 Y-54.0770
G0 X95.7830 Y-54.0770
F500
G1 Z-1.2000 F500
F120
G1 X95.7830 Y-54.0770
G1 X95.7830 Y-54.0770
G1 X95.7830 Y-54.0770
G1 X95.7830 Y-54.0770
G0 X95.7830 Y-54.0770
F500
G1 Z-1.8000 F500
F120
G1 X95.7830 Y-54.0770
G1 X95.7830 Y-54.0770
G1 X95.7830 Y-54.0770
G1 X95.7830 Y-54.0770
G0 Z2.0000
G0 X85.7250 Y-52.7050
F500
G1 Z-0.6000 F500
F120
G1 X85.7250 Y-52.7050
G1 X85.7250 Y-52.7050
G1 X85.7250 Y-52.7050
G1 X85.7250 Y-52.7050
G0 X85.7250 Y-52.7050
F500
G1 Z-1.2000 F500
F120
G1 X85.7250 Y-52.7050
G1 X85.7250 Y-52.7050
G1 X85.7250 Y-52.7050
G1 X85.7250 Y-52.7050
G0 X85.7250 Y-52.7050
F500
G1 Z-1.8000 F500
F120
G1 X85.7250 Y-52.7050
G1 X85.7250 Y-52.7050
G1 X85.7250 Y-52.7050
G1 X85.7250 Y-52.7050
G0 Z2.0000
G0 X78.1050 Y-52.7050
F500
G1 Z-0.6000 F500
F120
G1 X78.1050 Y-52.7050
G1 X78.1050 Y-52.7050
G1 X78.1050 Y-52.7050
G1 X78.1050 Y-52.7050
G0 X78.1050 Y-52.7050
F500
G1 Z-1.2000 F500
F120
G1 X78.1050 Y-52.7050
G1 X78.1050 Y-52.7050
G1 X78.1050 Y-52.7050
G1 X78.1050 Y-52.7050
G0 X78.1050 Y-52.7050
F500
G1 Z-1.8000 F500
F120
G1 X78.1050 Y-52.7050
G1 X78.1050 Y-52.7050
G1 X78.1050 Y-52.7050
G1 X78.1050 Y-52.7050
G0 Z2.0000
G0 X71.1190 Y-52.4510
F500
G1 Z-0.6000 F500
F120
G1 X71.1190 Y-52.4510
G1 X71.1190 Y-52.4510
G1 X71.1190 Y-52.4510
G1 X71.1190 Y-52.4510
G0 X71.1190 Y-52.4510
F500
G1 Z-1.2000 F500
F120
G1 X71.1190 Y-52.4510
G1 X71.1190 Y-52.4510
G1 X71.1190 Y-52.4510
G1 X71.1190 Y-52.4510
G0 X71.1190 Y-52.4510
F500
G1 Z-1.8000 F500
F120
G1 X71.1190 Y-52.4510
G1 X71.1190 Y-52.4510
G1 X71.1190 Y-52.4510
G1 X71.1190 Y-52.4510
G0 Z2.0000
G0 X68.5800 Y-52.4510
F500
G1 Z-0.6000 F500
F120
G1 X68.5800 Y-52.4510
G1 X68.5800 Y-52.4510
G1 X68.5800 Y-52.4510
G1 X68.5800 Y-52.4510
G0 X68.5800 Y-52.4510
F500
G1 Z-1.2000 F500
F120
G1 X68.5800 Y-52.4510
G1 X68.5800 Y-52.4510
G1 X68.5800 Y-52.4510
G1 X68.5800 Y-52.4510
G0 X68.5800 Y-52.4510
F500
G1 Z-1.8000 F500
F120
G1 X68.5800 Y-52.4510
G1 X68.5800 Y-52.4510
G1 X68.5800 Y-52.4510
G1 X68.5800 Y-52.4510
G0 Z2.0000
G0 X66.0410 Y-52.4510
F500
G1 Z-0.6000 F500
F120
G1 X66.0410 Y-52.4510
G1 X66.0410 Y-52.4510
G1 X66.0410 Y-52.4510
G1 X66.0410 Y-52.4510
G0 X66.0410 Y-52.4510
F500
G1 Z-1.2000 F500
F120
G1 X66.0410 Y-52.4510
G1 X66.0410 Y-52.4510
G1 X66.0410 Y-52.4510
G1 X66.0410 Y-52.4510
G0 X66.0410 Y-52.4510
F500
G1 Z-1.8000 F500
F120
G1 X66.0410 Y-52.4510
G1 X66.0410 Y-52.4510
G1 X66.0410 Y-52.4510
G1 X66.0410 Y-52.4510
G0 Z2.0000
G0 X68.5800 Y-56.2610
F500
G1 Z-0.6000 F500
F120
G1 X68.5800 Y-56.2610
G1 X68.5800 Y-56.2610
G1 X68.5800 Y-56.2610
G1 X68.5800 Y-56.2610
G0 X68.5800 Y-56.2610
F500
G1 Z-1.2000 F500
F120
G1 X68.5800 Y-56.2610
G1 X68.5800 Y-56.2610
G1 X68.5800 Y-56.2610
G1 X68.5800 Y-56.2610
G0 X68.5800 Y-56.2610
F500
G1 Z-1.8000 F500
F120
G1 X68.5800 Y-56.2610
G1 X68.5800 Y-56.2610
G1 X68.5800 Y-56.2610
G1 X68.5800 Y-56.2610
G0 Z2.0000
G0 X60.9600 Y-56.2610
F500
G1 Z-0.6000 F500
F120
G1 X60.9600 Y-56.2610
G1 X60.9600 Y-56.2610
G1 X60.9600 Y-56.2610
G1 X60.9600 Y-56.2610
G0 X60.9600 Y-56.2610
F500
G1 Z-1.2000 F500
F120
G1 X60.9600 Y-56.2610
G1 X60.9600 Y-56.2610
G1 X60.9600 Y-56.2610
G1 X60.9600 Y-56.2610
G0 X60.9600 Y-56.2610
F500
G1 Z-1.8000 F500
F120
G1 X60.9600 Y-56.2610
G1 X60.9600 Y-56.2610
G1 X60.9600 Y-56.2610
G1 X60.9600 Y-56.2610
G0 Z2.0000
G0 X61.0870 Y-48.6410
F500
G1 Z-0.6000 F500
F120
G1 X61.0870 Y-48.6410
G1 X61.0870 Y-48.6410
G1 X61.0870 Y-48.6410
G1 X61.0870 Y-48.6410
G0 X61.0870 Y-48.6410
F500
G1 Z-1.2000 F500
F120
G1 X61.0870 Y-48.6410
G1 X61.0870 Y-48.6410
G1 X61.0870 Y-48.6410
G1 X61.0870 Y-48.6410
G0 X61.0870 Y-48.6410
F500
G1 Z-1.8000 F500
F120
G1 X61.0870 Y-48.6410
G1 X61.0870 Y-48.6410
G1 X61.0870 Y-48.6410
G1 X61.0870 Y-48.6410
G0 Z2.0000
G0 X66.1680 Y-44.7040
F500
G1 Z-0.6000 F500
F120
G1 X66.1680 Y-44.7040
G1 X66.1680 Y-44.7040
G1 X66.1680 Y-44.7040
G1 X66.1680 Y-44.7040
G0 X66.1680 Y-44.7040
F500
G1 Z-1.2000 F500
F120
G1 X66.1680 Y-44.7040
G1 X66.1680 Y-44.7040
G1 X66.1680 Y-44.7040
G1 X66.1680 Y-44.7040
G0 X66.1680 Y-44.7040
F500
G1 Z-1.8000 F500
F120
G1 X66.1680 Y-44.7040
G1 X66.1680 Y-44.7040
G1 X66.1680 Y-44.7040
G1 X66.1680 Y-44.7040
G0 Z2.0000
G0 X68.7070 Y-44.7040
F500
G1 Z-0.6000 F500
F120
G1 X68.7070 Y-44.7040
G1 X68.7070 Y-44.7040
G1 X68.7070 Y-44.7040
G1 X68.7070 Y-44.7040
G0 X68.7070 Y-44.7040
F500
G1 Z-1.2000 F500
F120
G1 X68.7070 Y-44.7040
G1 X68.7070 Y-44.7040
G1 X68.7070 Y-44.7040
G1 X68.7070 Y-44.7040
G0 X68.7070 Y-44.7040
F500
G1 Z-1.8000 F500
F120
G1 X68.7070 Y-44.7040
G1 X68.7070 Y-44.7040
G1 X68.7070 Y-44.7040
G1 X68.7070 Y-44.7040
G0 Z2.0000
G0 X71.2460 Y-44.7040
F500
G1 Z-0.6000 F500
F120
G1 X71.2460 Y-44.7040
G1 X71.2460 Y-44.7040
G1 X71.2460 Y-44.7040
G1 X71.2460 Y-44.7040
G0 X71.2460 Y-44.7040
F500
G1 Z-1.2000 F500
F120
G1 X71.2460 Y-44.7040
G1 X71.2460 Y-44.7040
G1 X71.2460 Y-44.7040
G1 X71.2460 Y-44.7040
G0 X71.2460 Y-44.7040
F500
G1 Z-1.8000 F500
F120
G1 X71.2460 Y-44.7040
G1 X71.2460 Y-44.7040
G1 X71.2460 Y-44.7040
G1 X71.2460 Y-44.7040
G0 Z2.0000
G0 X68.7070 Y-41.0210
F500
G1 Z-0.6000 F500
F120
G1 X68.7070 Y-41.0210
G1 X68.7070 Y-41.0210
G1 X68.7070 Y-41.0210
G1 X68.7070 Y-41.0210
G0 X68.7070 Y-41.0210
F500
G1 Z-1.2000 F500
F120
G1 X68.7070 Y-41.0210
G1 X68.7070 Y-41.0210
G1 X68.7070 Y-41.0210
G1 X68.7070 Y-41.0210
G0 X68.7070 Y-41.0210
F500
G1 Z-1.8000 F500
F120
G1 X68.7070 Y-41.0210
G1 X68.7070 Y-41.0210
G1 X68.7070 Y-41.0210
G1 X68.7070 Y-41.0210
G0 Z2.0000
G0 X61.0870 Y-41.0210
F500
G1 Z-0.6000 F500
F120
G1 X61.0870 Y-41.0210
G1 X61.0870 Y-41.0210
G1 X61.0870 Y-41.0210
G1 X61.0870 Y-41.0210
G0 X61.0870 Y-41.0210
F500
G1 Z-1.2000 F500
F120
G1 X61.0870 Y-41.0210
G1 X61.0870 Y-41.0210
G1 X61.0870 Y-41.0210
G1 X61.0870 Y-41.0210
G0 X61.0870 Y-41.0210
F500
G1 Z-1.8000 F500
F120
G1 X61.0870 Y-41.0210
G1 X61.0870 Y-41.0210
G1 X61.0870 Y-41.0210
G1 X61.0870 Y-41.0210
G0 Z2.0000
G0 X68.7070 Y-48.6410
F500
G1 Z-0.6000 F500
F120
G1 X68.7070 Y-48.6410
G1 X68.7070 Y-48.6410
G1 X68.7070 Y-48.6410
G1 X68.7070 Y-48.6410
G0 X68.7070 Y-48.6410
F500
G1 Z-1.2000 F500
F120
G1 X68.7070 Y-48.6410
G1 X68.7070 Y-48.6410
G1 X68.7070 Y-48.6410
G1 X68.7070 Y-48.6410
G0 X68.7070 Y-48.6410
F500
G1 Z-1.8000 F500
F120
G1 X68.7070 Y-48.6410
G1 X68.7070 Y-48.6410
G1 X68.7070 Y-48.6410
G1 X68.7070 Y-48.6410
G0 Z2.0000
G0 X78.1050 Y-44.8310
F500
G1 Z-0.6000 F500
F120
G1 X78.1050 Y-44.8310
G1 X78.1050 Y-44.8310
G1 X78.1050 Y-44.8310
G1 X78.1050 Y-44.8310
G0 X78.1050 Y-44.8310
F500
G1 Z-1.2000 F500
F120
G1 X78.1050 Y-44.8310
G1 X78.1050 Y-44.8310
G1 X78.1050 Y-44.8310
G1 X78.1050 Y-44.8310
G0 X78.1050 Y-44.8310
F500
G1 Z-1.8000 F500
F120
G1 X78.1050 Y-44.8310
G1 X78.1050 Y-44.8310
G1 X78.1050 Y-44.8310
G1 X78.1050 Y-44.8310
G0 Z2.0000
G0 X85.7250 Y-44.8310
F500
G1 Z-0.6000 F500
F120
G1 X85.7250 Y-44.8310
G1 X85.7250 Y-44.8310
G1 X85.7250 Y-44.8310
G1 X85.7250 Y-44.8310
G0 X85.7250 Y-44.8310
F500
G1 Z-1.2000 F500
F120
G1 X85.7250 Y-44.8310
G1 X85.7250 Y-44.8310
G1 X85.7250 Y-44.8310
G1 X85.7250 Y-44.8310
G0 X85.7250 Y-44.8310
F500
G1 Z-1.8000 F500
F120
G1 X85.7250 Y-44.8310
G1 X85.7250 Y-44.8310
G1 X85.7250 Y-44.8310
G1 X85.7250 Y-44.8310
G0 Z2.0000
G0 X85.7250 Y-36.8300
F500
G1 Z-0.6000 F500
F120
G1 X85.7250 Y-36.8300
G1 X85.7250 Y-36.8300
G1 X85.7250 Y-36.8300
G1 X85.7250 Y-36.8300
G0 X85.7250 Y-36.8300
F500
G1 Z-1.2000 F500
F120
G1 X85.7250 Y-36.8300
G1 X85.7250 Y-36.8300
G1 X85.7250 Y-36.8300
G1 X85.7250 Y-36.8300
G0 X85.7250 Y-36.8300
F500
G1 Z-1.8000 F500
F120
G1 X85.7250 Y-36.8300
G1 X85.7250 Y-36.8300
G1 X85.7250 Y-36.8300
G1 X85.7250 Y-36.8300
G0 Z2.0000
G0 X85.7250 Y-29.4640
F500
G1 Z-0.6000 F500
F120
G1 X85.7250 Y-29.4640
G1 X85.7250 Y-29.4640
G1 X85.7250 Y-29.4640
G1 X85.7250 Y-29.4640
G0 X85.7250 Y-29.4640
F500
G1 Z-1.2000 F500
F120
G1 X85.7250 Y-29.4640
G1 X85.7250 Y-29.4640
G1 X85.7250 Y-29.4640
G1 X85.7250 Y-29.4640
G0 X85.7250 Y-29.4640
F500
G1 Z-1.8000 F500
F120
G1 X85.7250 Y-29.4640
G1 X85.7250 Y-29.4640
G1 X85.7250 Y-29.4640
G1 X85.7250 Y-29.4640
G0 Z2.0000
G0 X78.1050 Y-29.4640
F500
G1 Z-0.6000 F500
F120
G1 X78.1050 Y-29.4640
G1 X78.1050 Y-29.4640
G1 X78.1050 Y-29.4640
G1 X78.1050 Y-29.4640
G0 X78.1050 Y-29.4640
F500
G1 Z-1.2000 F500
F120
G1 X78.1050 Y-29.4640
G1 X78.1050 Y-29.4640
G1 X78.1050 Y-29.4640
G1 X78.1050 Y-29.4640
G0 X78.1050 Y-29.4640
F500
G1 Z-1.8000 F500
F120
G1 X78.1050 Y-29.4640
G1 X78.1050 Y-29.4640
G1 X78.1050 Y-29.4640
G1 X78.1050 Y-29.4640
G0 Z2.0000
G0 X78.1050 Y-36.8300
F500
G1 Z-0.6000 F500
F120
G1 X78.1050 Y-36.8300
G1 X78.1050 Y-36.8300
G1 X78.1050 Y-36.8300
G1 X78.1050 Y-36.8300
G0 X78.1050 Y-36.8300
F500
G1 Z-1.2000 F500
F120
G1 X78.1050 Y-36.8300
G1 X78.1050 Y-36.8300
G1 X78.1050 Y-36.8300
G1 X78.1050 Y-36.8300
G0 X78.1050 Y-36.8300
F500
G1 Z-1.8000 F500
F120
G1 X78.1050 Y-36.8300
G1 X78.1050 Y-36.8300
G1 X78.1050 Y-36.8300
G1 X78.1050 Y-36.8300
G0 Z2.0000
G0 X59.1820 Y-20.3200
F500
G1 Z-0.6000 F500
F120
G1 X59.1820 Y-20.3200
G1 X59.1820 Y-20.3200
G1 X59.1820 Y-20.3200
G1 X59.1820 Y-20.3200
G0 X59.1820 Y-20.3200
F500
G1 Z-1.2000 F500
F120
G1 X59.1820 Y-20.3200
G1 X59.1820 Y-20.3200
G1 X59.1820 Y-20.3200
G1 X59.1820 Y-20.3200
G0 X59.1820 Y-20.3200
F500
G1 Z-1.8000 F500
F120
G1 X59.1820 Y-20.3200
G1 X59.1820 Y-20.3200
G1 X59.1820 Y-20.3200
G1 X59.1820 Y-20.3200
G0 Z2.0000
G0 X59.1820 Y-17.7800
F500
G1 Z-0.6000 F500
F120
G1 X59.1820 Y-17.7800
G1 X59.1820 Y-17.7800
G1 X59.1820 Y-17.7800
G1 X59.1820 Y-17.7800
G0 X59.1820 Y-17.7800
F500
G1 Z-1.2000 F500
F120
G1 X59.1820 Y-17.7800
G1 X59.1820 Y-17.7800
G1 X59.1820 Y-17.7800
G1 X59.1820 Y-17.7800
G0 X59.1820 Y-17.7800
F500
G1 Z-1.8000 F500
F120
G1 X59.1820 Y-17.7800
G1 X59.1820 Y-17.7800
G1 X59.1820 Y-17.7800
G1 X59.1820 Y-17.7800
G0 Z2.0000
G0 X48.2600 Y-13.7480
F500
G1 Z-0.6000 F500
F120
G1 X48.2600 Y-13.7480
G1 X48.2600 Y-13.7480
G1 X48.2600 Y-13.7480
G1 X48.2600 Y-13.7480
G0 X48.2600 Y-13.7480
F500
G1 Z-1.2000 F500
F120
G1 X48.2600 Y-13.7480
G1 X48.2600 Y-13.7480
G1 X48.2600 Y-13.7480
G1 X48.2600 Y-13.7480
G0 X48.2600 Y-13.7480
F500
G1 Z-1.8000 F500
F120
G1 X48.2600 Y-13.7480
G1 X48.2600 Y-13.7480
G1 X48.2600 Y-13.7480
G1 X48.2600 Y-13.7480
G0 Z2.0000
G0 X48.2600 Y-5.0480
F500
G1 Z-0.6000 F500
F120
G1 X48.2600 Y-5.0480
G1 X48.2600 Y-5.0480
G1 X48.2600 Y-5.0480
G1 X48.2600 Y-5.0480
G0 X48.2600 Y-5.0480
F500
G1 Z-1.2000 F500
F120
G1 X48.2600 Y-5.0480
G1 X48.2600 Y-5.0480
G1 X48.2600 Y-5.0480
G1 X48.2600 Y-5.0480
G0 X48.2600 Y-5.0480
F500
G1 Z-1.8000 F500
F120
G1 X48.2600 Y-5.0480
G1 X48.2600 Y-5.0480
G1 X48.2600 Y-5.0480
G1 X48.2600 Y-5.0480
G0 Z2.0000
G0 X12.8270 Y-16.1290
F500
G1 Z-0.6000 F500
F120
G1 X12.8270 Y-16.1290
G1 X12.8270 Y-16.1290
G1 X12.8270 Y-16.1290
G1 X12.8270 Y-16.1290
G0 X12.8270 Y-16.1290
F500
G1 Z-1.2000 F500
F120
G1 X12.8270 Y-16.1290
G1 X12.8270 Y-16.1290
G1 X12.8270 Y-16.1290
G1 X12.8270 Y-16.1290
G0 X12.8270 Y-16.1290
F500
G1 Z-1.8000 F500
F120
G1 X12.8270 Y-16.1290
G1 X12.8270 Y-16.1290
G1 X12.8270 Y-16.1290
G1 X12.8270 Y-16.1290
G0 Z2.0000
G0 X24.7650 Y-37.3380
F500
G1 Z-0.6000 F500
F120
G1 X24.7650 Y-37.3380
G1 X24.7650 Y-37.3380
G1 X24.7650 Y-37.3380
G1 X24.7650 Y-37.3380
G0 X24.7650 Y-37.3380
F500
G1 Z-1.2000 F500
F120
G1 X24.7650 Y-37.3380
G1 X24.7650 Y-37.3380
G1 X24.7650 Y-37.3380
G1 X24.7650 Y-37.3380
G0 X24.7650 Y-37.3380
F500
G1 Z-1.8000 F500
F120
G1 X24.7650 Y-37.3380
G1 X24.7650 Y-37.3380
G1 X24.7650 Y-37.3380
G1 X24.7650 Y-37.3380
G0 Z2.0000
G0 X27.3050 Y-37.3380
F500
G1 Z-0.6000 F500
F120
G1 X27.3050 Y-37.3380
G1 X27.3050 Y-37.3380
G1 X27.3050 Y-37.3380
G1 X27.3050 Y-37.3380
G0 X27.3050 Y-37.3380
F500
G1 Z-1.2000 F500
F120
G1 X27.3050 Y-37.3380
G1 X27.3050 Y-37.3380
G1 X27.3050 Y-37.3380
G1 X27.3050 Y-37.3380
G0 X27.3050 Y-37.3380
F500
G1 Z-1.8000 F500
F120
G1 X27.3050 Y-37.3380
G1 X27.3050 Y-37.3380
G1 X27.3050 Y-37.3380
G1 X27.3050 Y-37.3380
G0 Z2.0000
G0 X27.3050 Y-42.6720
F500
G1 Z-0.6000 F500
F120
G1 X27.3050 Y-42.6720
G1 X27.3050 Y-42.6720
G1 X27.3050 Y-42.6720
G1 X27.3050 Y-42.6720
G0 X27.3050 Y-42.6720
F500
G1 Z-1.2000 F500
F120
G1 X27.3050 Y-42.6720
G1 X27.3050 Y-42.6720
G1 X27.3050 Y-42.6720
G1 X27.3050 Y-42.6720
G0 X27.3050 Y-42.6720
F500
G1 Z-1.8000 F500
F120
G1 X27.3050 Y-42.6720
G1 X27.3050 Y-42.6720
G1 X27.3050 Y-42.6720
G1 X27.3050 Y-42.6720
G0 Z2.0000
G0 X24.2570 Y-46.7360
F500
G1 Z-0.6000 F500
F120
G1 X24.2570 Y-46.7360
G1 X24.2570 Y-46.7360
G1 X24.2570 Y-46.7360
G1 X24.2570 Y-46.7360
G0 X24.2570 Y-46.7360
F500
G1 Z-1.2000 F500
F120
G1 X24.2570 Y-46.7360
G1 X24.2570 Y-46.7360
G1 X24.2570 Y-46.7360
G1 X24.2570 Y-46.7360
G0 X24.2570 Y-46.7360
F500
G1 Z-1.8000 F500
F120
G1 X24.2570 Y-46.7360
G1 X24.2570 Y-46.7360
G1 X24.2570 Y-46.7360
G1 X24.2570 Y-46.7360
G0 Z2.0000
G0 X26.7970 Y-51.6890
F500
G1 Z-0.6000 F500
F120
G1 X26.7970 Y-51.6890
G1 X26.7970 Y-51.6890
G1 X26.7970 Y-51.6890
G1 X26.7970 Y-51.6890
G0 X26.7970 Y-51.6890
F500
G1 Z-1.2000 F500
F120
G1 X26.7970 Y-51.6890
G1 X26.7970 Y-51.6890
G1 X26.7970 Y-51.6890
G1 X26.7970 Y-51.6890
G0 X26.7970 Y-51.6890
F500
G1 Z-1.8000 F500
F120
G1 X26.7970 Y-51.6890
G1 X26.7970 Y-51.6890
G1 X26.7970 Y-51.6890
G1 X26.7970 Y-51.6890
G0 Z2.0000
G0 X29.3370 Y-51.6890
F500
G1 Z-0.6000 F500
F120
G1 X29.3370 Y-51.6890
G1 X29.3370 Y-51.6890
G1 X29.3370 Y-51.6890
G1 X29.3370 Y-51.6890
G0 X29.3370 Y-51.6890
F500
G1 Z-1.2000 F500
F120
G1 X29.3370 Y-51.6890
G1 X29.3370 Y-51.6890
G1 X29.3370 Y-51.6890
G1 X29.3370 Y-51.6890
G0 X29.3370 Y-51.6890
F500
G1 Z-1.8000 F500
F120
G1 X29.3370 Y-51.6890
G1 X29.3370 Y-51.6890
G1 X29.3370 Y-51.6890
G1 X29.3370 Y-51.6890
G0 Z2.0000
G0 X21.8440 Y-51.8160
F500
G1 Z-0.6000 F500
F120
G1 X21.8440 Y-51.8160
G1 X21.8440 Y-51.8160
G1 X21.8440 Y-51.8160
G1 X21.8440 Y-51.8160
G0 X21.8440 Y-51.8160
F500
G1 Z-1.2000 F500
F120
G1 X21.8440 Y-51.8160
G1 X21.8440 Y-51.8160
G1 X21.8440 Y-51.8160
G1 X21.8440 Y-51.8160
G0 X21.8440 Y-51.8160
F500
G1 Z-1.8000 F500
F120
G1 X21.8440 Y-51.8160
G1 X21.8440 Y-51.8160
G1 X21.8440 Y-51.8160
G1 X21.8440 Y-51.8160
G0 Z2.0000
G0 X35.0520 Y-43.1800
F500
G1 Z-0.6000 F500
F120
G1 X35.0520 Y-43.1800
G1 X35.0520 Y-43.1800
G1 X35.0520 Y-43.1800
G1 X35.0520 Y-43.1800
G0 X35.0520 Y-43.1800
F500
G1 Z-1.2000 F500
F120
G1 X35.0520 Y-43.1800
G1 X35.0520 Y-43.1800
G1 X35.0520 Y-43.1800
G1 X35.0520 Y-43.1800
G0 X35.0520 Y-43.1800
F500
G1 Z-1.8000 F500
F120
G1 X35.0520 Y-43.1800
G1 X35.0520 Y-43.1800
G1 X35.0520 Y-43.1800
G1 X35.0520 Y-43.1800
G0 Z2.0000
G0 X37.5920 Y-43.1800
F500
G1 Z-0.6000 F500
F120
G1 X37.5920 Y-43.1800
G1 X37.5920 Y-43.1800
G1 X37.5920 Y-43.1800
G1 X37.5920 Y-43.1800
G0 X37.5920 Y-43.1800
F500
G1 Z-1.2000 F500
F120
G1 X37.5920 Y-43.1800
G1 X37.5920 Y-43.1800
G1 X37.5920 Y-43.1800
G1 X37.5920 Y-43.1800
G0 X37.5920 Y-43.1800
F500
G1 Z-1.8000 F500
F120
G1 X37.5920 Y-43.1800
G1 X37.5920 Y-43.1800
G1 X37.5920 Y-43.1800
G1 X37.5920 Y-43.1800
G0 Z2.0000
G0 X111.0230 Y-43.9170
F500
G1 Z-0.6000 F500
F120
G1 X111.0230 Y-43.9170
G1 X111.0230 Y-43.9170
G1 X111.0230 Y-43.9170
G1 X111.0230 Y-43.9170
G0 X111.0230 Y-43.9170
F500
G1 Z-1.2000 F500
F120
G1 X111.0230 Y-43.9170
G1 X111.0230 Y-43.9170
G1 X111.0230 Y-43.9170
G1 X111.0230 Y-43.9170
G0 X111.0230 Y-43.9170
F500
G1 Z-1.8000 F500
F120
G1 X111.0230 Y-43.9170
G1 X111.0230 Y-43.9170
G1 X111.0230 Y-43.9170
G1 X111.0230 Y-43.9170
G0 Z2.0000
G0 X111.0230 Y-46.4570
F500
G1 Z-0.6000 F500
F120
G1 X111.0230 Y-46.4570
G1 X111.0230 Y-46.4570
G1 X111.0230 Y-46.4570
G1 X111.0230 Y-46.4570
G0 X111.0230 Y-46.4570
F500
G1 Z-1.2000 F500
F120
G1 X111.0230 Y-46.4570
G1 X111.0230 Y-46.4570
G1 X111.0230 Y-46.4570
G1 X111.0230 Y-46.4570
G0 X111.0230 Y-46.4570
F500
G1 Z-1.8000 F500
F120
G1 X111.0230 Y-46.4570
G1 X111.0230 Y-46.4570
G1 X111.0230 Y-46.4570
G1 X111.0230 Y-46.4570
G0 Z2.0000
G0 X111.0230 Y-48.9970
F500
G1 Z-0.6000 F500
F120
G1 X111.0230 Y-48.9970
G1 X111.0230 Y-48.9970
G1 X111.0230 Y-48.9970
G1 X111.0230 Y-48.9970
G0 X111.0230 Y-48.9970
F500
G1 Z-1.2000 F500
F120
G1 X111.0230 Y-48.9970
G1 X111.0230 Y-48.9970
G1 X111.0230 Y-48.9970
G1 X111.0230 Y-48.9970
G0 X111.0230 Y-48.9970
F500
G1 Z-1.8000 F500
F120
G1 X111.0230 Y-48.9970
G1 X111.0230 Y-48.9970
G1 X111.0230 Y-48.9970
G1 X111.0230 Y-48.9970
G0 Z2.0000
G0 X111.0230 Y-51.5370
F500
G1 Z-0.6000 F500
F120
G1 X111.0230 Y-51.5370
G1 X111.0230 Y-51.5370
G1 X111.0230 Y-51.5370
G1 X111.0230 Y-51.5370
G0 X111.0230 Y-51.5370
F500
G1 Z-1.2000 F500
F120
G1 X111.0230 Y-51.5370
G1 X111.0230 Y-51.5370
G1 X111.0230 Y-51.5370
G1 X111.0230 Y-51.5370
G0 X111.0230 Y-51.5370
F500
G1 Z-1.8000 F500
F120
G1 X111.0230 Y-51.5370
G1 X111.0230 Y-51.5370
G1 X111.0230 Y-51.5370
G1 X111.0230 Y-51.5370
G0 Z2.0000
G0 X111.0230 Y-54.0770
F500
G1 Z-0.6000 F500
F120
G1 X111.0230 Y-54.0770
G1 X111.0230 Y-54.0770
G1 X111.0230 Y-54.0770
G1 X111.0230 Y-54.0770
G0 X111.0230 Y-54.0770
F500
G1 Z-1.2000 F500
F120
G1 X111.0230 Y-54.0770
G1 X111.0230 Y-54.0770
G1 X111.0230 Y-54.0770
G1 X111.0230 Y-54.0770
G0 X111.0230 Y-54.0770
F500
G1 Z-1.8000 F500
F120
G1 X111.0230 Y-54.0770
G1 X111.0230 Y-54.0770
G1 X111.0230 Y-54.0770
G1 X111.0230 Y-54.0770
G0 Z2.0000
G0 X111.0230 Y-41.3770
F500
G1 Z-0.6000 F500
F120
G1 X111.0230 Y-41.3770
G1 X111.0230 Y-41.3770
G1 X111.0230 Y-41.3770
G1 X111.0230 Y-41.3770
G0 X111.0230 Y-41.3770
F500
G1 Z-1.2000 F500
F120
G1 X111.0230 Y-41.3770
G1 X111.0230 Y-41.3770
G1 X111.0230 Y-41.3770
G1 X111.0230 Y-41.3770
G0 X111.0230 Y-41.3770
F500
G1 Z-1.8000 F500
F120
G1 X111.0230 Y-41.3770
G1 X111.0230 Y-41.3770
G1 X111.0230 Y-41.3770
G1 X111.0230 Y-41.3770
G0 Z2.0000
G0 X111.0230 Y-38.8370
F500
G1 Z-0.6000 F500
F120
G1 X111.0230 Y-38.8370
G1 X111.0230 Y-38.8370
G1 X111.0230 Y-38.8370
G1 X111.0230 Y-38.8370
G0 X111.0230 Y-38.8370
F500
G1 Z-1.2000 F500
F120
G1 X111.0230 Y-38.8370
G1 X111.0230 Y-38.8370
G1 X111.0230 Y-38.8370
G1 X111.0230 Y-38.8370
G0 X111.0230 Y-38.8370
F500
G1 Z-1.8000 F500
F120
G1 X111.0230 Y-38.8370
G1 X111.0230 Y-38.8370
G1 X111.0230 Y-38.8370
G1 X111.0230 Y-38.8370
G0 Z2.0000
G0 X111.0230 Y-36.2970
F500
G1 Z-0.6000 F500
F120
G1 X111.0230 Y-36.2970
G1 X111.0230 Y-36.2970
G1 X111.0230 Y-36.2970
G1 X111.0230 Y-36.2970
G0 X111.0230 Y-36.2970
F500
G1 Z-1.2000 F500
F120
G1 X111.0230 Y-36.2970
G1 X111.0230 Y-36.2970
G1 X111.0230 Y-36.2970
G1 X111.0230 Y-36.2970
G0 X111.0230 Y-36.2970
F500
G1 Z-1.8000 F500
F120
G1 X111.0230 Y-36.2970
G1 X111.0230 Y-36.2970
G1 X111.0230 Y-36.2970
G1 X111.0230 Y-36.2970
G0 Z2.0000
G0 X111.0230 Y-33.7570
F500
G1 Z-0.6000 F500
F120
G1 X111.0230 Y-33.7570
G1 X111.0230 Y-33.7570
G1 X111.0230 Y-33.7570
G1 X111.0230 Y-33.7570
G0 X111.0230 Y-33.7570
F500
G1 Z-1.2000 F500
F120
G1 X111.0230 Y-33.7570
G1 X111.0230 Y-33.7570
G1 X111.0230 Y-33.7570
G1 X111.0230 Y-33.7570
G0 X111.0230 Y-33.7570
F500
G1 Z-1.8000 F500
F120
G1 X111.0230 Y-33.7570
G1 X111.0230 Y-33.7570
G1 X111.0230 Y-33.7570
G1 X111.0230 Y-33.7570
G0 Z2.0000
G0 X111.0230 Y-31.2170
F500
G1 Z-0.6000 F500
F120
G1 X111.0230 Y-31.2170
G1 X111.0230 Y-31.2170
G1 X111.0230 Y-31.2170
G1 X111.0230 Y-31.2170
G0 X111.0230 Y-31.2170
F500
G1 Z-1.2000 F500
F120
G1 X111.0230 Y-31.2170
G1 X111.0230 Y-31.2170
G1 X111.0230 Y-31.2170
G1 X111.0230 Y-31.2170
G0 X111.0230 Y-31.2170
F500
G1 Z-1.8000 F500
F120
G1 X111.0230 Y-31.2170
G1 X111.0230 Y-31.2170
G1 X111.0230 Y-31.2170
G1 X111.0230 Y-31.2170
G0 Z2.0000
G0 X111.0230 Y-28.6770
F500
G1 Z-0.6000 F500
F120
G1 X111.0230 Y-28.6770
G1 X111.0230 Y-28.6770
G1 X111.0230 Y-28.6770
G1 X111.0230 Y-28.6770
G0 X111.0230 Y-28.6770
F500
G1 Z-1.2000 F500
F120
G1 X111.0230 Y-28.6770
G1 X111.0230 Y-28.6770
G1 X111.0230 Y-28.6770
G1 X111.0230 Y-28.6770
G0 X111.0230 Y-28.6770
F500
G1 Z-1.8000 F500
F120
G1 X111.0230 Y-28.6770
G1 X111.0230 Y-28.6770
G1 X111.0230 Y-28.6770
G1 X111.0230 Y-28.6770
G0 Z2.0000
G0 X111.0230 Y-26.1370
F500
G1 Z-0.6000 F500
F120
G1 X111.0230 Y-26.1370
G1 X111.0230 Y-26.1370
G1 X111.0230 Y-26.1370
G1 X111.0230 Y-26.1370
G0 X111.0230 Y-26.1370
F500
G1 Z-1.2000 F500
F120
G1 X111.0230 Y-26.1370
G1 X111.0230 Y-26.1370
G1 X111.0230 Y-26.1370
G1 X111.0230 Y-26.1370
G0 X111.0230 Y-26.1370
F500
G1 Z-1.8000 F500
F120
G1 X111.0230 Y-26.1370
G1 X111.0230 Y-26.1370
G1 X111.0230 Y-26.1370
G1 X111.0230 Y-26.1370
G0 Z2.0000
G0 X111.0230 Y-23.5970
F500
G1 Z-0.6000 F500
F120
G1 X111.0230 Y-23.5970
G1 X111.0230 Y-23.5970
G1 X111.0230 Y-23.5970
G1 X111.0230 Y-23.5970
G0 X111.0230 Y-23.5970
F500
G1 Z-1.2000 F500
F120
G1 X111.0230 Y-23.5970
G1 X111.0230 Y-23.5970
G1 X111.0230 Y-23.5970
G1 X111.0230 Y-23.5970
G0 X111.0230 Y-23.5970
F500
G1 Z-1.8000 F500
F120
G1 X111.0230 Y-23.5970
G1 X111.0230 Y-23.5970
G1 X111.0230 Y-23.5970
G1 X111.0230 Y-23.5970
G0 Z2.0000
G0 X111.0230 Y-21.0570
F500
G1 Z-0.6000 F500
F120
G1 X111.0230 Y-21.0570
G1 X111.0230 Y-21.0570
G1 X111.0230 Y-21.0570
G1 X111.0230 Y-21.0570
G0 X111.0230 Y-21.0570
F500
G1 Z-1.2000 F500
F120
G1 X111.0230 Y-21.0570
G1 X111.0230 Y-21.0570
G1 X111.0230 Y-21.0570
G1 X111.0230 Y-21.0570
G0 X111.0230 Y-21.0570
F500
G1 Z-1.8000 F500
F120
G1 X111.0230 Y-21.0570
G1 X111.0230 Y-21.0570
G1 X111.0230 Y-21.0570
G1 X111.0230 Y-21.0570
G0 Z2.0000
G0 X111.0230 Y-18.5170
F500
G1 Z-0.6000 F500
F120
G1 X111.0230 Y-18.5170
G1 X111.0230 Y-18.5170
G1 X111.0230 Y-18.5170
G1 X111.0230 Y-18.5170
G0 X111.0230 Y-18.5170
F500
G1 Z-1.2000 F500
F120
G1 X111.0230 Y-18.5170
G1 X111.0230 Y-18.5170
G1 X111.0230 Y-18.5170
G1 X111.0230 Y-18.5170
G0 X111.0230 Y-18.5170
F500
G1 Z-1.8000 F500
F120
G1 X111.0230 Y-18.5170
G1 X111.0230 Y-18.5170
G1 X111.0230 Y-18.5170
G1 X111.0230 Y-18.5170
G0 Z2.0000
G0 X111.0230 Y-15.9770
F500
G1 Z-0.6000 F500
F120
G1 X111.0230 Y-15.9770
G1 X111.0230 Y-15.9770
G1 X111.0230 Y-15.9770
G1 X111.0230 Y-15.9770
G0 X111.0230 Y-15.9770
F500
G1 Z-1.2000 F500
F120
G1 X111.0230 Y-15.9770
G1 X111.0230 Y-15.9770
G1 X111.0230 Y-15.9770
G1 X111.0230 Y-15.9770
G0 X111.0230 Y-15.9770
F500
G1 Z-1.8000 F500
F120
G1 X111.0230 Y-15.9770
G1 X111.0230 Y-15.9770
G1 X111.0230 Y-15.9770
G1 X111.0230 Y-15.9770
G0 Z2.0000
G0 X111.0230 Y-13.4370
F500
G1 Z-0.6000 F500
F120
G1 X111.0230 Y-13.4370
G1 X111.0230 Y-13.4370
G1 X111.0230 Y-13.4370
G1 X111.0230 Y-13.4370
G0 X111.0230 Y-13.4370
F500
G1 Z-1.2000 F500
F120
G1 X111.0230 Y-13.4370
G1 X111.0230 Y-13.4370
G1 X111.0230 Y-13.4370
G1 X111.0230 Y-13.4370
G0 X111.0230 Y-13.4370
F500
G1 Z-1.8000 F500
F120
G1 X111.0230 Y-13.4370
G1 X111.0230 Y-13.4370
G1 X111.0230 Y-13.4370
G1 X111.0230 Y-13.4370
G0 Z2.0000
G0 X111.0230 Y-10.8970
F500
G1 Z-0.6000 F500
F120
G1 X111.0230 Y-10.8970
G1 X111.0230 Y-10.8970
G1 X111.0230 Y-10.8970
G1 X111.0230 Y-10.8970
G0 X111.0230 Y-10.8970
F500
G1 Z-1.2000 F500
F120
G1 X111.0230 Y-10.8970
G1 X111.0230 Y-10.8970
G1 X111.0230 Y-10.8970
G1 X111.0230 Y-10.8970
G0 X111.0230 Y-10.8970
F500
G1 Z-1.8000 F500
F120
G1 X111.0230 Y-10.8970
G1 X111.0230 Y-10.8970
G1 X111.0230 Y-10.8970
G1 X111.0230 Y-10.8970
G0 Z2.0000
G0 X111.0230 Y-8.3570
F500
G1 Z-0.6000 F500
F120
G1 X111.0230 Y-8.3570
G1 X111.0230 Y-8.3570
G1 X111.0230 Y-8.3570
G1 X111.0230 Y-8.3570
G0 X111.0230 Y-8.3570
F500
G1 Z-1.2000 F500
F120
G1 X111.0230 Y-8.3570
G1 X111.0230 Y-8.3570
G1 X111.0230 Y-8.3570
G1 X111.0230 Y-8.3570
G0 X111.0230 Y-8.3570
F500
G1 Z-1.8000 F500
F120
G1 X111.0230 Y-8.3570
G1 X111.0230 Y-8.3570
G1 X111.0230 Y-8.3570
G1 X111.0230 Y-8.3570
G0 Z2.0000
G0 X111.0230 Y-5.8170
F500
G1 Z-0.6000 F500
F120
G1 X111.0230 Y-5.8170
G1 X111.0230 Y-5.8170
G1 X111.0230 Y-5.8170
G1 X111.0230 Y-5.8170
G0 X111.0230 Y-5.8170
F500
G1 Z-1.2000 F500
F120
G1 X111.0230 Y-5.8170
G1 X111.0230 Y-5.8170
G1 X111.0230 Y-5.8170
G1 X111.0230 Y-5.8170
G0 X111.0230 Y-5.8170
F500
G1 Z-1.8000 F500
F120
G1 X111.0230 Y-5.8170
G1 X111.0230 Y-5.8170
G1 X111.0230 Y-5.8170
G1 X111.0230 Y-5.8170
G0 Z2.0000
G0 X104.2670 Y-1.6510
F500
G1 Z-0.6000 F500
F120
G1 X104.2670 Y-1.6510
G1 X104.2670 Y-1.6510
G1 X104.2670 Y-1.6510
G1 X104.2670 Y-1.6510
G0 X104.2670 Y-1.6510
F500
G1 Z-1.2000 F500
F120
G1 X104.2670 Y-1.6510
G1 X104.2670 Y-1.6510
G1 X104.2670 Y-1.6510
G1 X104.2670 Y-1.6510
G0 X104.2670 Y-1.6510
F500
G1 Z-1.8000 F500
F120
G1 X104.2670 Y-1.6510
G1 X104.2670 Y-1.6510
G1 X104.2670 Y-1.6510
G1 X104.2670 Y-1.6510
G0 Z2.0000
G0 X121.7930 Y-18.7960
F500
G1 Z-0.6000 F500
F120
G1 X121.7930 Y-18.7960
G1 X121.7930 Y-18.7960
G1 X121.7930 Y-18.7960
G1 X121.7930 Y-18.7960
G0 X121.7930 Y-18.7960
F500
G1 Z-1.2000 F500
F120
G1 X121.7930 Y-18.7960
G1 X121.7930 Y-18.7960
G1 X121.7930 Y-18.7960
G1 X121.7930 Y-18.7960
G0 X121.7930 Y-18.7960
F500
G1 Z-1.8000 F500
F120
G1 X121.7930 Y-18.7960
G1 X121.7930 Y-18.7960
G1 X121.7930 Y-18.7960
G1 X121.7930 Y-18.7960
G0 Z2.0000
G0 X126.8730 Y-18.7960
F500
G1 Z-0.6000 F500
F120
G1 X126.8730 Y-18.7960
G1 X126.8730 Y-18.7960
G1 X126.8730 Y-18.7960
G1 X126.8730 Y-18.7960
G0 X126.8730 Y-18.7960
F500
G1 Z-1.2000 F500
F120
G1 X126.8730 Y-18.7960
G1 X126.8730 Y-18.7960
G1 X126.8730 Y-18.7960
G1 X126.8730 Y-18.7960
G0 X126.8730 Y-18.7960
F500
G1 Z-1.8000 F500
F120
G1 X126.8730 Y-18.7960
G1 X126.8730 Y-18.7960
G1 X126.8730 Y-18.7960
G1 X126.8730 Y-18.7960
G0 Z2.0000
G0 X123.5680 Y-24.6350
F500
G1 Z-0.6000 F500
F120
G1 X123.5680 Y-24.6350
G1 X123.5680 Y-24.6350
G1 X123.5680 Y-24.6350
G1 X123.5680 Y-24.6350
G0 X123.5680 Y-24.6350
F500
G1 Z-1.2000 F500
F120
G1 X123.5680 Y-24.6350
G1 X123.5680 Y-24.6350
G1 X123.5680 Y-24.6350
G1 X123.5680 Y-24.6350
G0 X123.5680 Y-24.6350
F500
G1 Z-1.8000 F500
F120
G1 X123.5680 Y-24.6350
G1 X123.5680 Y-24.6350
G1 X123.5680 Y-24.6350
G1 X123.5680 Y-24.6350
G0 Z2.0000
G0 X123.5680 Y-27.1750
F500
G1 Z-0.6000 F500
F120
G1 X123.5680 Y-27.1750
G1 X123.5680 Y-27.1750
G1 X123.5680 Y-27.1750
G1 X123.5680 Y-27.1750
G0 X123.5680 Y-27.1750
F500
G1 Z-1.2000 F500
F120
G1 X123.5680 Y-27.1750
G1 X123.5680 Y-27.1750
G1 X123.5680 Y-27.1750
G1 X123.5680 Y-27.1750
G0 X123.5680 Y-27.1750
F500
G1 Z-1.8000 F500
F120
G1 X123.5680 Y-27.1750
G1 X123.5680 Y-27.1750
G1 X123.5680 Y-27.1750
G1 X123.5680 Y-27.1750
G0 Z2.0000
G0 X123.5680 Y-29.7150
F500
G1 Z-0.6000 F500
F120
G1 X123.5680 Y-29.7150
G1 X123.5680 Y-29.7150
G1 X123.5680 Y-29.7150
G1 X123.5680 Y-29.7150
G0 X123.5680 Y-29.7150
F500
G1 Z-1.2000 F500
F120
G1 X123.5680 Y-29.7150
G1 X123.5680 Y-29.7150
G1 X123.5680 Y-29.7150
G1 X123.5680 Y-29.7150
G0 X123.5680 Y-29.7150
F500
G1 Z-1.8000 F500
F120
G1 X123.5680 Y-29.7150
G1 X123.5680 Y-29.7150
G1 X123.5680 Y-29.7150
G1 X123.5680 Y-29.7150
G0 Z2.0000
G0 X123.5680 Y-32.2550
F500
G1 Z-0.6000 F500
F120
G1 X123.5680 Y-32.2550
G1 X123.5680 Y-32.2550
G1 X123.5680 Y-32.2550
G1 X123.5680 Y-32.2550
G0 X123.5680 Y-32.2550
F500
G1 Z-1.2000 F500
F120
G1 X123.5680 Y-32.2550
G1 X123.5680 Y-32.2550
G1 X123.5680 Y-32.2550
G1 X123.5680 Y-32.2550
G0 X123.5680 Y-32.2550
F500
G1 Z-1.8000 F500
F120
G1 X123.5680 Y-32.2550
G1 X123.5680 Y-32.2550
G1 X123.5680 Y-32.2550
G1 X123.5680 Y-32.2550
G0 Z2.0000
G0 X123.5680 Y-34.7950
F500
G1 Z-0.6000 F500
F120
G1 X123.5680 Y-34.7950
G1 X123.5680 Y-34.7950
G1 X123.5680 Y-34.7950
G1 X123.5680 Y-34.7950
G0 X123.5680 Y-34.7950
F500
G1 Z-1.2000 F500
F120
G1 X123.5680 Y-34.7950
G1 X123.5680 Y-34.7950
G1 X123.5680 Y-34.7950
G1 X123.5680 Y-34.7950
G0 X123.5680 Y-34.7950
F500
G1 Z-1.8000 F500
F120
G1 X123.5680 Y-34.7950
G1 X123.5680 Y-34.7950
G1 X123.5680 Y-34.7950
G1 X123.5680 Y-34.7950
G0 Z2.0000
G0 X123.5680 Y-37.3350
F500
G1 Z-0.6000 F500
F120
G1 X123.5680 Y-37.3350
G1 X123.5680 Y-37.3350
G1 X123.5680 Y-37.3350
G1 X123.5680 Y-37.3350
G0 X123.5680 Y-37.3350
F500
G1 Z-1.2000 F500
F120
G1 X123.5680 Y-37.3350
G1 X123.5680 Y-37.3350
G1 X123.5680 Y-37.3350
G1 X123.5680 Y-37.3350
G0 X123.5680 Y-37.3350
F500
G1 Z-1.8000 F500
F120
G1 X123.5680 Y-37.3350
G1 X123.5680 Y-37.3350
G1 X123.5680 Y-37.3350
G1 X123.5680 Y-37.3350
G0 Z2.0000
G0 X123.5680 Y-39.8750
F500
G1 Z-0.6000 F500
F120
G1 X123.5680 Y-39.8750
G1 X123.5680 Y-39.8750
G1 X123.5680 Y-39.8750
G1 X123.5680 Y-39.8750
G0 X123.5680 Y-39.8750
F500
G1 Z-1.2000 F500
F120
G1 X123.5680 Y-39.8750
G1 X123.5680 Y-39.8750
G1 X123.5680 Y-39.8750
G1 X123.5680 Y-39.8750
G0 X123.5680 Y-39.8750
F500
G1 Z-1.8000 F500
F120
G1 X123.5680 Y-39.8750
G1 X123.5680 Y-39.8750
G1 X123.5680 Y-39.8750
G1 X123.5680 Y-39.8750
G0 Z2.0000
G0 X123.5690 Y-42.4160
F500
G1 Z-0.6000 F500
F120
G1 X123.5690 Y-42.4160
G1 X123.5690 Y-42.4160
G1 X123.5690 Y-42.4160
G1 X123.5690 Y-42.4160
G0 X123.5690 Y-42.4160
F500
G1 Z-1.2000 F500
F120
G1 X123.5690 Y-42.4160
G1 X123.5690 Y-42.4160
G1 X123.5690 Y-42.4160
G1 X123.5690 Y-42.4160
G0 X123.5690 Y-42.4160
F500
G1 Z-1.8000 F500
F120
G1 X123.5690 Y-42.4160
G1 X123.5690 Y-42.4160
G1 X123.5690 Y-42.4160
G1 X123.5690 Y-42.4160
G0 Z2.0000
G0 X131.1880 Y-42.4150
F500
G1 Z-0.6000 F500
F120
G1 X131.1880 Y-42.4150
G1 X131.1880 Y-42.4150
G1 X131.1880 Y-42.4150
G1 X131.1880 Y-42.4150
G0 X131.1880 Y-42.4150
F500
G1 Z-1.2000 F500
F120
G1 X131.1880 Y-42.4150
G1 X131.1880 Y-42.4150
G1 X131.1880 Y-42.4150
G1 X131.1880 Y-42.4150
G0 X131.1880 Y-42.4150
F500
G1 Z-1.8000 F500
F120
G1 X131.1880 Y-42.4150
G1 X131.1880 Y-42.4150
G1 X131.1880 Y-42.4150
G1 X131.1880 Y-42.4150
G0 Z2.0000
G0 X131.1880 Y-39.8750
F500
G1 Z-0.6000 F500
F120
G1 X131.1880 Y-39.8750
G1 X131.1880 Y-39.8750
G1 X131.1880 Y-39.8750
G1 X131.1880 Y-39.8750
G0 X131.1880 Y-39.8750
F500
G1 Z-1.2000 F500
F120
G1 X131.1880 Y-39.8750
G1 X131.1880 Y-39.8750
G1 X131.1880 Y-39.8750
G1 X131.1880 Y-39.8750
G0 X131.1880 Y-39.8750
F500
G1 Z-1.8000 F500
F120
G1 X131.1880 Y-39.8750
G1 X131.1880 Y-39.8750
G1 X131.1880 Y-39.8750
G1 X131.1880 Y-39.8750
G0 Z2.0000
G0 X131.1880 Y-37.3350
F500
G1 Z-0.6000 F500
F120
G1 X131.1880 Y-37.3350
G1 X131.1880 Y-37.3350
G1 X131.1880 Y-37.3350
G1 X131.1880 Y-37.3350
G0 X131.1880 Y-37.3350
F500
G1 Z-1.2000 F500
F120
G1 X131.1880 Y-37.3350
G1 X131.1880 Y-37.3350
G1 X131.1880 Y-37.3350
G1 X131.1880 Y-37.3350
G0 X131.1880 Y-37.3350
F500
G1 Z-1.8000 F500
F120
G1 X131.1880 Y-37.3350
G1 X131.1880 Y-37.3350
G1 X131.1880 Y-37.3350
G1 X131.1880 Y-37.3350
G0 Z2.0000
G0 X131.1880 Y-34.7950
F500
G1 Z-0.6000 F500
F120
G1 X131.1880 Y-34.7950
G1 X131.1880 Y-34.7950
G1 X131.1880 Y-34.7950
G1 X131.1880 Y-34.7950
G0 X131.1880 Y-34.7950
F500
G1 Z-1.2000 F500
F120
G1 X131.1880 Y-34.7950
G1 X131.1880 Y-34.7950
G1 X131.1880 Y-34.7950
G1 X131.1880 Y-34.7950
G0 X131.1880 Y-34.7950
F500
G1 Z-1.8000 F500
F120
G1 X131.1880 Y-34.7950
G1 X131.1880 Y-34.7950
G1 X131.1880 Y-34.7950
G1 X131.1880 Y-34.7950
G0 Z2.0000
G0 X131.1880 Y-32.2550
F500
G1 Z-0.6000 F500
F120
G1 X131.1880 Y-32.2550
G1 X131.1880 Y-32.2550
G1 X131.1880 Y-32.2550
G1 X131.1880 Y-32.2550
G0 X131.1880 Y-32.2550
F500
G1 Z-1.2000 F500
F120
G1 X131.1880 Y-32.2550
G1 X131.1880 Y-32.2550
G1 X131.1880 Y-32.2550
G1 X131.1880 Y-32.2550
G0 X131.1880 Y-32.2550
F500
G1 Z-1.8000 F500
F120
G1 X131.1880 Y-32.2550
G1 X131.1880 Y-32.2550
G1 X131.1880 Y-32.2550
G1 X131.1880 Y-32.2550
G0 Z2.0000
G0 X131.1880 Y-29.7150
F500
G1 Z-0.6000 F500
F120
G1 X131.1880 Y-29.7150
G1 X131.1880 Y-29.7150
G1 X131.1880 Y-29.7150
G1 X131.1880 Y-29.7150
G0 X131.1880 Y-29.7150
F500
G1 Z-1.2000 F500
F120
G1 X131.1880 Y-29.7150
G1 X131.1880 Y-29.7150
G1 X131.1880 Y-29.7150
G1 X131.1880 Y-29.7150
G0 X131.1880 Y-29.7150
F500
G1 Z-1.8000 F500
F120
G1 X131.1880 Y-29.7150
G1 X131.1880 Y-29.7150
G1 X131.1880 Y-29.7150
G1 X131.1880 Y-29.7150
G0 Z2.0000
G0 X131.1880 Y-27.1750
F500
G1 Z-0.6000 F500
F120
G1 X131.1880 Y-27.1750
G1 X131.1880 Y-27.1750
G1 X131.1880 Y-27.1750
G1 X131.1880 Y-27.1750
G0 X131.1880 Y-27.1750
F500
G1 Z-1.2000 F500
F120
G1 X131.1880 Y-27.1750
G1 X131.1880 Y-27.1750
G1 X131.1880 Y-27.1750
G1 X131.1880 Y-27.1750
G0 X131.1880 Y-27.1750
F500
G1 Z-1.8000 F500
F120
G1 X131.1880 Y-27.1750
G1 X131.1880 Y-27.1750
G1 X131.1880 Y-27.1750
G1 X131.1880 Y-27.1750
G0 Z2.0000
G0 X131.1880 Y-24.6350
F500
G1 Z-0.6000 F500
F120
G1 X131.1880 Y-24.6350
G1 X131.1880 Y-24.6350
G1 X131.1880 Y-24.6350
G1 X131.1880 Y-24.6350
G0 X131.1880 Y-24.6350
F500
G1 Z-1.2000 F500
F120
G1 X131.1880 Y-24.6350
G1 X131.1880 Y-24.6350
G1 X131.1880 Y-24.6350
G1 X131.1880 Y-24.6350
G0 X131.1880 Y-24.6350
F500
G1 Z-1.8000 F500
F120
G1 X131.1880 Y-24.6350
G1 X131.1880 Y-24.6350
G1 X131.1880 Y-24.6350
G1 X131.1880 Y-24.6350
G0 Z2.0000
G0 X140.3350 Y-25.6540
F500
G1 Z-0.6000 F500
F120
G1 X140.3350 Y-25.6540
G1 X140.3350 Y-25.6540
G1 X140.3350 Y-25.6540
G1 X140.3350 Y-25.6540
G0 X140.3350 Y-25.6540
F500
G1 Z-1.2000 F500
F120
G1 X140.3350 Y-25.6540
G1 X140.3350 Y-25.6540
G1 X140.3350 Y-25.6540
G1 X140.3350 Y-25.6540
G0 X140.3350 Y-25.6540
F500
G1 Z-1.8000 F500
F120
G1 X140.3350 Y-25.6540
G1 X140.3350 Y-25.6540
G1 X140.3350 Y-25.6540
G1 X140.3350 Y-25.6540
G0 Z2.0000
G0 X140.3350 Y-21.4630
F500
G1 Z-0.6000 F500
F120
G1 X140.3350 Y-21.4630
G1 X140.3350 Y-21.4630
G1 X140.3350 Y-21.4630
G1 X140.3350 Y-21.4630
G0 X140.3350 Y-21.4630
F500
G1 Z-1.2000 F500
F120
G1 X140.3350 Y-21.4630
G1 X140.3350 Y-21.4630
G1 X140.3350 Y-21.4630
G1 X140.3350 Y-21.4630
G0 X140.3350 Y-21.4630
F500
G1 Z-1.8000 F500
F120
G1 X140.3350 Y-21.4630
G1 X140.3350 Y-21.4630
G1 X140.3350 Y-21.4630
G1 X140.3350 Y-21.4630
G0 Z2.0000
G0 X144.0180 Y-23.3400
F500
G1 Z-0.6000 F500
F120
G1 X144.0180 Y-23.3400
G1 X144.0180 Y-23.3400
G1 X144.0180 Y-23.3400
G1 X144.0180 Y-23.3400
G0 X144.0180 Y-23.3400
F500
G1 Z-1.2000 F500
F120
G1 X144.0180 Y-23.3400
G1 X144.0180 Y-23.3400
G1 X144.0180 Y-23.3400
G1 X144.0180 Y-23.3400
G0 X144.0180 Y-23.3400
F500
G1 Z-1.8000 F500
F120
G1 X144.0180 Y-23.3400
G1 X144.0180 Y-23.3400
G1 X144.0180 Y-23.3400
G1 X144.0180 Y-23.3400
G0 Z2.0000
G0 X147.9550 Y-21.4630
F500
G1 Z-0.6000 F500
F120
G1 X147.9550 Y-21.4630
G1 X147.9550 Y-21.4630
G1 X147.9550 Y-21.4630
G1 X147.9550 Y-21.4630
G0 X147.9550 Y-21.4630
F500
G1 Z-1.2000 F500
F120
G1 X147.9550 Y-21.4630
G1 X147.9550 Y-21.4630
G1 X147.9550 Y-21.4630
G1 X147.9550 Y-21.4630
G0 X147.9550 Y-21.4630
F500
G1 Z-1.8000 F500
F120
G1 X147.9550 Y-21.4630
G1 X147.9550 Y-21.4630
G1 X147.9550 Y-21.4630
G1 X147.9550 Y-21.4630
G0 Z2.0000
G0 X147.9550 Y-25.6540
F500
G1 Z-0.6000 F500
F120
G1 X147.9550 Y-25.6540
G1 X147.9550 Y-25.6540
G1 X147.9550 Y-25.6540
G1 X147.9550 Y-25.6540
G0 X147.9550 Y-25.6540
F500
G1 Z-1.2000 F500
F120
G1 X147.9550 Y-25.6540
G1 X147.9550 Y-25.6540
G1 X147.9550 Y-25.6540
G1 X147.9550 Y-25.6540
G0 X147.9550 Y-25.6540
F500
G1 Z-1.8000 F500
F120
G1 X147.9550 Y-25.6540
G1 X147.9550 Y-25.6540
G1 X147.9550 Y-25.6540
G1 X147.9550 Y-25.6540
G0 Z2.0000
G0 X144.0180 Y-28.3400
F500
G1 Z-0.6000 F500
F120
G1 X144.0180 Y-28.3400
G1 X144.0180 Y-28.3400
G1 X144.0180 Y-28.3400
G1 X144.0180 Y-28.3400
G0 X144.0180 Y-28.3400
F500
G1 Z-1.2000 F500
F120
G1 X144.0180 Y-28.3400
G1 X144.0180 Y-28.3400
G1 X144.0180 Y-28.3400
G1 X144.0180 Y-28.3400
G0 X144.0180 Y-28.3400
F500
G1 Z-1.8000 F500
F120
G1 X144.0180 Y-28.3400
G1 X144.0180 Y-28.3400
G1 X144.0180 Y-28.3400
G1 X144.0180 Y-28.3400
G0 Z2.0000
G0 X140.3350 Y-30.6070
F500
G1 Z-0.6000 F500
F120
G1 X140.3350 Y-30.6070
G1 X140.3350 Y-30.6070
G1 X140.3350 Y-30.6070
G1 X140.3350 Y-30.6070
G0 X140.3350 Y-30.6070
F500
G1 Z-1.2000 F500
F120
G1 X140.3350 Y-30.6070
G1 X140.3350 Y-30.6070
G1 X140.3350 Y-30.6070
G1 X140.3350 Y-30.6070
G0 X140.3350 Y-30.6070
F500
G1 Z-1.8000 F500
F120
G1 X140.3350 Y-30.6070
G1 X140.3350 Y-30.6070
G1 X140.3350 Y-30.6070
G1 X140.3350 Y-30.6070
G0 Z2.0000
G0 X144.0180 Y-33.3400
F500
G1 Z-0.6000 F500
F120
G1 X144.0180 Y-33.3400
G1 X144.0180 Y-33.3400
G1 X144.0180 Y-33.3400
G1 X144.0180 Y-33.3400
G0 X144.0180 Y-33.3400
F500
G1 Z-1.2000 F500
F120
G1 X144.0180 Y-33.3400
G1 X144.0180 Y-33.3400
G1 X144.0180 Y-33.3400
G1 X144.0180 Y-33.3400
G0 X144.0180 Y-33.3400
F500
G1 Z-1.8000 F500
F120
G1 X144.0180 Y-33.3400
G1 X144.0180 Y-33.3400
G1 X144.0180 Y-33.3400
G1 X144.0180 Y-33.3400
G0 Z2.0000
G0 X140.3350 Y-35.6870
F500
G1 Z-0.6000 F500
F120
G1 X140.3350 Y-35.6870
G1 X140.3350 Y-35.6870
G1 X140.3350 Y-35.6870
G1 X140.3350 Y-35.6870
G0 X140.3350 Y-35.6870
F500
G1 Z-1.2000 F500
F120
G1 X140.3350 Y-35.6870
G1 X140.3350 Y-35.6870
G1 X140.3350 Y-35.6870
G1 X140.3350 Y-35.6870
G0 X140.3350 Y-35.6870
F500
G1 Z-1.8000 F500
F120
G1 X140.3350 Y-35.6870
G1 X140.3350 Y-35.6870
G1 X140.3350 Y-35.6870
G1 X140.3350 Y-35.6870
G0 Z2.0000
G0 X144.0180 Y-38.3400
F500
G1 Z-0.6000 F500
F120
G1 X144.0180 Y-38.3400
G1 X144.0180 Y-38.3400
G1 X144.0180 Y-38.3400
G1 X144.0180 Y-38.3400
G0 X144.0180 Y-38.3400
F500
G1 Z-1.2000 F500
F120
G1 X144.0180 Y-38.3400
G1 X144.0180 Y-38.3400
G1 X144.0180 Y-38.3400
G1 X144.0180 Y-38.3400
G0 X144.0180 Y-38.3400
F500
G1 Z-1.8000 F500
F120
G1 X144.0180 Y-38.3400
G1 X144.0180 Y-38.3400
G1 X144.0180 Y-38.3400
G1 X144.0180 Y-38.3400
G0 Z2.0000
G0 X140.4620 Y-40.5130
F500
G1 Z-0.6000 F500
F120
G1 X140.4620 Y-40.5130
G1 X140.4620 Y-40.5130
G1 X140.4620 Y-40.5130
G1 X140.4620 Y-40.5130
G0 X140.4620 Y-40.5130
F500
G1 Z-1.2000 F500
F120
G1 X140.4620 Y-40.5130
G1 X140.4620 Y-40.5130
G1 X140.4620 Y-40.5130
G1 X140.4620 Y-40.5130
G0 X140.4620 Y-40.5130
F500
G1 Z-1.8000 F500
F120
G1 X140.4620 Y-40.5130
G1 X140.4620 Y-40.5130
G1 X140.4620 Y-40.5130
G1 X140.4620 Y-40.5130
G0 Z2.0000
G0 X144.0180 Y-43.3400
F500
G1 Z-0.6000 F500
F120
G1 X144.0180 Y-43.3400
G1 X144.0180 Y-43.3400
G1 X144.0180 Y-43.3400
G1 X144.0180 Y-43.3400
G0 X144.0180 Y-43.3400
F500
G1 Z-1.2000 F500
F120
G1 X144.0180 Y-43.3400
G1 X144.0180 Y-43.3400
G1 X144.0180 Y-43.3400
G1 X144.0180 Y-43.3400
G0 X144.0180 Y-43.3400
F500
G1 Z-1.8000 F500
F120
G1 X144.0180 Y-43.3400
G1 X144.0180 Y-43.3400
G1 X144.0180 Y-43.3400
G1 X144.0180 Y-43.3400
G0 Z2.0000
G0 X140.3350 Y-45.5930
F500
G1 Z-0.6000 F500
F120
G1 X140.3350 Y-45.5930
G1 X140.3350 Y-45.5930
G1 X140.3350 Y-45.5930
G1 X140.3350 Y-45.5930
G0 X140.3350 Y-45.5930
F500
G1 Z-1.2000 F500
F120
G1 X140.3350 Y-45.5930
G1 X140.3350 Y-45.5930
G1 X140.3350 Y-45.5930
G1 X140.3350 Y-45.5930
G0 X140.3350 Y-45.5930
F500
G1 Z-1.8000 F500
F120
G1 X140.3350 Y-45.5930
G1 X140.3350 Y-45.5930
G1 X140.3350 Y-45.5930
G1 X140.3350 Y-45.5930
G0 Z2.0000
G0 X144.0180 Y-48.3400
F500
G1 Z-0.6000 F500
F120
G1 X144.0180 Y-48.3400
G1 X144.0180 Y-48.3400
G1 X144.0180 Y-48.3400
G1 X144.0180 Y-48.3400
G0 X144.0180 Y-48.3400
F500
G1 Z-1.2000 F500
F120
G1 X144.0180 Y-48.3400
G1 X144.0180 Y-48.3400
G1 X144.0180 Y-48.3400
G1 X144.0180 Y-48.3400
G0 X144.0180 Y-48.3400
F500
G1 Z-1.8000 F500
F120
G1 X144.0180 Y-48.3400
G1 X144.0180 Y-48.3400
G1 X144.0180 Y-48.3400
G1 X144.0180 Y-48.3400
G0 Z2.0000
G0 X140.3350 Y-50.8000
F500
G1 Z-0.6000 F500
F120
G1 X140.3350 Y-50.8000
G1 X140.3350 Y-50.8000
G1 X140.3350 Y-50.8000
G1 X140.3350 Y-50.8000
G0 X140.3350 Y-50.8000
F500
G1 Z-1.2000 F500
F120
G1 X140.3350 Y-50.8000
G1 X140.3350 Y-50.8000
G1 X140.3350 Y-50.8000
G1 X140.3350 Y-50.8000
G0 X140.3350 Y-50.8000
F500
G1 Z-1.8000 F500
F120
G1 X140.3350 Y-50.8000
G1 X140.3350 Y-50.8000
G1 X140.3350 Y-50.8000
G1 X140.3350 Y-50.8000
G0 Z2.0000
G0 X144.0180 Y-53.3400
F500
G1 Z-0.6000 F500
F120
G1 X144.0180 Y-53.3400
G1 X144.0180 Y-53.3400
G1 X144.0180 Y-53.3400
G1 X144.0180 Y-53.3400
G0 X144.0180 Y-53.3400
F500
G1 Z-1.2000 F500
F120
G1 X144.0180 Y-53.3400
G1 X144.0180 Y-53.3400
G1 X144.0180 Y-53.3400
G1 X144.0180 Y-53.3400
G0 X144.0180 Y-53.3400
F500
G1 Z-1.8000 F500
F120
G1 X144.0180 Y-53.3400
G1 X144.0180 Y-53.3400
G1 X144.0180 Y-53.3400
G1 X144.0180 Y-53.3400
G0 Z2.0000
G0 X147.9550 Y-50.8000
F500
G1 Z-0.6000 F500
F120
G1 X147.9550 Y-50.8000
G1 X147.9550 Y-50.8000
G1 X147.9550 Y-50.8000
G1 X147.9550 Y-50.8000
G0 X147.9550 Y-50.8000
F500
G1 Z-1.2000 F500
F120
G1 X147.9550 Y-50.8000
G1 X147.9550 Y-50.8000
G1 X147.9550 Y-50.8000
G1 X147.9550 Y-50.8000
G0 X147.9550 Y-50.8000
F500
G1 Z-1.8000 F500
F120
G1 X147.9550 Y-50.8000
G1 X147.9550 Y-50.8000
G1 X147.9550 Y-50.8000
G1 X147.9550 Y-50.8000
G0 Z2.0000
G0 X147.9550 Y-45.5930
F500
G1 Z-0.6000 F500
F120
G1 X147.9550 Y-45.5930
G1 X147.9550 Y-45.5930
G1 X147.9550 Y-45.5930
G1 X147.9550 Y-45.5930
G0 X147.9550 Y-45.5930
F500
G1 Z-1.2000 F500
F120
G1 X147.9550 Y-45.5930
G1 X147.9550 Y-45.5930
G1 X147.9550 Y-45.5930
G1 X147.9550 Y-45.5930
G0 X147.9550 Y-45.5930
F500
G1 Z-1.8000 F500
F120
G1 X147.9550 Y-45.5930
G1 X147.9550 Y-45.5930
G1 X147.9550 Y-45.5930
G1 X147.9550 Y-45.5930
G0 Z2.0000
G0 X148.0820 Y-40.5130
F500
G1 Z-0.6000 F500
F120
G1 X148.0820 Y-40.5130
G1 X148.0820 Y-40.5130
G1 X148.0820 Y-40.5130
G1 X148.0820 Y-40.5130
G0 X148.0820 Y-40.5130
F500
G1 Z-1.2000 F500
F120
G1 X148.0820 Y-40.5130
G1 X148.0820 Y-40.5130
G1 X148.0820 Y-40.5130
G1 X148.0820 Y-40.5130
G0 X148.0820 Y-40.5130
F500
G1 Z-1.8000 F500
F120
G1 X148.0820 Y-40.5130
G1 X148.0820 Y-40.5130
G1 X148.0820 Y-40.5130
G1 X148.0820 Y-40.5130
G0 Z2.0000
G0 X147.9550 Y-35.6870
F500
G1 Z-0.6000 F500
F120
G1 X147.9550 Y-35.6870
G1 X147.9550 Y-35.6870
G1 X147.9550 Y-35.6870
G1 X147.9550 Y-35.6870
G0 X147.9550 Y-35.6870
F500
G1 Z-1.2000 F500
F120
G1 X147.9550 Y-35.6870
G1 X147.9550 Y-35.6870
G1 X147.9550 Y-35.6870
G1 X147.9550 Y-35.6870
G0 X147.9550 Y-35.6870
F500
G1 Z-1.8000 F500
F120
G1 X147.9550 Y-35.6870
G1 X147.9550 Y-35.6870
G1 X147.9550 Y-35.6870
G1 X147.9550 Y-35.6870
G0 Z2.0000
G0 X147.9550 Y-30.6070
F500
G1 Z-0.6000 F500
F120
G1 X147.9550 Y-30.6070
G1 X147.9550 Y-30.6070
G1 X147.9550 Y-30.6070
G1 X147.9550 Y-30.6070
G0 X147.9550 Y-30.6070
F500
G1 Z-1.2000 F500
F120
G1 X147.9550 Y-30.6070
G1 X147.9550 Y-30.6070
G1 X147.9550 Y-30.6070
G1 X147.9550 Y-30.6070
G0 X147.9550 Y-30.6070
F500
G1 Z-1.8000 F500
F120
G1 X147.9550 Y-30.6070
G1 X147.9550 Y-30.6070
G1 X147.9550 Y-30.6070
G1 X147.9550 Y-30.6070
G0 Z2.0000
G0 X144.0180 Y-18.3400
F500
G1 Z-0.6000 F500
F120
G1 X144.0180 Y-18.3400
G1 X144.0180 Y-18.3400
G1 X144.0180 Y-18.3400
G1 X144.0180 Y-18.3400
G0 X144.0180 Y-18.3400
F500
G1 Z-1.2000 F500
F120
G1 X144.0180 Y-18.3400
G1 X144.0180 Y-18.3400
G1 X144.0180 Y-18.3400
G1 X144.0180 Y-18.3400
G0 X144.0180 Y-18.3400
F500
G1 Z-1.8000 F500
F120
G1 X144.0180 Y-18.3400
G1 X144.0180 Y-18.3400
G1 X144.0180 Y-18.3400
G1 X144.0180 Y-18.3400
G0 Z2.0000
G0 X135.3820 Y-13.8430
F500
G1 Z-0.6000 F500
F120
G1 X135.3820 Y-13.8430
G1 X135.3820 Y-13.8430
G1 X135.3820 Y-13.8430
G1 X135.3820 Y-13.8430
G0 X135.3820 Y-13.8430
F500
G1 Z-1.2000 F500
F120
G1 X135.3820 Y-13.8430
G1 X135.3820 Y-13.8430
G1 X135.3820 Y-13.8430
G1 X135.3820 Y-13.8430
G0 X135.3820 Y-13.8430
F500
G1 Z-1.8000 F500
F120
G1 X135.3820 Y-13.8430
G1 X135.3820 Y-13.8430
G1 X135.3820 Y-13.8430
G1 X135.3820 Y-13.8430
G0 Z2.0000
G0 X132.8420 Y-13.8430
F500
G1 Z-0.6000 F500
F120
G1 X132.8420 Y-13.8430
G1 X132.8420 Y-13.8430
G1 X132.8420 Y-13.8430
G1 X132.8420 Y-13.8430
G0 X132.8420 Y-13.8430
F500
G1 Z-1.2000 F500
F120
G1 X132.8420 Y-13.8430
G1 X132.8420 Y-13.8430
G1 X132.8420 Y-13.8430
G1 X132.8420 Y-13.8430
G0 X132.8420 Y-13.8430
F500
G1 Z-1.8000 F500
F120
G1 X132.8420 Y-13.8430
G1 X132.8420 Y-13.8430
G1 X132.8420 Y-13.8430
G1 X132.8420 Y-13.8430
G0 Z2.0000
M5 / выключение шпинделя
G0 Z2.0000
G0 Z15.00 X0 Y0


