(G-CODE GENERATED BY FLATCAM v8.994 - www.flatcam.org - Version Date: 2020/11/7)

(Name: Drill_PTH_Through.DRL_edit_mill_slot_cnc)
(Type: G-code from Geometry)
(Units: MM)

(Created on Monday, 19 May 2025 at 13:20)

/TOOL DIAMETER = ДИАМЕТР ИНСТРУМЕНТА: 0.8 mm
/Feedrate_XY = подача XY: 120.0 mm/min
/Feedrate_Z = подача Z: 500.0 mm/min
/Feedrate rapids = быстрая подача1500.0 mm/min

/Z_Cut = проходы по Z: -1.8 mm
/DepthPerCut = углубиться за проход: 0.6 mm <=>3 passes
/Z_Move: 2.0 mm
/Z Start: None mm
/Z End: 15.0 mm
/X,Y End: None mm
(Steps per circle: 64)
/Steps per circle: 64
/Preprocessor Geometry: Charly4U

/X range:  121.4837 ...  142.5654  mm
/Y range:  -13.8441 ...   -3.2306  mm

/Скорость шпинделя: 20000.0 RPM
G71 / измерения в мм
G90 / программирование в абсолютных координатах

F120
/Tool switching while working is not supported! = Смена инструмента в процессе работы не поддерживается!
M3 S20000.0
F120
G0 X121.4838 Y-4.4441
F500
G1 Z-0.6000 F500
F120
G1 X121.4838 Y-4.4439
G1 X122.8643 Y-4.4440
G1 X122.8642 Y-4.4441
G1 X121.4838 Y-4.4441
G0 X121.4838 Y-4.4441
F500
G1 Z-1.2000 F500
F120
G1 X121.4838 Y-4.4439
G1 X122.8643 Y-4.4440
G1 X122.8642 Y-4.4441
G1 X121.4838 Y-4.4441
G0 X121.4838 Y-4.4441
F500
G1 Z-1.8000 F500
F120
G1 X121.4838 Y-4.4439
G1 X122.8643 Y-4.4440
G1 X122.8642 Y-4.4441
G1 X121.4838 Y-4.4441
G0 Z2.0000
G0 X121.4838 Y-9.1441
F500
G1 Z-0.6000 F500
F120
G1 X121.4838 Y-9.1439
G1 X122.8643 Y-9.1440
G1 X122.8642 Y-9.1441
G1 X121.4838 Y-9.1441
G0 X121.4838 Y-9.1441
F500
G1 Z-1.2000 F500
F120
G1 X121.4838 Y-9.1439
G1 X122.8643 Y-9.1440
G1 X122.8642 Y-9.1441
G1 X121.4838 Y-9.1441
G0 X121.4838 Y-9.1441
F500
G1 Z-1.8000 F500
F120
G1 X121.4838 Y-9.1439
G1 X122.8643 Y-9.1440
G1 X122.8642 Y-9.1441
G1 X121.4838 Y-9.1441
G0 Z2.0000
G0 X121.4838 Y-13.8441
F500
G1 Z-0.6000 F500
F120
G1 X121.4838 Y-13.8439
G1 X122.8643 Y-13.8440
G1 X122.8642 Y-13.8441
G1 X121.4838 Y-13.8441
G0 X121.4838 Y-13.8441
F500
G1 Z-1.2000 F500
F120
G1 X121.4838 Y-13.8439
G1 X122.8643 Y-13.8440
G1 X122.8642 Y-13.8441
G1 X121.4838 Y-13.8441
G0 X121.4838 Y-13.8441
F500
G1 Z-1.8000 F500
F120
G1 X121.4838 Y-13.8439
G1 X122.8643 Y-13.8440
G1 X122.8642 Y-13.8441
G1 X121.4838 Y-13.8441
G0 Z2.0000
G0 X137.4672 Y-11.2308
F500
G1 Z-0.6000 F500
F120
G1 X137.4672 Y-11.2306
G1 X139.6469 Y-11.2473
G1 X139.6468 Y-11.2474
G1 X137.4672 Y-11.2308
G0 X137.4672 Y-11.2308
F500
G1 Z-1.2000 F500
F120
G1 X137.4672 Y-11.2306
G1 X139.6469 Y-11.2473
G1 X139.6468 Y-11.2474
G1 X137.4672 Y-11.2308
G0 X137.4672 Y-11.2308
F500
G1 Z-1.8000 F500
F120
G1 X137.4672 Y-11.2306
G1 X139.6469 Y-11.2473
G1 X139.6468 Y-11.2474
G1 X137.4672 Y-11.2308
G0 Z2.0000
G0 X142.5486 Y-6.2762
F500
G1 Z-0.6000 F500
F120
G1 X142.5488 Y-6.2762
G1 X142.5653 Y-8.4559
G1 X142.5652 Y-8.4558
G1 X142.5486 Y-6.2762
G0 X142.5486 Y-6.2762
F500
G1 Z-1.2000 F500
F120
G1 X142.5488 Y-6.2762
G1 X142.5653 Y-8.4559
G1 X142.5652 Y-8.4558
G1 X142.5486 Y-6.2762
G0 X142.5486 Y-6.2762
F500
G1 Z-1.8000 F500
F120
G1 X142.5488 Y-6.2762
G1 X142.5653 Y-8.4559
G1 X142.5652 Y-8.4558
G1 X142.5486 Y-6.2762
G0 Z2.0000
G0 X137.4672 Y-3.2308
F500
G1 Z-0.6000 F500
F120
G1 X137.4672 Y-3.2306
G1 X139.6469 Y-3.2473
G1 X139.6468 Y-3.2474
G1 X137.4672 Y-3.2308
G0 X137.4672 Y-3.2308
F500
G1 Z-1.2000 F500
F120
G1 X137.4672 Y-3.2306
G1 X139.6469 Y-3.2473
G1 X139.6468 Y-3.2474
G1 X137.4672 Y-3.2308
G0 X137.4672 Y-3.2308
F500
G1 Z-1.8000 F500
F120
G1 X137.4672 Y-3.2306
G1 X139.6469 Y-3.2473
G1 X139.6468 Y-3.2474
G1 X137.4672 Y-3.2308
G0 Z2.0000
M5 / выключение шпинделя
G0 Z2.0000
G0 Z15.00 X0 Y0


