(G-CODE GENERATED BY FLATCAM v8.994 - www.flatcam.org - Version Date: 2020/11/7)

(Name: Gerber_TopLayer.GTL_iso_combined_cnc)
(Type: G-code from Geometry)
(Units: MM)

(Created on Monday, 19 May 2025 at 13:18)

/TOOL DIAMETER = ДИАМЕТР ИНСТРУМЕНТА: 0.2 mm
/Feedrate_XY = подача XY: 500.0 mm/min
/Feedrate_Z = подача Z: 800.0 mm/min
/Feedrate rapids = быстрая подача1500.0 mm/min

/Z_Cut = проходы по Z: 0.0 mm
/Z_Move: 2.0 mm
/Z Start: None mm
/Z End: 15.0 mm
/X,Y End: None mm
(Steps per circle: 64)
/Steps per circle: 64
/Preprocessor Geometry: Charly4U

/X range:    0.4308 ...  149.8418  mm
/Y range:  -59.7672 ...    0.1088  mm

/Скорость шпинделя: 20000.0 RPM
G71 / измерения в мм
G90 / программирование в абсолютных координатах

F500
/Tool switching while working is not supported! = Смена инструмента в процессе работы не поддерживается!
M3 S20000.0
F500
G0 X2.6126 Y-18.6464
F800
G1 Z0.0000 F800
F500
G1 X2.6120 Y-18.6690
G1 X2.6126 Y-18.6916
G1 X2.6198 Y-18.8386
G1 X2.6214 Y-18.8611
G1 X2.6242 Y-18.8835
G1 X2.6458 Y-19.0291
G1 X2.6497 Y-19.0514
G1 X2.6546 Y-19.0734
G1 X2.6904 Y-19.2162
G1 X2.6964 Y-19.2380
G1 X2.7035 Y-19.2594
G1 X2.7531 Y-19.3980
G1 X2.7612 Y-19.4191
G1 X2.7703 Y-19.4397
G1 X2.8333 Y-19.5728
G1 X2.8434 Y-19.5929
G1 X2.8546 Y-19.6126
G1 X2.9302 Y-19.7388
G1 X2.9423 Y-19.7579
G1 X2.9553 Y-19.7764
G1 X3.0430 Y-19.8946
G1 X3.0569 Y-19.9124
G1 X3.0716 Y-19.9295
G1 X3.1705 Y-20.0386
G1 X3.1861 Y-20.0549
G1 X3.2024 Y-20.0705
G1 X3.3115 Y-20.1694
G1 X3.3286 Y-20.1841
G1 X3.3464 Y-20.1980
G1 X3.4646 Y-20.2857
G1 X3.4831 Y-20.2987
G1 X3.5022 Y-20.3108
G1 X3.6284 Y-20.3864
G1 X3.6481 Y-20.3976
G1 X3.6682 Y-20.4077
G1 X3.8013 Y-20.4707
G1 X3.8219 Y-20.4798
G1 X3.8430 Y-20.4879
G1 X3.9816 Y-20.5375
G1 X4.0030 Y-20.5446
G1 X4.0248 Y-20.5506
G1 X4.1676 Y-20.5864
G1 X4.1896 Y-20.5913
G1 X4.2119 Y-20.5952
G1 X4.3575 Y-20.6168
G1 X4.3799 Y-20.6196
G1 X4.4024 Y-20.6212
G1 X4.5494 Y-20.6284
G1 X4.5720 Y-20.6290
G1 X4.5946 Y-20.6284
G1 X4.7416 Y-20.6212
G1 X4.7641 Y-20.6196
G1 X4.7865 Y-20.6168
G1 X4.9321 Y-20.5952
G1 X4.9544 Y-20.5913
G1 X4.9764 Y-20.5864
G1 X5.1192 Y-20.5506
G1 X5.1410 Y-20.5446
G1 X5.1624 Y-20.5375
G1 X5.3010 Y-20.4879
G1 X5.3221 Y-20.4798
G1 X5.3427 Y-20.4707
G1 X5.4758 Y-20.4077
G1 X5.4959 Y-20.3976
G1 X5.5156 Y-20.3864
G1 X5.6418 Y-20.3108
G1 X5.6609 Y-20.2987
G1 X5.6794 Y-20.2857
G1 X5.7976 Y-20.1980
G1 X5.8154 Y-20.1841
G1 X5.8325 Y-20.1694
G1 X5.9416 Y-20.0705
G1 X5.9579 Y-20.0549
G1 X5.9735 Y-20.0386
G1 X6.0724 Y-19.9295
G1 X6.0871 Y-19.9124
G1 X6.1010 Y-19.8946
G1 X6.1887 Y-19.7764
G1 X6.2017 Y-19.7579
G1 X6.2138 Y-19.7388
G1 X6.2894 Y-19.6126
G1 X6.3006 Y-19.5929
G1 X6.3107 Y-19.5728
G1 X6.3737 Y-19.4397
G1 X6.3828 Y-19.4191
G1 X6.3909 Y-19.3980
G1 X6.4405 Y-19.2594
G1 X6.4476 Y-19.2380
G1 X6.4536 Y-19.2162
G1 X6.4894 Y-19.0734
G1 X6.4943 Y-19.0514
G1 X6.4982 Y-19.0291
G1 X6.5198 Y-18.8835
G1 X6.5226 Y-18.8611
G1 X6.5242 Y-18.8386
G1 X6.5314 Y-18.6916
G1 X6.5320 Y-18.6690
G1 X6.5314 Y-18.6464
G1 X6.5242 Y-18.4994
G1 X6.5226 Y-18.4769
G1 X6.5198 Y-18.4545
G1 X6.4982 Y-18.3089
G1 X6.4943 Y-18.2866
G1 X6.4894 Y-18.2646
G1 X6.4536 Y-18.1218
G1 X6.4476 Y-18.1000
G1 X6.4405 Y-18.0786
G1 X6.3909 Y-17.9400
G1 X6.3828 Y-17.9189
G1 X6.3737 Y-17.8983
G1 X6.3107 Y-17.7652
G1 X6.3006 Y-17.7451
G1 X6.2894 Y-17.7254
G1 X6.2138 Y-17.5992
G1 X6.2017 Y-17.5801
G1 X6.1887 Y-17.5616
G1 X6.1010 Y-17.4434
G1 X6.0871 Y-17.4256
G1 X6.0724 Y-17.4085
G1 X5.9735 Y-17.2994
G1 X5.9579 Y-17.2831
G1 X5.9416 Y-17.2675
G1 X5.8325 Y-17.1686
G1 X5.8154 Y-17.1539
G1 X5.7976 Y-17.1400
G1 X5.6794 Y-17.0523
G1 X5.6609 Y-17.0393
G1 X5.6418 Y-17.0272
G1 X5.5156 Y-16.9516
G1 X5.4959 Y-16.9404
G1 X5.4758 Y-16.9303
G1 X5.3427 Y-16.8673
G1 X5.3221 Y-16.8582
G1 X5.3010 Y-16.8501
G1 X5.1624 Y-16.8005
G1 X5.1410 Y-16.7934
G1 X5.1192 Y-16.7874
G1 X4.9764 Y-16.7516
G1 X4.9544 Y-16.7467
G1 X4.9321 Y-16.7428
G1 X4.7865 Y-16.7212
G1 X4.7641 Y-16.7184
G1 X4.7416 Y-16.7168
G1 X4.5946 Y-16.7096
G1 X4.5720 Y-16.7090
G1 X4.5494 Y-16.7096
G1 X4.4024 Y-16.7168
G1 X4.3799 Y-16.7184
G1 X4.3575 Y-16.7212
G1 X4.2119 Y-16.7428
G1 X4.1896 Y-16.7467
G1 X4.1676 Y-16.7516
G1 X4.0248 Y-16.7874
G1 X4.0030 Y-16.7934
G1 X3.9816 Y-16.8005
G1 X3.8430 Y-16.8501
G1 X3.8219 Y-16.8582
G1 X3.8013 Y-16.8673
G1 X3.6682 Y-16.9303
G1 X3.6481 Y-16.9404
G1 X3.6284 Y-16.9516
G1 X3.5022 Y-17.0272
G1 X3.4831 Y-17.0393
G1 X3.4646 Y-17.0523
G1 X3.3464 Y-17.1400
G1 X3.3286 Y-17.1539
G1 X3.3115 Y-17.1686
G1 X3.2024 Y-17.2675
G1 X3.1861 Y-17.2831
G1 X3.1705 Y-17.2994
G1 X3.0716 Y-17.4085
G1 X3.0569 Y-17.4256
G1 X3.0430 Y-17.4434
G1 X2.9553 Y-17.5616
G1 X2.9423 Y-17.5801
G1 X2.9302 Y-17.5992
G1 X2.8546 Y-17.7254
G1 X2.8434 Y-17.7451
G1 X2.8333 Y-17.7652
G1 X2.7703 Y-17.8983
G1 X2.7612 Y-17.9189
G1 X2.7531 Y-17.9400
G1 X2.7035 Y-18.0786
G1 X2.6964 Y-18.1000
G1 X2.6904 Y-18.1218
G1 X2.6546 Y-18.2646
G1 X2.6497 Y-18.2866
G1 X2.6458 Y-18.3089
G1 X2.6242 Y-18.4545
G1 X2.6214 Y-18.4769
G1 X2.6198 Y-18.4994
G1 X2.6126 Y-18.6464
G0 Z2.0000
G0 X2.7923 Y-18.6553
F800
G1 Z0.0000 F800
F500
G1 X2.7920 Y-18.6690
G1 X2.7923 Y-18.6827
G1 X2.7996 Y-18.8298
G1 X2.8006 Y-18.8435
G1 X2.8023 Y-18.8571
G1 X2.8239 Y-19.0027
G1 X2.8262 Y-19.0163
G1 X2.8292 Y-19.0297
G1 X2.8650 Y-19.1725
G1 X2.8686 Y-19.1857
G1 X2.8730 Y-19.1988
G1 X2.9225 Y-19.3374
G1 X2.9275 Y-19.3502
G1 X2.9331 Y-19.3627
G1 X2.9960 Y-19.4958
G1 X3.0022 Y-19.5081
G1 X3.0090 Y-19.5200
G1 X3.0846 Y-19.6463
G1 X3.0920 Y-19.6579
G1 X3.0999 Y-19.6692
G1 X3.1876 Y-19.7874
G1 X3.1960 Y-19.7982
G1 X3.2050 Y-19.8086
G1 X3.3039 Y-19.9177
G1 X3.3134 Y-19.9276
G1 X3.3233 Y-19.9371
G1 X3.4324 Y-20.0360
G1 X3.4428 Y-20.0450
G1 X3.4536 Y-20.0534
G1 X3.5718 Y-20.1411
G1 X3.5831 Y-20.1490
G1 X3.5947 Y-20.1564
G1 X3.7210 Y-20.2320
G1 X3.7329 Y-20.2388
G1 X3.7452 Y-20.2450
G1 X3.8783 Y-20.3079
G1 X3.8908 Y-20.3135
G1 X3.9036 Y-20.3185
G1 X4.0422 Y-20.3680
G1 X4.0553 Y-20.3724
G1 X4.0685 Y-20.3760
G1 X4.2113 Y-20.4118
G1 X4.2247 Y-20.4148
G1 X4.2383 Y-20.4171
G1 X4.3839 Y-20.4387
G1 X4.3975 Y-20.4404
G1 X4.4112 Y-20.4414
G1 X4.5583 Y-20.4487
G1 X4.5720 Y-20.4490
G1 X4.5857 Y-20.4487
G1 X4.7328 Y-20.4414
G1 X4.7465 Y-20.4404
G1 X4.7601 Y-20.4387
G1 X4.9057 Y-20.4171
G1 X4.9193 Y-20.4148
G1 X4.9327 Y-20.4118
G1 X5.0755 Y-20.3760
G1 X5.0887 Y-20.3724
G1 X5.1018 Y-20.3680
G1 X5.2404 Y-20.3185
G1 X5.2532 Y-20.3135
G1 X5.2657 Y-20.3079
G1 X5.3988 Y-20.2450
G1 X5.4111 Y-20.2388
G1 X5.4230 Y-20.2320
G1 X5.5493 Y-20.1564
G1 X5.5609 Y-20.1490
G1 X5.5722 Y-20.1411
G1 X5.6904 Y-20.0534
G1 X5.7012 Y-20.0450
G1 X5.7116 Y-20.0360
G1 X5.8207 Y-19.9371
G1 X5.8306 Y-19.9276
G1 X5.8401 Y-19.9177
G1 X5.9390 Y-19.8086
G1 X5.9480 Y-19.7982
G1 X5.9564 Y-19.7874
G1 X6.0441 Y-19.6692
G1 X6.0520 Y-19.6579
G1 X6.0594 Y-19.6463
G1 X6.1350 Y-19.5200
G1 X6.1418 Y-19.5081
G1 X6.1480 Y-19.4958
G1 X6.2109 Y-19.3627
G1 X6.2165 Y-19.3502
G1 X6.2215 Y-19.3374
G1 X6.2710 Y-19.1988
G1 X6.2754 Y-19.1857
G1 X6.2790 Y-19.1725
G1 X6.3148 Y-19.0297
G1 X6.3178 Y-19.0163
G1 X6.3201 Y-19.0027
G1 X6.3417 Y-18.8571
G1 X6.3434 Y-18.8435
G1 X6.3444 Y-18.8298
G1 X6.3517 Y-18.6827
G1 X6.3520 Y-18.6690
G1 X6.3517 Y-18.6553
G1 X6.3444 Y-18.5082
G1 X6.3434 Y-18.4945
G1 X6.3417 Y-18.4809
G1 X6.3201 Y-18.3353
G1 X6.3178 Y-18.3217
G1 X6.3148 Y-18.3083
G1 X6.2790 Y-18.1655
G1 X6.2754 Y-18.1523
G1 X6.2710 Y-18.1392
G1 X6.2215 Y-18.0006
G1 X6.2165 Y-17.9878
G1 X6.2109 Y-17.9753
G1 X6.1480 Y-17.8422
G1 X6.1418 Y-17.8299
G1 X6.1350 Y-17.8180
G1 X6.0594 Y-17.6917
G1 X6.0520 Y-17.6801
G1 X6.0441 Y-17.6688
G1 X5.9564 Y-17.5506
G1 X5.9480 Y-17.5398
G1 X5.9390 Y-17.5294
G1 X5.8401 Y-17.4203
G1 X5.8306 Y-17.4104
G1 X5.8207 Y-17.4009
G1 X5.7116 Y-17.3020
G1 X5.7012 Y-17.2930
G1 X5.6904 Y-17.2846
G1 X5.5722 Y-17.1969
G1 X5.5609 Y-17.1890
G1 X5.5493 Y-17.1816
G1 X5.4230 Y-17.1060
G1 X5.4111 Y-17.0992
G1 X5.3988 Y-17.0930
G1 X5.2657 Y-17.0301
G1 X5.2532 Y-17.0245
G1 X5.2404 Y-17.0195
G1 X5.1018 Y-16.9700
G1 X5.0887 Y-16.9656
G1 X5.0755 Y-16.9620
G1 X4.9327 Y-16.9262
G1 X4.9193 Y-16.9232
G1 X4.9057 Y-16.9209
G1 X4.7601 Y-16.8993
G1 X4.7465 Y-16.8976
G1 X4.7328 Y-16.8966
G1 X4.5857 Y-16.8893
G1 X4.5720 Y-16.8890
G1 X4.5583 Y-16.8893
G1 X4.4112 Y-16.8966
G1 X4.3975 Y-16.8976
G1 X4.3839 Y-16.8993
G1 X4.2383 Y-16.9209
G1 X4.2247 Y-16.9232
G1 X4.2113 Y-16.9262
G1 X4.0685 Y-16.9620
G1 X4.0553 Y-16.9656
G1 X4.0422 Y-16.9700
G1 X3.9036 Y-17.0195
G1 X3.8908 Y-17.0245
G1 X3.8783 Y-17.0301
G1 X3.7452 Y-17.0930
G1 X3.7329 Y-17.0992
G1 X3.7210 Y-17.1060
G1 X3.5947 Y-17.1816
G1 X3.5831 Y-17.1890
G1 X3.5718 Y-17.1969
G1 X3.4536 Y-17.2846
G1 X3.4428 Y-17.2930
G1 X3.4324 Y-17.3020
G1 X3.3233 Y-17.4009
G1 X3.3134 Y-17.4104
G1 X3.3039 Y-17.4203
G1 X3.2050 Y-17.5294
G1 X3.1960 Y-17.5398
G1 X3.1876 Y-17.5506
G1 X3.0999 Y-17.6688
G1 X3.0920 Y-17.6801
G1 X3.0846 Y-17.6917
G1 X3.0090 Y-17.8180
G1 X3.0022 Y-17.8299
G1 X2.9960 Y-17.8422
G1 X2.9331 Y-17.9753
G1 X2.9275 Y-17.9878
G1 X2.9225 Y-18.0006
G1 X2.8730 Y-18.1392
G1 X2.8686 Y-18.1523
G1 X2.8650 Y-18.1655
G1 X2.8292 Y-18.3083
G1 X2.8262 Y-18.3217
G1 X2.8239 Y-18.3353
G1 X2.8023 Y-18.4809
G1 X2.8006 Y-18.4945
G1 X2.7996 Y-18.5082
G1 X2.7923 Y-18.6553
G0 Z2.0000
G0 X2.9721 Y-18.6641
F800
G1 Z0.0000 F800
F500
G1 X2.9721 Y-18.6739
G1 X2.9797 Y-18.8258
G1 X3.0027 Y-18.9811
G1 X3.0409 Y-19.1335
G1 X3.0938 Y-19.2813
G1 X3.1609 Y-19.4232
G1 X3.2416 Y-19.5579
G1 X3.3352 Y-19.6840
G1 X3.4406 Y-19.8004
G1 X3.5570 Y-19.9058
G1 X3.6831 Y-19.9994
G1 X3.8178 Y-20.0801
G1 X3.9597 Y-20.1472
G1 X4.1075 Y-20.2001
G1 X4.2599 Y-20.2383
G1 X4.4152 Y-20.2613
G1 X4.5720 Y-20.2690
G1 X4.7288 Y-20.2613
G1 X4.8841 Y-20.2383
G1 X5.0365 Y-20.2001
G1 X5.1843 Y-20.1472
G1 X5.3262 Y-20.0801
G1 X5.4609 Y-19.9994
G1 X5.5870 Y-19.9058
G1 X5.7034 Y-19.8004
G1 X5.8088 Y-19.6840
G1 X5.9024 Y-19.5579
G1 X5.9831 Y-19.4232
G1 X6.0502 Y-19.2813
G1 X6.1031 Y-19.1335
G1 X6.1413 Y-18.9811
G1 X6.1643 Y-18.8258
G1 X6.1720 Y-18.6690
G1 X6.1643 Y-18.5122
G1 X6.1413 Y-18.3569
G1 X6.1031 Y-18.2045
G1 X6.0502 Y-18.0567
G1 X5.9831 Y-17.9148
G1 X5.9024 Y-17.7801
G1 X5.8088 Y-17.6540
G1 X5.7034 Y-17.5376
G1 X5.5870 Y-17.4322
G1 X5.4609 Y-17.3386
G1 X5.3262 Y-17.2579
G1 X5.1843 Y-17.1908
G1 X5.0365 Y-17.1379
G1 X4.8841 Y-17.0997
G1 X4.7288 Y-17.0767
G1 X4.5720 Y-17.0690
G1 X4.4152 Y-17.0767
G1 X4.2599 Y-17.0997
G1 X4.1075 Y-17.1379
G1 X3.9597 Y-17.1908
G1 X3.8178 Y-17.2579
G1 X3.6831 Y-17.3386
G1 X3.5570 Y-17.4322
G1 X3.4406 Y-17.5376
G1 X3.3352 Y-17.6540
G1 X3.2416 Y-17.7801
G1 X3.1609 Y-17.9148
G1 X3.0938 Y-18.0567
G1 X3.0409 Y-18.2045
G1 X3.0027 Y-18.3569
G1 X2.9797 Y-18.5122
G1 X2.9721 Y-18.6641
G0 Z2.0000
G0 X2.7923 Y-23.6552
F800
G1 Z0.0000 F800
F500
G1 X2.7920 Y-23.6690
G1 X2.7923 Y-23.6827
G1 X2.7996 Y-23.8297
G1 X2.8006 Y-23.8435
G1 X2.8023 Y-23.8571
G1 X2.8239 Y-24.0027
G1 X2.8262 Y-24.0162
G1 X2.8292 Y-24.0296
G1 X2.8650 Y-24.1724
G1 X2.8686 Y-24.1857
G1 X2.8730 Y-24.1987
G1 X2.9225 Y-24.3373
G1 X2.9275 Y-24.3502
G1 X2.9331 Y-24.3627
G1 X2.9960 Y-24.4958
G1 X3.0022 Y-24.5081
G1 X3.0090 Y-24.5200
G1 X3.0846 Y-24.6463
G1 X3.0920 Y-24.6579
G1 X3.0999 Y-24.6691
G1 X3.1876 Y-24.7874
G1 X3.1960 Y-24.7982
G1 X3.2050 Y-24.8086
G1 X3.3039 Y-24.9177
G1 X3.3134 Y-24.9276
G1 X3.3233 Y-24.9371
G1 X3.4324 Y-25.0360
G1 X3.4428 Y-25.0449
G1 X3.4536 Y-25.0534
G1 X3.5718 Y-25.1411
G1 X3.5831 Y-25.1490
G1 X3.5947 Y-25.1563
G1 X3.7210 Y-25.2320
G1 X3.7329 Y-25.2388
G1 X3.7452 Y-25.2450
G1 X3.8783 Y-25.3079
G1 X3.8908 Y-25.3135
G1 X3.9036 Y-25.3184
G1 X4.0422 Y-25.3680
G1 X4.0553 Y-25.3723
G1 X4.0685 Y-25.3760
G1 X4.2113 Y-25.4118
G1 X4.2247 Y-25.4148
G1 X4.2383 Y-25.4171
G1 X4.3839 Y-25.4387
G1 X4.3975 Y-25.4404
G1 X4.4112 Y-25.4414
G1 X4.5583 Y-25.4486
G1 X4.5720 Y-25.4490
G1 X4.5857 Y-25.4486
G1 X4.7328 Y-25.4414
G1 X4.7465 Y-25.4404
G1 X4.7601 Y-25.4387
G1 X4.9057 Y-25.4171
G1 X4.9193 Y-25.4148
G1 X4.9327 Y-25.4118
G1 X5.0755 Y-25.3760
G1 X5.0887 Y-25.3723
G1 X5.1018 Y-25.3680
G1 X5.2404 Y-25.3184
G1 X5.2532 Y-25.3135
G1 X5.2657 Y-25.3079
G1 X5.3988 Y-25.2450
G1 X5.4111 Y-25.2388
G1 X5.4230 Y-25.2320
G1 X5.5493 Y-25.1563
G1 X5.5609 Y-25.1490
G1 X5.5722 Y-25.1411
G1 X5.6904 Y-25.0534
G1 X5.7012 Y-25.0449
G1 X5.7116 Y-25.0360
G1 X5.8207 Y-24.9371
G1 X5.8306 Y-24.9276
G1 X5.8401 Y-24.9177
G1 X5.9390 Y-24.8086
G1 X5.9480 Y-24.7982
G1 X5.9564 Y-24.7874
G1 X6.0441 Y-24.6691
G1 X6.0520 Y-24.6579
G1 X6.0594 Y-24.6463
G1 X6.1350 Y-24.5200
G1 X6.1418 Y-24.5081
G1 X6.1480 Y-24.4958
G1 X6.2109 Y-24.3627
G1 X6.2165 Y-24.3502
G1 X6.2215 Y-24.3373
G1 X6.2710 Y-24.1987
G1 X6.2754 Y-24.1857
G1 X6.2790 Y-24.1724
G1 X6.3148 Y-24.0296
G1 X6.3178 Y-24.0162
G1 X6.3201 Y-24.0027
G1 X6.3417 Y-23.8571
G1 X6.3434 Y-23.8435
G1 X6.3444 Y-23.8297
G1 X6.3517 Y-23.6827
G1 X6.3520 Y-23.6690
G1 X6.3517 Y-23.6552
G1 X6.3444 Y-23.5082
G1 X6.3434 Y-23.4945
G1 X6.3417 Y-23.4809
G1 X6.3201 Y-23.3353
G1 X6.3178 Y-23.3217
G1 X6.3148 Y-23.3083
G1 X6.2790 Y-23.1655
G1 X6.2754 Y-23.1523
G1 X6.2710 Y-23.1392
G1 X6.2215 Y-23.0006
G1 X6.2165 Y-22.9878
G1 X6.2109 Y-22.9752
G1 X6.1480 Y-22.8422
G1 X6.1418 Y-22.8299
G1 X6.1350 Y-22.8179
G1 X6.0594 Y-22.6917
G1 X6.0520 Y-22.6801
G1 X6.0441 Y-22.6688
G1 X5.9564 Y-22.5506
G1 X5.9480 Y-22.5398
G1 X5.9390 Y-22.5294
G1 X5.8401 Y-22.4203
G1 X5.8306 Y-22.4103
G1 X5.8207 Y-22.4009
G1 X5.7116 Y-22.3020
G1 X5.7012 Y-22.2930
G1 X5.6904 Y-22.2846
G1 X5.5722 Y-22.1969
G1 X5.5609 Y-22.1890
G1 X5.5493 Y-22.1816
G1 X5.4230 Y-22.1059
G1 X5.4111 Y-22.0992
G1 X5.3988 Y-22.0930
G1 X5.2657 Y-22.0300
G1 X5.2532 Y-22.0245
G1 X5.2404 Y-22.0195
G1 X5.1018 Y-21.9699
G1 X5.0887 Y-21.9656
G1 X5.0755 Y-21.9620
G1 X4.9327 Y-21.9262
G1 X4.9193 Y-21.9232
G1 X4.9057 Y-21.9208
G1 X4.7601 Y-21.8992
G1 X4.7465 Y-21.8976
G1 X4.7328 Y-21.8965
G1 X4.5857 Y-21.8893
G1 X4.5720 Y-21.8890
G1 X4.5583 Y-21.8893
G1 X4.4112 Y-21.8965
G1 X4.3975 Y-21.8976
G1 X4.3839 Y-21.8992
G1 X4.2383 Y-21.9208
G1 X4.2247 Y-21.9232
G1 X4.2113 Y-21.9262
G1 X4.0685 Y-21.9620
G1 X4.0553 Y-21.9656
G1 X4.0422 Y-21.9699
G1 X3.9036 Y-22.0195
G1 X3.8908 Y-22.0245
G1 X3.8783 Y-22.0300
G1 X3.7452 Y-22.0930
G1 X3.7329 Y-22.0992
G1 X3.7210 Y-22.1059
G1 X3.5947 Y-22.1816
G1 X3.5831 Y-22.1890
G1 X3.5718 Y-22.1969
G1 X3.4536 Y-22.2846
G1 X3.4428 Y-22.2930
G1 X3.4324 Y-22.3020
G1 X3.3233 Y-22.4009
G1 X3.3134 Y-22.4103
G1 X3.3039 Y-22.4203
G1 X3.2050 Y-22.5294
G1 X3.1960 Y-22.5398
G1 X3.1876 Y-22.5506
G1 X3.0999 Y-22.6688
G1 X3.0920 Y-22.6801
G1 X3.0846 Y-22.6917
G1 X3.0090 Y-22.8179
G1 X3.0022 Y-22.8299
G1 X2.9960 Y-22.8422
G1 X2.9331 Y-22.9752
G1 X2.9275 Y-22.9878
G1 X2.9225 Y-23.0006
G1 X2.8730 Y-23.1392
G1 X2.8686 Y-23.1523
G1 X2.8650 Y-23.1655
G1 X2.8292 Y-23.3083
G1 X2.8262 Y-23.3217
G1 X2.8239 Y-23.3353
G1 X2.8023 Y-23.4809
G1 X2.8006 Y-23.4945
G1 X2.7996 Y-23.5082
G1 X2.7923 Y-23.6552
G0 Z2.0000
G0 X2.9721 Y-23.6641
F800
G1 Z0.0000 F800
F500
G1 X2.9721 Y-23.6739
G1 X2.9797 Y-23.8258
G1 X3.0027 Y-23.9811
G1 X3.0409 Y-24.1334
G1 X3.0938 Y-24.2813
G1 X3.1609 Y-24.4232
G1 X3.2416 Y-24.5579
G1 X3.3352 Y-24.6840
G1 X3.4406 Y-24.8004
G1 X3.5570 Y-24.9058
G1 X3.6831 Y-24.9993
G1 X3.8178 Y-25.0801
G1 X3.9597 Y-25.1472
G1 X4.1075 Y-25.2001
G1 X4.2599 Y-25.2382
G1 X4.4152 Y-25.2613
G1 X4.5720 Y-25.2690
G1 X4.7288 Y-25.2613
G1 X4.8841 Y-25.2382
G1 X5.0365 Y-25.2001
G1 X5.1843 Y-25.1472
G1 X5.3262 Y-25.0801
G1 X5.4609 Y-24.9993
G1 X5.5870 Y-24.9058
G1 X5.7034 Y-24.8004
G1 X5.8088 Y-24.6840
G1 X5.9024 Y-24.5579
G1 X5.9831 Y-24.4232
G1 X6.0502 Y-24.2813
G1 X6.1031 Y-24.1334
G1 X6.1413 Y-23.9811
G1 X6.1643 Y-23.8258
G1 X6.1720 Y-23.6690
G1 X6.1643 Y-23.5122
G1 X6.1413 Y-23.3568
G1 X6.1031 Y-23.2045
G1 X6.0502 Y-23.0567
G1 X5.9831 Y-22.9147
G1 X5.9024 Y-22.7801
G1 X5.8088 Y-22.6540
G1 X5.7034 Y-22.5376
G1 X5.5870 Y-22.4322
G1 X5.4609 Y-22.3386
G1 X5.3262 Y-22.2579
G1 X5.1843 Y-22.1908
G1 X5.0365 Y-22.1379
G1 X4.8841 Y-22.0997
G1 X4.7288 Y-22.0767
G1 X4.5720 Y-22.0690
G1 X4.4152 Y-22.0767
G1 X4.2599 Y-22.0997
G1 X4.1075 Y-22.1379
G1 X3.9597 Y-22.1908
G1 X3.8178 Y-22.2579
G1 X3.6831 Y-22.3386
G1 X3.5570 Y-22.4322
G1 X3.4406 Y-22.5376
G1 X3.3352 Y-22.6540
G1 X3.2416 Y-22.7801
G1 X3.1609 Y-22.9147
G1 X3.0938 Y-23.0567
G1 X3.0409 Y-23.2045
G1 X3.0027 Y-23.3568
G1 X2.9797 Y-23.5122
G1 X2.9721 Y-23.6641
G0 Z2.0000
G0 X2.6126 Y-23.6464
F800
G1 Z0.0000 F800
F500
G1 X2.6120 Y-23.6690
G1 X2.6126 Y-23.6916
G1 X2.6198 Y-23.8386
G1 X2.6214 Y-23.8611
G1 X2.6242 Y-23.8835
G1 X2.6458 Y-24.0291
G1 X2.6497 Y-24.0514
G1 X2.6546 Y-24.0734
G1 X2.6904 Y-24.2162
G1 X2.6964 Y-24.2379
G1 X2.7035 Y-24.2594
G1 X2.7531 Y-24.3980
G1 X2.7612 Y-24.4190
G1 X2.7703 Y-24.4397
G1 X2.8333 Y-24.5728
G1 X2.8434 Y-24.5929
G1 X2.8546 Y-24.6126
G1 X2.9302 Y-24.7388
G1 X2.9423 Y-24.7579
G1 X2.9553 Y-24.7764
G1 X3.0430 Y-24.8946
G1 X3.0569 Y-24.9124
G1 X3.0716 Y-24.9295
G1 X3.1705 Y-25.0386
G1 X3.1861 Y-25.0549
G1 X3.2024 Y-25.0705
G1 X3.3115 Y-25.1693
G1 X3.3286 Y-25.1841
G1 X3.3464 Y-25.1980
G1 X3.4646 Y-25.2857
G1 X3.4831 Y-25.2987
G1 X3.5022 Y-25.3107
G1 X3.6284 Y-25.3864
G1 X3.6481 Y-25.3975
G1 X3.6682 Y-25.4077
G1 X3.8013 Y-25.4706
G1 X3.8219 Y-25.4798
G1 X3.8430 Y-25.4879
G1 X3.9816 Y-25.5375
G1 X4.0030 Y-25.5446
G1 X4.0248 Y-25.5506
G1 X4.1676 Y-25.5864
G1 X4.1896 Y-25.5913
G1 X4.2119 Y-25.5952
G1 X4.3575 Y-25.6168
G1 X4.3799 Y-25.6195
G1 X4.4024 Y-25.6212
G1 X4.5494 Y-25.6284
G1 X4.5720 Y-25.6290
G1 X4.5946 Y-25.6284
G1 X4.7416 Y-25.6212
G1 X4.7641 Y-25.6195
G1 X4.7865 Y-25.6168
G1 X4.9321 Y-25.5952
G1 X4.9544 Y-25.5913
G1 X4.9764 Y-25.5864
G1 X5.1192 Y-25.5506
G1 X5.1410 Y-25.5446
G1 X5.1624 Y-25.5375
G1 X5.3010 Y-25.4879
G1 X5.3221 Y-25.4798
G1 X5.3427 Y-25.4706
G1 X5.4758 Y-25.4077
G1 X5.4959 Y-25.3975
G1 X5.5156 Y-25.3864
G1 X5.6418 Y-25.3107
G1 X5.6609 Y-25.2987
G1 X5.6794 Y-25.2857
G1 X5.7976 Y-25.1980
G1 X5.8154 Y-25.1841
G1 X5.8325 Y-25.1693
G1 X5.9416 Y-25.0705
G1 X5.9579 Y-25.0549
G1 X5.9735 Y-25.0386
G1 X6.0724 Y-24.9295
G1 X6.0871 Y-24.9124
G1 X6.1010 Y-24.8946
G1 X6.1887 Y-24.7764
G1 X6.2017 Y-24.7579
G1 X6.2138 Y-24.7388
G1 X6.2894 Y-24.6126
G1 X6.3006 Y-24.5929
G1 X6.3107 Y-24.5728
G1 X6.3737 Y-24.4397
G1 X6.3828 Y-24.4190
G1 X6.3909 Y-24.3980
G1 X6.4405 Y-24.2594
G1 X6.4476 Y-24.2379
G1 X6.4536 Y-24.2162
G1 X6.4894 Y-24.0734
G1 X6.4943 Y-24.0514
G1 X6.4982 Y-24.0291
G1 X6.5198 Y-23.8835
G1 X6.5226 Y-23.8611
G1 X6.5242 Y-23.8386
G1 X6.5314 Y-23.6916
G1 X6.5320 Y-23.6690
G1 X6.5314 Y-23.6464
G1 X6.5242 Y-23.4994
G1 X6.5226 Y-23.4769
G1 X6.5198 Y-23.4545
G1 X6.4982 Y-23.3088
G1 X6.4943 Y-23.2866
G1 X6.4894 Y-23.2646
G1 X6.4536 Y-23.1218
G1 X6.4476 Y-23.1000
G1 X6.4405 Y-23.0786
G1 X6.3909 Y-22.9400
G1 X6.3828 Y-22.9189
G1 X6.3737 Y-22.8983
G1 X6.3107 Y-22.7652
G1 X6.3006 Y-22.7450
G1 X6.2894 Y-22.7254
G1 X6.2138 Y-22.5991
G1 X6.2017 Y-22.5801
G1 X6.1887 Y-22.5616
G1 X6.1010 Y-22.4434
G1 X6.0871 Y-22.4256
G1 X6.0724 Y-22.4085
G1 X5.9735 Y-22.2994
G1 X5.9579 Y-22.2831
G1 X5.9416 Y-22.2675
G1 X5.8325 Y-22.1686
G1 X5.8154 Y-22.1539
G1 X5.7976 Y-22.1400
G1 X5.6794 Y-22.0523
G1 X5.6609 Y-22.0393
G1 X5.6418 Y-22.0272
G1 X5.5156 Y-21.9515
G1 X5.4959 Y-21.9404
G1 X5.4758 Y-21.9303
G1 X5.3427 Y-21.8673
G1 X5.3221 Y-21.8582
G1 X5.3010 Y-21.8501
G1 X5.1624 Y-21.8005
G1 X5.1410 Y-21.7934
G1 X5.1192 Y-21.7874
G1 X4.9764 Y-21.7516
G1 X4.9544 Y-21.7466
G1 X4.9321 Y-21.7428
G1 X4.7865 Y-21.7212
G1 X4.7641 Y-21.7184
G1 X4.7416 Y-21.7168
G1 X4.5946 Y-21.7095
G1 X4.5720 Y-21.7090
G1 X4.5494 Y-21.7095
G1 X4.4024 Y-21.7168
G1 X4.3799 Y-21.7184
G1 X4.3575 Y-21.7212
G1 X4.2119 Y-21.7428
G1 X4.1896 Y-21.7466
G1 X4.1676 Y-21.7516
G1 X4.0248 Y-21.7874
G1 X4.0030 Y-21.7934
G1 X3.9816 Y-21.8005
G1 X3.8430 Y-21.8501
G1 X3.8219 Y-21.8582
G1 X3.8013 Y-21.8673
G1 X3.6682 Y-21.9303
G1 X3.6481 Y-21.9404
G1 X3.6284 Y-21.9515
G1 X3.5022 Y-22.0272
G1 X3.4831 Y-22.0393
G1 X3.4646 Y-22.0523
G1 X3.3464 Y-22.1400
G1 X3.3286 Y-22.1539
G1 X3.3115 Y-22.1686
G1 X3.2024 Y-22.2675
G1 X3.1861 Y-22.2831
G1 X3.1705 Y-22.2994
G1 X3.0716 Y-22.4085
G1 X3.0569 Y-22.4256
G1 X3.0430 Y-22.4434
G1 X2.9553 Y-22.5616
G1 X2.9423 Y-22.5801
G1 X2.9302 Y-22.5991
G1 X2.8546 Y-22.7254
G1 X2.8434 Y-22.7450
G1 X2.8333 Y-22.7652
G1 X2.7703 Y-22.8983
G1 X2.7612 Y-22.9189
G1 X2.7531 Y-22.9400
G1 X2.7035 Y-23.0786
G1 X2.6964 Y-23.1000
G1 X2.6904 Y-23.1218
G1 X2.6546 Y-23.2646
G1 X2.6497 Y-23.2866
G1 X2.6458 Y-23.3088
G1 X2.6242 Y-23.4545
G1 X2.6214 Y-23.4769
G1 X2.6198 Y-23.4994
G1 X2.6126 Y-23.6464
G0 Z2.0000
G0 X2.6126 Y-28.6464
F800
G1 Z0.0000 F800
F500
G1 X2.6120 Y-28.6690
G1 X2.6126 Y-28.6915
G1 X2.6198 Y-28.8386
G1 X2.6214 Y-28.8611
G1 X2.6242 Y-28.8835
G1 X2.6458 Y-29.0291
G1 X2.6497 Y-29.0513
G1 X2.6546 Y-29.0734
G1 X2.6904 Y-29.2162
G1 X2.6964 Y-29.2379
G1 X2.7035 Y-29.2594
G1 X2.7531 Y-29.3980
G1 X2.7612 Y-29.4190
G1 X2.7703 Y-29.4397
G1 X2.8333 Y-29.5727
G1 X2.8434 Y-29.5929
G1 X2.8546 Y-29.6126
G1 X2.9302 Y-29.7388
G1 X2.9423 Y-29.7579
G1 X2.9553 Y-29.7763
G1 X3.0430 Y-29.8946
G1 X3.0569 Y-29.9124
G1 X3.0716 Y-29.9295
G1 X3.1705 Y-30.0385
G1 X3.1861 Y-30.0549
G1 X3.2024 Y-30.0705
G1 X3.3115 Y-30.1693
G1 X3.3286 Y-30.1841
G1 X3.3464 Y-30.1980
G1 X3.4646 Y-30.2856
G1 X3.4831 Y-30.2987
G1 X3.5022 Y-30.3107
G1 X3.6284 Y-30.3864
G1 X3.6481 Y-30.3975
G1 X3.6682 Y-30.4077
G1 X3.8013 Y-30.4706
G1 X3.8219 Y-30.4798
G1 X3.8430 Y-30.4879
G1 X3.9816 Y-30.5375
G1 X4.0030 Y-30.5446
G1 X4.0248 Y-30.5506
G1 X4.1676 Y-30.5864
G1 X4.1896 Y-30.5913
G1 X4.2119 Y-30.5952
G1 X4.3575 Y-30.6168
G1 X4.3799 Y-30.6195
G1 X4.4024 Y-30.6212
G1 X4.5494 Y-30.6284
G1 X4.5720 Y-30.6290
G1 X4.5946 Y-30.6284
G1 X4.7416 Y-30.6212
G1 X4.7641 Y-30.6195
G1 X4.7865 Y-30.6168
G1 X4.9321 Y-30.5952
G1 X4.9544 Y-30.5913
G1 X4.9764 Y-30.5864
G1 X5.1192 Y-30.5506
G1 X5.1410 Y-30.5446
G1 X5.1624 Y-30.5375
G1 X5.3010 Y-30.4879
G1 X5.3221 Y-30.4798
G1 X5.3427 Y-30.4706
G1 X5.4758 Y-30.4077
G1 X5.4959 Y-30.3975
G1 X5.5156 Y-30.3864
G1 X5.6418 Y-30.3107
G1 X5.6609 Y-30.2987
G1 X5.6794 Y-30.2856
G1 X5.7976 Y-30.1980
G1 X5.8154 Y-30.1841
G1 X5.8325 Y-30.1693
G1 X5.9416 Y-30.0705
G1 X5.9579 Y-30.0549
G1 X5.9735 Y-30.0385
G1 X6.0724 Y-29.9295
G1 X6.0871 Y-29.9124
G1 X6.1010 Y-29.8946
G1 X6.1887 Y-29.7763
G1 X6.2017 Y-29.7579
G1 X6.2138 Y-29.7388
G1 X6.2894 Y-29.6126
G1 X6.3006 Y-29.5929
G1 X6.3107 Y-29.5727
G1 X6.3737 Y-29.4397
G1 X6.3828 Y-29.4190
G1 X6.3909 Y-29.3980
G1 X6.4405 Y-29.2594
G1 X6.4476 Y-29.2379
G1 X6.4536 Y-29.2162
G1 X6.4894 Y-29.0734
G1 X6.4943 Y-29.0513
G1 X6.4982 Y-29.0291
G1 X6.5198 Y-28.8835
G1 X6.5226 Y-28.8611
G1 X6.5242 Y-28.8386
G1 X6.5314 Y-28.6915
G1 X6.5320 Y-28.6690
G1 X6.5314 Y-28.6464
G1 X6.5242 Y-28.4994
G1 X6.5226 Y-28.4769
G1 X6.5198 Y-28.4544
G1 X6.4982 Y-28.3088
G1 X6.4943 Y-28.2866
G1 X6.4894 Y-28.2646
G1 X6.4536 Y-28.1218
G1 X6.4476 Y-28.1000
G1 X6.4405 Y-28.0786
G1 X6.3909 Y-27.9400
G1 X6.3828 Y-27.9189
G1 X6.3737 Y-27.8983
G1 X6.3107 Y-27.7652
G1 X6.3006 Y-27.7450
G1 X6.2894 Y-27.7254
G1 X6.2138 Y-27.5991
G1 X6.2017 Y-27.5801
G1 X6.1887 Y-27.5616
G1 X6.1010 Y-27.4434
G1 X6.0871 Y-27.4256
G1 X6.0724 Y-27.4085
G1 X5.9735 Y-27.2994
G1 X5.9579 Y-27.2830
G1 X5.9416 Y-27.2675
G1 X5.8325 Y-27.1686
G1 X5.8154 Y-27.1539
G1 X5.7976 Y-27.1400
G1 X5.6794 Y-27.0523
G1 X5.6609 Y-27.0393
G1 X5.6418 Y-27.0272
G1 X5.5156 Y-26.9515
G1 X5.4959 Y-26.9404
G1 X5.4758 Y-26.9303
G1 X5.3427 Y-26.8673
G1 X5.3221 Y-26.8582
G1 X5.3010 Y-26.8500
G1 X5.1624 Y-26.8004
G1 X5.1410 Y-26.7934
G1 X5.1192 Y-26.7873
G1 X4.9764 Y-26.7516
G1 X4.9544 Y-26.7466
G1 X4.9321 Y-26.7428
G1 X4.7865 Y-26.7212
G1 X4.7641 Y-26.7184
G1 X4.7416 Y-26.7167
G1 X4.5946 Y-26.7095
G1 X4.5720 Y-26.7090
G1 X4.5494 Y-26.7095
G1 X4.4024 Y-26.7167
G1 X4.3799 Y-26.7184
G1 X4.3575 Y-26.7212
G1 X4.2119 Y-26.7428
G1 X4.1896 Y-26.7466
G1 X4.1676 Y-26.7516
G1 X4.0248 Y-26.7873
G1 X4.0030 Y-26.7934
G1 X3.9816 Y-26.8004
G1 X3.8430 Y-26.8500
G1 X3.8219 Y-26.8582
G1 X3.8013 Y-26.8673
G1 X3.6682 Y-26.9303
G1 X3.6481 Y-26.9404
G1 X3.6284 Y-26.9515
G1 X3.5022 Y-27.0272
G1 X3.4831 Y-27.0393
G1 X3.4646 Y-27.0523
G1 X3.3464 Y-27.1400
G1 X3.3286 Y-27.1539
G1 X3.3115 Y-27.1686
G1 X3.2024 Y-27.2675
G1 X3.1861 Y-27.2830
G1 X3.1705 Y-27.2994
G1 X3.0716 Y-27.4085
G1 X3.0569 Y-27.4256
G1 X3.0430 Y-27.4434
G1 X2.9553 Y-27.5616
G1 X2.9423 Y-27.5801
G1 X2.9302 Y-27.5991
G1 X2.8546 Y-27.7254
G1 X2.8434 Y-27.7450
G1 X2.8333 Y-27.7652
G1 X2.7703 Y-27.8983
G1 X2.7612 Y-27.9189
G1 X2.7531 Y-27.9400
G1 X2.7035 Y-28.0786
G1 X2.6964 Y-28.1000
G1 X2.6904 Y-28.1218
G1 X2.6546 Y-28.2646
G1 X2.6497 Y-28.2866
G1 X2.6458 Y-28.3088
G1 X2.6242 Y-28.4544
G1 X2.6214 Y-28.4769
G1 X2.6198 Y-28.4994
G1 X2.6126 Y-28.6464
G0 Z2.0000
G0 X2.7923 Y-28.6552
F800
G1 Z0.0000 F800
F500
G1 X2.7920 Y-28.6690
G1 X2.7923 Y-28.6827
G1 X2.7996 Y-28.8297
G1 X2.8006 Y-28.8434
G1 X2.8023 Y-28.8571
G1 X2.8239 Y-29.0027
G1 X2.8262 Y-29.0162
G1 X2.8292 Y-29.0296
G1 X2.8650 Y-29.1724
G1 X2.8686 Y-29.1857
G1 X2.8730 Y-29.1987
G1 X2.9225 Y-29.3373
G1 X2.9275 Y-29.3501
G1 X2.9331 Y-29.3627
G1 X2.9960 Y-29.4958
G1 X3.0022 Y-29.5081
G1 X3.0090 Y-29.5200
G1 X3.0846 Y-29.6463
G1 X3.0920 Y-29.6579
G1 X3.0999 Y-29.6691
G1 X3.1876 Y-29.7874
G1 X3.1960 Y-29.7982
G1 X3.2050 Y-29.8086
G1 X3.3039 Y-29.9177
G1 X3.3134 Y-29.9276
G1 X3.3233 Y-29.9371
G1 X3.4324 Y-30.0360
G1 X3.4428 Y-30.0449
G1 X3.4536 Y-30.0534
G1 X3.5718 Y-30.1411
G1 X3.5831 Y-30.1490
G1 X3.5947 Y-30.1563
G1 X3.7210 Y-30.2320
G1 X3.7329 Y-30.2388
G1 X3.7452 Y-30.2450
G1 X3.8783 Y-30.3079
G1 X3.8908 Y-30.3135
G1 X3.9036 Y-30.3184
G1 X4.0422 Y-30.3680
G1 X4.0553 Y-30.3723
G1 X4.0685 Y-30.3760
G1 X4.2113 Y-30.4118
G1 X4.2247 Y-30.4148
G1 X4.2383 Y-30.4171
G1 X4.3839 Y-30.4387
G1 X4.3975 Y-30.4404
G1 X4.4112 Y-30.4414
G1 X4.5583 Y-30.4486
G1 X4.5720 Y-30.4490
G1 X4.5857 Y-30.4486
G1 X4.7328 Y-30.4414
G1 X4.7465 Y-30.4404
G1 X4.7601 Y-30.4387
G1 X4.9057 Y-30.4171
G1 X4.9193 Y-30.4148
G1 X4.9327 Y-30.4118
G1 X5.0755 Y-30.3760
G1 X5.0887 Y-30.3723
G1 X5.1018 Y-30.3680
G1 X5.2404 Y-30.3184
G1 X5.2532 Y-30.3135
G1 X5.2657 Y-30.3079
G1 X5.3988 Y-30.2450
G1 X5.4111 Y-30.2388
G1 X5.4230 Y-30.2320
G1 X5.5493 Y-30.1563
G1 X5.5609 Y-30.1490
G1 X5.5722 Y-30.1411
G1 X5.6904 Y-30.0534
G1 X5.7012 Y-30.0449
G1 X5.7116 Y-30.0360
G1 X5.8207 Y-29.9371
G1 X5.8306 Y-29.9276
G1 X5.8401 Y-29.9177
G1 X5.9390 Y-29.8086
G1 X5.9480 Y-29.7982
G1 X5.9564 Y-29.7874
G1 X6.0441 Y-29.6691
G1 X6.0520 Y-29.6579
G1 X6.0594 Y-29.6463
G1 X6.1350 Y-29.5200
G1 X6.1418 Y-29.5081
G1 X6.1480 Y-29.4958
G1 X6.2109 Y-29.3627
G1 X6.2165 Y-29.3501
G1 X6.2215 Y-29.3373
G1 X6.2710 Y-29.1987
G1 X6.2754 Y-29.1857
G1 X6.2790 Y-29.1724
G1 X6.3148 Y-29.0296
G1 X6.3178 Y-29.0162
G1 X6.3201 Y-29.0027
G1 X6.3417 Y-28.8571
G1 X6.3434 Y-28.8434
G1 X6.3444 Y-28.8297
G1 X6.3517 Y-28.6827
G1 X6.3520 Y-28.6690
G1 X6.3517 Y-28.6552
G1 X6.3444 Y-28.5082
G1 X6.3434 Y-28.4945
G1 X6.3417 Y-28.4809
G1 X6.3201 Y-28.3353
G1 X6.3178 Y-28.3217
G1 X6.3148 Y-28.3083
G1 X6.2790 Y-28.1655
G1 X6.2754 Y-28.1523
G1 X6.2710 Y-28.1392
G1 X6.2215 Y-28.0006
G1 X6.2165 Y-27.9878
G1 X6.2109 Y-27.9752
G1 X6.1480 Y-27.8422
G1 X6.1418 Y-27.8299
G1 X6.1350 Y-27.8179
G1 X6.0594 Y-27.6917
G1 X6.0520 Y-27.6801
G1 X6.0441 Y-27.6688
G1 X5.9564 Y-27.5506
G1 X5.9480 Y-27.5398
G1 X5.9390 Y-27.5293
G1 X5.8401 Y-27.4203
G1 X5.8306 Y-27.4103
G1 X5.8207 Y-27.4008
G1 X5.7116 Y-27.3020
G1 X5.7012 Y-27.2930
G1 X5.6904 Y-27.2846
G1 X5.5722 Y-27.1969
G1 X5.5609 Y-27.1890
G1 X5.5493 Y-27.1816
G1 X5.4230 Y-27.1059
G1 X5.4111 Y-27.0992
G1 X5.3988 Y-27.0930
G1 X5.2657 Y-27.0300
G1 X5.2532 Y-27.0245
G1 X5.2404 Y-27.0195
G1 X5.1018 Y-26.9699
G1 X5.0887 Y-26.9656
G1 X5.0755 Y-26.9620
G1 X4.9327 Y-26.9262
G1 X4.9193 Y-26.9232
G1 X4.9057 Y-26.9208
G1 X4.7601 Y-26.8992
G1 X4.7465 Y-26.8975
G1 X4.7328 Y-26.8965
G1 X4.5857 Y-26.8893
G1 X4.5720 Y-26.8890
G1 X4.5583 Y-26.8893
G1 X4.4112 Y-26.8965
G1 X4.3975 Y-26.8975
G1 X4.3839 Y-26.8992
G1 X4.2383 Y-26.9208
G1 X4.2247 Y-26.9232
G1 X4.2113 Y-26.9262
G1 X4.0685 Y-26.9620
G1 X4.0553 Y-26.9656
G1 X4.0422 Y-26.9699
G1 X3.9036 Y-27.0195
G1 X3.8908 Y-27.0245
G1 X3.8783 Y-27.0300
G1 X3.7452 Y-27.0930
G1 X3.7329 Y-27.0992
G1 X3.7210 Y-27.1059
G1 X3.5947 Y-27.1816
G1 X3.5831 Y-27.1890
G1 X3.5718 Y-27.1969
G1 X3.4536 Y-27.2846
G1 X3.4428 Y-27.2930
G1 X3.4324 Y-27.3020
G1 X3.3233 Y-27.4008
G1 X3.3134 Y-27.4103
G1 X3.3039 Y-27.4203
G1 X3.2050 Y-27.5293
G1 X3.1960 Y-27.5398
G1 X3.1876 Y-27.5506
G1 X3.0999 Y-27.6688
G1 X3.0920 Y-27.6801
G1 X3.0846 Y-27.6917
G1 X3.0090 Y-27.8179
G1 X3.0022 Y-27.8299
G1 X2.9960 Y-27.8422
G1 X2.9331 Y-27.9752
G1 X2.9275 Y-27.9878
G1 X2.9225 Y-28.0006
G1 X2.8730 Y-28.1392
G1 X2.8686 Y-28.1523
G1 X2.8650 Y-28.1655
G1 X2.8292 Y-28.3083
G1 X2.8262 Y-28.3217
G1 X2.8239 Y-28.3353
G1 X2.8023 Y-28.4809
G1 X2.8006 Y-28.4945
G1 X2.7996 Y-28.5082
G1 X2.7923 Y-28.6552
G0 Z2.0000
G0 X2.9721 Y-28.6641
F800
G1 Z0.0000 F800
F500
G1 X2.9721 Y-28.6739
G1 X2.9797 Y-28.8258
G1 X3.0027 Y-28.9811
G1 X3.0409 Y-29.1334
G1 X3.0938 Y-29.2813
G1 X3.1609 Y-29.4232
G1 X3.2416 Y-29.5579
G1 X3.3352 Y-29.6840
G1 X3.4406 Y-29.8003
G1 X3.5570 Y-29.9058
G1 X3.6831 Y-29.9993
G1 X3.8178 Y-30.0800
G1 X3.9597 Y-30.1472
G1 X4.1075 Y-30.2001
G1 X4.2599 Y-30.2382
G1 X4.4152 Y-30.2613
G1 X4.5720 Y-30.2690
G1 X4.7288 Y-30.2613
G1 X4.8841 Y-30.2382
G1 X5.0365 Y-30.2001
G1 X5.1843 Y-30.1472
G1 X5.3262 Y-30.0800
G1 X5.4609 Y-29.9993
G1 X5.5870 Y-29.9058
G1 X5.7034 Y-29.8003
G1 X5.8088 Y-29.6840
G1 X5.9024 Y-29.5579
G1 X5.9831 Y-29.4232
G1 X6.0502 Y-29.2813
G1 X6.1031 Y-29.1334
G1 X6.1413 Y-28.9811
G1 X6.1643 Y-28.8258
G1 X6.1720 Y-28.6690
G1 X6.1643 Y-28.5121
G1 X6.1413 Y-28.3568
G1 X6.1031 Y-28.2045
G1 X6.0502 Y-28.0567
G1 X5.9831 Y-27.9147
G1 X5.9024 Y-27.7801
G1 X5.8088 Y-27.6539
G1 X5.7034 Y-27.5376
G1 X5.5870 Y-27.4322
G1 X5.4609 Y-27.3386
G1 X5.3262 Y-27.2579
G1 X5.1843 Y-27.1908
G1 X5.0365 Y-27.1379
G1 X4.8841 Y-27.0997
G1 X4.7288 Y-27.0767
G1 X4.5720 Y-27.0690
G1 X4.4152 Y-27.0767
G1 X4.2599 Y-27.0997
G1 X4.1075 Y-27.1379
G1 X3.9597 Y-27.1908
G1 X3.8178 Y-27.2579
G1 X3.6831 Y-27.3386
G1 X3.5570 Y-27.4322
G1 X3.4406 Y-27.5376
G1 X3.3352 Y-27.6539
G1 X3.2416 Y-27.7801
G1 X3.1609 Y-27.9147
G1 X3.0938 Y-28.0567
G1 X3.0409 Y-28.2045
G1 X3.0027 Y-28.3568
G1 X2.9797 Y-28.5121
G1 X2.9721 Y-28.6641
G0 Z2.0000
G0 X2.7923 Y-33.6552
F800
G1 Z0.0000 F800
F500
G1 X2.7920 Y-33.6690
G1 X2.7923 Y-33.6827
G1 X2.7996 Y-33.8297
G1 X2.8006 Y-33.8434
G1 X2.8023 Y-33.8571
G1 X2.8239 Y-34.0027
G1 X2.8262 Y-34.0162
G1 X2.8292 Y-34.0296
G1 X2.8650 Y-34.1724
G1 X2.8686 Y-34.1857
G1 X2.8730 Y-34.1987
G1 X2.9225 Y-34.3373
G1 X2.9275 Y-34.3501
G1 X2.9331 Y-34.3627
G1 X2.9960 Y-34.4958
G1 X3.0022 Y-34.5080
G1 X3.0090 Y-34.5200
G1 X3.0846 Y-34.6463
G1 X3.0920 Y-34.6579
G1 X3.0999 Y-34.6691
G1 X3.1876 Y-34.7873
G1 X3.1960 Y-34.7982
G1 X3.2050 Y-34.8086
G1 X3.3039 Y-34.9177
G1 X3.3134 Y-34.9276
G1 X3.3233 Y-34.9371
G1 X3.4324 Y-35.0359
G1 X3.4428 Y-35.0449
G1 X3.4536 Y-35.0534
G1 X3.5718 Y-35.1411
G1 X3.5831 Y-35.1490
G1 X3.5947 Y-35.1563
G1 X3.7210 Y-35.2320
G1 X3.7329 Y-35.2388
G1 X3.7452 Y-35.2450
G1 X3.8783 Y-35.3079
G1 X3.8908 Y-35.3135
G1 X3.9036 Y-35.3184
G1 X4.0422 Y-35.3680
G1 X4.0553 Y-35.3723
G1 X4.0685 Y-35.3760
G1 X4.2113 Y-35.4117
G1 X4.2247 Y-35.4148
G1 X4.2383 Y-35.4171
G1 X4.3839 Y-35.4387
G1 X4.3975 Y-35.4404
G1 X4.4112 Y-35.4414
G1 X4.5583 Y-35.4486
G1 X4.5720 Y-35.4490
G1 X4.5857 Y-35.4486
G1 X4.7328 Y-35.4414
G1 X4.7465 Y-35.4404
G1 X4.7601 Y-35.4387
G1 X4.9057 Y-35.4171
G1 X4.9193 Y-35.4148
G1 X4.9327 Y-35.4117
G1 X5.0755 Y-35.3760
G1 X5.0887 Y-35.3723
G1 X5.1018 Y-35.3680
G1 X5.2404 Y-35.3184
G1 X5.2532 Y-35.3135
G1 X5.2657 Y-35.3079
G1 X5.3988 Y-35.2450
G1 X5.4111 Y-35.2388
G1 X5.4230 Y-35.2320
G1 X5.5493 Y-35.1563
G1 X5.5609 Y-35.1490
G1 X5.5722 Y-35.1411
G1 X5.6904 Y-35.0534
G1 X5.7012 Y-35.0449
G1 X5.7116 Y-35.0359
G1 X5.8207 Y-34.9371
G1 X5.8306 Y-34.9276
G1 X5.8401 Y-34.9177
G1 X5.9390 Y-34.8086
G1 X5.9480 Y-34.7982
G1 X5.9564 Y-34.7873
G1 X6.0441 Y-34.6691
G1 X6.0520 Y-34.6579
G1 X6.0594 Y-34.6463
G1 X6.1350 Y-34.5200
G1 X6.1418 Y-34.5080
G1 X6.1480 Y-34.4958
G1 X6.2109 Y-34.3627
G1 X6.2165 Y-34.3501
G1 X6.2215 Y-34.3373
G1 X6.2710 Y-34.1987
G1 X6.2754 Y-34.1857
G1 X6.2790 Y-34.1724
G1 X6.3148 Y-34.0296
G1 X6.3178 Y-34.0162
G1 X6.3201 Y-34.0027
G1 X6.3417 Y-33.8571
G1 X6.3434 Y-33.8434
G1 X6.3444 Y-33.8297
G1 X6.3517 Y-33.6827
G1 X6.3520 Y-33.6690
G1 X6.3517 Y-33.6552
G1 X6.3444 Y-33.5082
G1 X6.3434 Y-33.4945
G1 X6.3417 Y-33.4808
G1 X6.3201 Y-33.3352
G1 X6.3178 Y-33.3217
G1 X6.3148 Y-33.3083
G1 X6.2790 Y-33.1655
G1 X6.2754 Y-33.1523
G1 X6.2710 Y-33.1392
G1 X6.2215 Y-33.0006
G1 X6.2165 Y-32.9878
G1 X6.2109 Y-32.9752
G1 X6.1480 Y-32.8421
G1 X6.1418 Y-32.8299
G1 X6.1350 Y-32.8179
G1 X6.0594 Y-32.6917
G1 X6.0520 Y-32.6800
G1 X6.0441 Y-32.6688
G1 X5.9564 Y-32.5506
G1 X5.9480 Y-32.5397
G1 X5.9390 Y-32.5293
G1 X5.8401 Y-32.4203
G1 X5.8306 Y-32.4103
G1 X5.8207 Y-32.4008
G1 X5.7116 Y-32.3020
G1 X5.7012 Y-32.2930
G1 X5.6904 Y-32.2845
G1 X5.5722 Y-32.1969
G1 X5.5609 Y-32.1889
G1 X5.5493 Y-32.1816
G1 X5.4230 Y-32.1059
G1 X5.4111 Y-32.0991
G1 X5.3988 Y-32.0930
G1 X5.2657 Y-32.0300
G1 X5.2532 Y-32.0245
G1 X5.2404 Y-32.0195
G1 X5.1018 Y-31.9699
G1 X5.0887 Y-31.9656
G1 X5.0755 Y-31.9619
G1 X4.9327 Y-31.9262
G1 X4.9193 Y-31.9232
G1 X4.9057 Y-31.9208
G1 X4.7601 Y-31.8992
G1 X4.7465 Y-31.8975
G1 X4.7328 Y-31.8965
G1 X4.5857 Y-31.8893
G1 X4.5720 Y-31.8890
G1 X4.5583 Y-31.8893
G1 X4.4112 Y-31.8965
G1 X4.3975 Y-31.8975
G1 X4.3839 Y-31.8992
G1 X4.2383 Y-31.9208
G1 X4.2247 Y-31.9232
G1 X4.2113 Y-31.9262
G1 X4.0685 Y-31.9619
G1 X4.0553 Y-31.9656
G1 X4.0422 Y-31.9699
G1 X3.9036 Y-32.0195
G1 X3.8908 Y-32.0245
G1 X3.8783 Y-32.0300
G1 X3.7452 Y-32.0930
G1 X3.7329 Y-32.0991
G1 X3.7210 Y-32.1059
G1 X3.5947 Y-32.1816
G1 X3.5831 Y-32.1889
G1 X3.5718 Y-32.1969
G1 X3.4536 Y-32.2845
G1 X3.4428 Y-32.2930
G1 X3.4324 Y-32.3020
G1 X3.3233 Y-32.4008
G1 X3.3134 Y-32.4103
G1 X3.3039 Y-32.4203
G1 X3.2050 Y-32.5293
G1 X3.1960 Y-32.5397
G1 X3.1876 Y-32.5506
G1 X3.0999 Y-32.6688
G1 X3.0920 Y-32.6800
G1 X3.0846 Y-32.6917
G1 X3.0090 Y-32.8179
G1 X3.0022 Y-32.8299
G1 X2.9960 Y-32.8421
G1 X2.9331 Y-32.9752
G1 X2.9275 Y-32.9878
G1 X2.9225 Y-33.0006
G1 X2.8730 Y-33.1392
G1 X2.8686 Y-33.1523
G1 X2.8650 Y-33.1655
G1 X2.8292 Y-33.3083
G1 X2.8262 Y-33.3217
G1 X2.8239 Y-33.3352
G1 X2.8023 Y-33.4808
G1 X2.8006 Y-33.4945
G1 X2.7996 Y-33.5082
G1 X2.7923 Y-33.6552
G0 Z2.0000
G0 X2.9721 Y-33.6641
F800
G1 Z0.0000 F800
F500
G1 X2.9721 Y-33.6739
G1 X2.9797 Y-33.8258
G1 X3.0027 Y-33.9811
G1 X3.0409 Y-34.1334
G1 X3.0938 Y-34.2813
G1 X3.1609 Y-34.4232
G1 X3.2416 Y-34.5579
G1 X3.3352 Y-34.6840
G1 X3.4406 Y-34.8003
G1 X3.5570 Y-34.9058
G1 X3.6831 Y-34.9993
G1 X3.8178 Y-35.0800
G1 X3.9597 Y-35.1472
G1 X4.1075 Y-35.2001
G1 X4.2599 Y-35.2382
G1 X4.4152 Y-35.2613
G1 X4.5720 Y-35.2690
G1 X4.7288 Y-35.2613
G1 X4.8841 Y-35.2382
G1 X5.0365 Y-35.2001
G1 X5.1843 Y-35.1472
G1 X5.3262 Y-35.0800
G1 X5.4609 Y-34.9993
G1 X5.5870 Y-34.9058
G1 X5.7034 Y-34.8003
G1 X5.8088 Y-34.6840
G1 X5.9024 Y-34.5579
G1 X5.9831 Y-34.4232
G1 X6.0502 Y-34.2813
G1 X6.1031 Y-34.1334
G1 X6.1413 Y-33.9811
G1 X6.1643 Y-33.8258
G1 X6.1720 Y-33.6690
G1 X6.1643 Y-33.5121
G1 X6.1413 Y-33.3568
G1 X6.1031 Y-33.2045
G1 X6.0502 Y-33.0567
G1 X5.9831 Y-32.9147
G1 X5.9024 Y-32.7800
G1 X5.8088 Y-32.6539
G1 X5.7034 Y-32.5376
G1 X5.5870 Y-32.4321
G1 X5.4609 Y-32.3386
G1 X5.3262 Y-32.2579
G1 X5.1843 Y-32.1908
G1 X5.0365 Y-32.1379
G1 X4.8841 Y-32.0997
G1 X4.7288 Y-32.0767
G1 X4.5720 Y-32.0690
G1 X4.4152 Y-32.0767
G1 X4.2599 Y-32.0997
G1 X4.1075 Y-32.1379
G1 X3.9597 Y-32.1908
G1 X3.8178 Y-32.2579
G1 X3.6831 Y-32.3386
G1 X3.5570 Y-32.4321
G1 X3.4406 Y-32.5376
G1 X3.3352 Y-32.6539
G1 X3.2416 Y-32.7800
G1 X3.1609 Y-32.9147
G1 X3.0938 Y-33.0567
G1 X3.0409 Y-33.2045
G1 X3.0027 Y-33.3568
G1 X2.9797 Y-33.5121
G1 X2.9721 Y-33.6641
G0 Z2.0000
G0 X2.6126 Y-33.6464
F800
G1 Z0.0000 F800
F500
G1 X2.6120 Y-33.6690
G1 X2.6126 Y-33.6915
G1 X2.6198 Y-33.8386
G1 X2.6214 Y-33.8611
G1 X2.6242 Y-33.8835
G1 X2.6458 Y-34.0291
G1 X2.6497 Y-34.0513
G1 X2.6546 Y-34.0734
G1 X2.6904 Y-34.2162
G1 X2.6964 Y-34.2379
G1 X2.7035 Y-34.2594
G1 X2.7531 Y-34.3980
G1 X2.7612 Y-34.4190
G1 X2.7703 Y-34.4397
G1 X2.8333 Y-34.5727
G1 X2.8434 Y-34.5929
G1 X2.8546 Y-34.6125
G1 X2.9302 Y-34.7388
G1 X2.9423 Y-34.7579
G1 X2.9553 Y-34.7763
G1 X3.0430 Y-34.8946
G1 X3.0569 Y-34.9124
G1 X3.0716 Y-34.9295
G1 X3.1705 Y-35.0385
G1 X3.1861 Y-35.0549
G1 X3.2024 Y-35.0705
G1 X3.3115 Y-35.1693
G1 X3.3286 Y-35.1841
G1 X3.3464 Y-35.1980
G1 X3.4646 Y-35.2856
G1 X3.4831 Y-35.2986
G1 X3.5022 Y-35.3107
G1 X3.6284 Y-35.3864
G1 X3.6481 Y-35.3975
G1 X3.6682 Y-35.4077
G1 X3.8013 Y-35.4706
G1 X3.8219 Y-35.4798
G1 X3.8430 Y-35.4879
G1 X3.9816 Y-35.5375
G1 X4.0030 Y-35.5446
G1 X4.0248 Y-35.5506
G1 X4.1676 Y-35.5864
G1 X4.1896 Y-35.5913
G1 X4.2119 Y-35.5952
G1 X4.3575 Y-35.6168
G1 X4.3799 Y-35.6195
G1 X4.4024 Y-35.6212
G1 X4.5494 Y-35.6284
G1 X4.5720 Y-35.6290
G1 X4.5946 Y-35.6284
G1 X4.7416 Y-35.6212
G1 X4.7641 Y-35.6195
G1 X4.7865 Y-35.6168
G1 X4.9321 Y-35.5952
G1 X4.9544 Y-35.5913
G1 X4.9764 Y-35.5864
G1 X5.1192 Y-35.5506
G1 X5.1410 Y-35.5446
G1 X5.1624 Y-35.5375
G1 X5.3010 Y-35.4879
G1 X5.3221 Y-35.4798
G1 X5.3427 Y-35.4706
G1 X5.4758 Y-35.4077
G1 X5.4959 Y-35.3975
G1 X5.5156 Y-35.3864
G1 X5.6418 Y-35.3107
G1 X5.6609 Y-35.2986
G1 X5.6794 Y-35.2856
G1 X5.7976 Y-35.1980
G1 X5.8154 Y-35.1841
G1 X5.8325 Y-35.1693
G1 X5.9416 Y-35.0705
G1 X5.9579 Y-35.0549
G1 X5.9735 Y-35.0385
G1 X6.0724 Y-34.9295
G1 X6.0871 Y-34.9124
G1 X6.1010 Y-34.8946
G1 X6.1887 Y-34.7763
G1 X6.2017 Y-34.7579
G1 X6.2138 Y-34.7388
G1 X6.2894 Y-34.6125
G1 X6.3006 Y-34.5929
G1 X6.3107 Y-34.5727
G1 X6.3737 Y-34.4397
G1 X6.3828 Y-34.4190
G1 X6.3909 Y-34.3980
G1 X6.4405 Y-34.2594
G1 X6.4476 Y-34.2379
G1 X6.4536 Y-34.2162
G1 X6.4894 Y-34.0734
G1 X6.4943 Y-34.0513
G1 X6.4982 Y-34.0291
G1 X6.5198 Y-33.8835
G1 X6.5226 Y-33.8611
G1 X6.5242 Y-33.8386
G1 X6.5314 Y-33.6915
G1 X6.5320 Y-33.6690
G1 X6.5314 Y-33.6464
G1 X6.5242 Y-33.4994
G1 X6.5226 Y-33.4768
G1 X6.5198 Y-33.4544
G1 X6.4982 Y-33.3088
G1 X6.4943 Y-33.2866
G1 X6.4894 Y-33.2646
G1 X6.4536 Y-33.1218
G1 X6.4476 Y-33.1000
G1 X6.4405 Y-33.0786
G1 X6.3909 Y-32.9400
G1 X6.3828 Y-32.9189
G1 X6.3737 Y-32.8983
G1 X6.3107 Y-32.7652
G1 X6.3006 Y-32.7450
G1 X6.2894 Y-32.7254
G1 X6.2138 Y-32.5991
G1 X6.2017 Y-32.5800
G1 X6.1887 Y-32.5616
G1 X6.1010 Y-32.4433
G1 X6.0871 Y-32.4255
G1 X6.0724 Y-32.4085
G1 X5.9735 Y-32.2994
G1 X5.9579 Y-32.2830
G1 X5.9416 Y-32.2675
G1 X5.8325 Y-32.1686
G1 X5.8154 Y-32.1539
G1 X5.7976 Y-32.1400
G1 X5.6794 Y-32.0523
G1 X5.6609 Y-32.0393
G1 X5.6418 Y-32.0272
G1 X5.5156 Y-31.9515
G1 X5.4959 Y-31.9404
G1 X5.4758 Y-31.9302
G1 X5.3427 Y-31.8673
G1 X5.3221 Y-31.8582
G1 X5.3010 Y-31.8500
G1 X5.1624 Y-31.8004
G1 X5.1410 Y-31.7934
G1 X5.1192 Y-31.7873
G1 X4.9764 Y-31.7516
G1 X4.9544 Y-31.7466
G1 X4.9321 Y-31.7428
G1 X4.7865 Y-31.7212
G1 X4.7641 Y-31.7184
G1 X4.7416 Y-31.7167
G1 X4.5946 Y-31.7095
G1 X4.5720 Y-31.7090
G1 X4.5494 Y-31.7095
G1 X4.4024 Y-31.7167
G1 X4.3799 Y-31.7184
G1 X4.3575 Y-31.7212
G1 X4.2119 Y-31.7428
G1 X4.1896 Y-31.7466
G1 X4.1676 Y-31.7516
G1 X4.0248 Y-31.7873
G1 X4.0030 Y-31.7934
G1 X3.9816 Y-31.8004
G1 X3.8430 Y-31.8500
G1 X3.8219 Y-31.8582
G1 X3.8013 Y-31.8673
G1 X3.6682 Y-31.9302
G1 X3.6481 Y-31.9404
G1 X3.6284 Y-31.9515
G1 X3.5022 Y-32.0272
G1 X3.4831 Y-32.0393
G1 X3.4646 Y-32.0523
G1 X3.3464 Y-32.1400
G1 X3.3286 Y-32.1539
G1 X3.3115 Y-32.1686
G1 X3.2024 Y-32.2675
G1 X3.1861 Y-32.2830
G1 X3.1705 Y-32.2994
G1 X3.0716 Y-32.4085
G1 X3.0569 Y-32.4255
G1 X3.0430 Y-32.4433
G1 X2.9553 Y-32.5616
G1 X2.9423 Y-32.5800
G1 X2.9302 Y-32.5991
G1 X2.8546 Y-32.7254
G1 X2.8434 Y-32.7450
G1 X2.8333 Y-32.7652
G1 X2.7703 Y-32.8983
G1 X2.7612 Y-32.9189
G1 X2.7531 Y-32.9400
G1 X2.7035 Y-33.0786
G1 X2.6964 Y-33.1000
G1 X2.6904 Y-33.1218
G1 X2.6546 Y-33.2646
G1 X2.6497 Y-33.2866
G1 X2.6458 Y-33.3088
G1 X2.6242 Y-33.4544
G1 X2.6214 Y-33.4768
G1 X2.6198 Y-33.4994
G1 X2.6126 Y-33.6464
G0 Z2.0000
G0 X2.8712 Y-37.0935
F800
G1 Z0.0000 F800
F500
G1 X2.9175 Y-37.0429
G1 X2.9459 Y-37.0144
G1 X3.0848 Y-36.8885
G1 X3.1159 Y-36.8630
G1 X3.1319 Y-36.8508
G1 X3.2665 Y-36.7513
G1 X3.2831 Y-36.7399
G1 X3.3171 Y-36.7184
G1 X3.4433 Y-36.6427
G1 X3.4784 Y-36.6229
G1 X3.5143 Y-36.6048
G1 X3.6657 Y-36.5335
G1 X3.7029 Y-36.5181
G1 X3.7217 Y-36.5111
G1 X3.8603 Y-36.4615
G1 X3.8985 Y-36.4488
G1 X3.9373 Y-36.4381
G1 X4.0997 Y-36.3977
G1 X4.1392 Y-36.3898
G1 X4.1590 Y-36.3866
G1 X4.3047 Y-36.3650
G1 X4.3446 Y-36.3601
G1 X4.3847 Y-36.3572
G1 X4.5318 Y-36.3499
G1 X4.5519 Y-36.3492
G1 X4.5921 Y-36.3492
G1 X4.7793 Y-36.3584
G1 X4.7994 Y-36.3601
G1 X4.8393 Y-36.3650
G1 X5.0048 Y-36.3898
G1 X5.0246 Y-36.3935
G1 X5.0639 Y-36.4023
G1 X5.2067 Y-36.4381
G1 X5.2455 Y-36.4488
G1 X5.2837 Y-36.4615
G1 X5.4411 Y-36.5181
G1 X5.4598 Y-36.5255
G1 X5.4966 Y-36.5419
G1 X5.6297 Y-36.6048
G1 X5.6656 Y-36.6229
G1 X5.7007 Y-36.6427
G1 X5.8441 Y-36.7290
G1 X5.8609 Y-36.7399
G1 X5.8938 Y-36.7631
G1 X6.0281 Y-36.8630
G1 X6.0592 Y-36.8885
G1 X6.1189 Y-36.9423
G1 X6.1189 Y-35.3956
G1 X6.0592 Y-35.4494
G1 X6.0281 Y-35.4749
G1 X5.8938 Y-35.5748
G1 X5.8775 Y-35.5866
G1 X5.8441 Y-35.6089
G1 X5.7007 Y-35.6952
G1 X5.6656 Y-35.7150
G1 X5.6297 Y-35.7331
G1 X5.4966 Y-35.7961
G1 X5.4598 Y-35.8124
G1 X5.4411 Y-35.8198
G1 X5.2837 Y-35.8764
G1 X5.2455 Y-35.8891
G1 X5.2067 Y-35.8998
G1 X5.0639 Y-35.9356
G1 X5.0246 Y-35.9444
G1 X5.0048 Y-35.9481
G1 X4.8393 Y-35.9729
G1 X4.8194 Y-35.9756
G1 X4.7793 Y-35.9795
G1 X4.5921 Y-35.9887
G1 X4.5519 Y-35.9887
G1 X4.5318 Y-35.9880
G1 X4.3847 Y-35.9807
G1 X4.3446 Y-35.9778
G1 X4.3047 Y-35.9729
G1 X4.1590 Y-35.9513
G1 X4.1392 Y-35.9481
G1 X4.0997 Y-35.9402
G1 X3.9373 Y-35.8998
G1 X3.8985 Y-35.8891
G1 X3.8603 Y-35.8764
G1 X3.7217 Y-35.8268
G1 X3.6842 Y-35.8124
G1 X3.6657 Y-35.8044
G1 X3.5143 Y-35.7331
G1 X3.4784 Y-35.7150
G1 X3.4433 Y-35.6952
G1 X3.3171 Y-35.6195
G1 X3.2831 Y-35.5980
G1 X3.2665 Y-35.5866
G1 X3.1319 Y-35.4871
G1 X3.1002 Y-35.4623
G1 X3.0848 Y-35.4494
G1 X2.9459 Y-35.3235
G1 X2.9175 Y-35.2950
G1 X2.8712 Y-35.2444
G1 X2.8712 Y-37.0935
G0 Z2.0000
G0 X2.6912 Y-37.6483
F800
G1 Z0.0000 F800
F500
G1 X2.7002 Y-37.6328
G1 X2.7841 Y-37.4932
G1 X2.7927 Y-37.4800
G1 X2.8107 Y-37.4543
G1 X2.8984 Y-37.3361
G1 X2.9178 Y-37.3113
G1 X2.9383 Y-37.2876
G1 X3.0371 Y-37.1785
G1 X3.0588 Y-37.1557
G1 X3.0815 Y-37.1341
G1 X3.1906 Y-37.0352
G1 X3.2144 Y-37.0147
G1 X3.2392 Y-36.9954
G1 X3.3574 Y-36.9077
G1 X3.3831 Y-36.8896
G1 X3.4096 Y-36.8728
G1 X3.5359 Y-36.7971
G1 X3.5632 Y-36.7816
G1 X3.5913 Y-36.7675
G1 X3.7243 Y-36.7046
G1 X3.7531 Y-36.6918
G1 X3.7824 Y-36.6805
G1 X3.9210 Y-36.6310
G1 X3.9508 Y-36.6211
G1 X3.9811 Y-36.6127
G1 X4.1239 Y-36.5770
G1 X4.1545 Y-36.5701
G1 X4.1855 Y-36.5647
G1 X4.3311 Y-36.5431
G1 X4.3622 Y-36.5393
G1 X4.3779 Y-36.5379
G1 X4.5563 Y-36.5291
G1 X4.5720 Y-36.5290
G1 X4.6034 Y-36.5297
G1 X4.7504 Y-36.5369
G1 X4.7818 Y-36.5393
G1 X4.8129 Y-36.5431
G1 X4.9585 Y-36.5647
G1 X4.9895 Y-36.5701
G1 X5.0201 Y-36.5770
G1 X5.1629 Y-36.6127
G1 X5.1932 Y-36.6211
G1 X5.2230 Y-36.6310
G1 X5.3616 Y-36.6805
G1 X5.3909 Y-36.6918
G1 X5.4054 Y-36.6980
G1 X5.5668 Y-36.7744
G1 X5.5808 Y-36.7816
G1 X5.6081 Y-36.7971
G1 X5.7344 Y-36.8728
G1 X5.7609 Y-36.8896
G1 X5.7866 Y-36.9077
G1 X5.9173 Y-37.0049
G1 X5.9296 Y-37.0147
G1 X5.9534 Y-37.0352
G1 X6.0625 Y-37.1341
G1 X6.0852 Y-37.1557
G1 X6.0962 Y-37.1670
G1 X6.2057 Y-37.2876
G1 X6.2262 Y-37.3113
G1 X6.2456 Y-37.3361
G1 X6.2989 Y-37.4080
G1 X6.2989 Y-35.0520
G1 X6.2996 Y-35.0206
G1 X6.3020 Y-34.9755
G1 X6.3051 Y-34.9442
G1 X6.3091 Y-34.9162
G1 X6.2456 Y-35.0018
G1 X6.2262 Y-35.0266
G1 X6.2057 Y-35.0503
G1 X6.0962 Y-35.1709
G1 X6.0740 Y-35.1931
G1 X6.0625 Y-35.2038
G1 X5.9534 Y-35.3027
G1 X5.9296 Y-35.3232
G1 X5.9048 Y-35.3425
G1 X5.7866 Y-35.4302
G1 X5.7609 Y-35.4483
G1 X5.7344 Y-35.4651
G1 X5.6081 Y-35.5408
G1 X5.5808 Y-35.5563
G1 X5.5527 Y-35.5704
G1 X5.4054 Y-35.6399
G1 X5.3764 Y-35.6519
G1 X5.3616 Y-35.6574
G1 X5.2230 Y-35.7070
G1 X5.1932 Y-35.7168
G1 X5.1629 Y-35.7252
G1 X5.0201 Y-35.7610
G1 X4.9895 Y-35.7678
G1 X4.9585 Y-35.7732
G1 X4.8129 Y-35.7948
G1 X4.7818 Y-35.7987
G1 X4.7504 Y-35.8010
G1 X4.6034 Y-35.8082
G1 X4.5720 Y-35.8090
G1 X4.5563 Y-35.8088
G1 X4.3779 Y-35.8000
G1 X4.3622 Y-35.7987
G1 X4.3311 Y-35.7948
G1 X4.1855 Y-35.7732
G1 X4.1545 Y-35.7678
G1 X4.1239 Y-35.7610
G1 X3.9811 Y-35.7252
G1 X3.9508 Y-35.7168
G1 X3.9210 Y-35.7070
G1 X3.7824 Y-35.6574
G1 X3.7531 Y-35.6461
G1 X3.7243 Y-35.6333
G1 X3.5913 Y-35.5704
G1 X3.5632 Y-35.5563
G1 X3.5359 Y-35.5408
G1 X3.4096 Y-35.4651
G1 X3.3831 Y-35.4483
G1 X3.3574 Y-35.4302
G1 X3.2392 Y-35.3425
G1 X3.2144 Y-35.3232
G1 X3.1906 Y-35.3027
G1 X3.0815 Y-35.2038
G1 X3.0588 Y-35.1822
G1 X3.0371 Y-35.1594
G1 X2.9383 Y-35.0503
G1 X2.9178 Y-35.0266
G1 X2.8984 Y-35.0018
G1 X2.8107 Y-34.8836
G1 X2.8015 Y-34.8708
G1 X2.7841 Y-34.8447
G1 X2.7002 Y-34.7051
G1 X2.6912 Y-34.6896
G1 X2.6912 Y-37.6483
G0 Z2.0000
G0 X2.7923 Y-38.6552
F800
G1 Z0.0000 F800
F500
G1 X2.7920 Y-38.6689
G1 X2.7923 Y-38.6827
G1 X2.7996 Y-38.8297
G1 X2.8006 Y-38.8434
G1 X2.8023 Y-38.8571
G1 X2.8239 Y-39.0027
G1 X2.8262 Y-39.0162
G1 X2.8292 Y-39.0296
G1 X2.8650 Y-39.1724
G1 X2.8686 Y-39.1857
G1 X2.8730 Y-39.1987
G1 X2.9225 Y-39.3373
G1 X2.9275 Y-39.3501
G1 X2.9331 Y-39.3627
G1 X2.9960 Y-39.4958
G1 X3.0022 Y-39.5080
G1 X3.0090 Y-39.5200
G1 X3.0846 Y-39.6463
G1 X3.0920 Y-39.6579
G1 X3.0999 Y-39.6691
G1 X3.1876 Y-39.7873
G1 X3.1960 Y-39.7982
G1 X3.2050 Y-39.8086
G1 X3.3039 Y-39.9176
G1 X3.3134 Y-39.9276
G1 X3.3233 Y-39.9371
G1 X3.4324 Y-40.0359
G1 X3.4428 Y-40.0449
G1 X3.4536 Y-40.0534
G1 X3.5718 Y-40.1411
G1 X3.5831 Y-40.1490
G1 X3.5947 Y-40.1563
G1 X3.7210 Y-40.2320
G1 X3.7329 Y-40.2388
G1 X3.7452 Y-40.2449
G1 X3.8783 Y-40.3079
G1 X3.8908 Y-40.3135
G1 X3.9036 Y-40.3184
G1 X4.0422 Y-40.3680
G1 X4.0553 Y-40.3723
G1 X4.0685 Y-40.3760
G1 X4.2113 Y-40.4117
G1 X4.2247 Y-40.4147
G1 X4.2383 Y-40.4171
G1 X4.3839 Y-40.4387
G1 X4.3975 Y-40.4404
G1 X4.4112 Y-40.4414
G1 X4.5583 Y-40.4486
G1 X4.5720 Y-40.4489
G1 X4.5857 Y-40.4486
G1 X4.7328 Y-40.4414
G1 X4.7465 Y-40.4404
G1 X4.7601 Y-40.4387
G1 X4.9057 Y-40.4171
G1 X4.9193 Y-40.4147
G1 X4.9327 Y-40.4117
G1 X5.0755 Y-40.3760
G1 X5.0887 Y-40.3723
G1 X5.1018 Y-40.3680
G1 X5.2404 Y-40.3184
G1 X5.2532 Y-40.3135
G1 X5.2657 Y-40.3079
G1 X5.3988 Y-40.2449
G1 X5.4111 Y-40.2388
G1 X5.4230 Y-40.2320
G1 X5.5493 Y-40.1563
G1 X5.5609 Y-40.1490
G1 X5.5722 Y-40.1411
G1 X5.6904 Y-40.0534
G1 X5.7012 Y-40.0449
G1 X5.7116 Y-40.0359
G1 X5.8207 Y-39.9371
G1 X5.8306 Y-39.9276
G1 X5.8401 Y-39.9176
G1 X5.9390 Y-39.8086
G1 X5.9480 Y-39.7982
G1 X5.9564 Y-39.7873
G1 X6.0441 Y-39.6691
G1 X6.0520 Y-39.6579
G1 X6.0594 Y-39.6463
G1 X6.1350 Y-39.5200
G1 X6.1418 Y-39.5080
G1 X6.1480 Y-39.4958
G1 X6.2109 Y-39.3627
G1 X6.2165 Y-39.3501
G1 X6.2215 Y-39.3373
G1 X6.2710 Y-39.1987
G1 X6.2754 Y-39.1857
G1 X6.2790 Y-39.1724
G1 X6.3148 Y-39.0296
G1 X6.3178 Y-39.0162
G1 X6.3201 Y-39.0027
G1 X6.3417 Y-38.8571
G1 X6.3434 Y-38.8434
G1 X6.3444 Y-38.8297
G1 X6.3517 Y-38.6827
G1 X6.3520 Y-38.6690
G1 X6.3517 Y-38.6552
G1 X6.3444 Y-38.5082
G1 X6.3434 Y-38.4945
G1 X6.3417 Y-38.4808
G1 X6.3201 Y-38.3352
G1 X6.3178 Y-38.3217
G1 X6.3148 Y-38.3083
G1 X6.2790 Y-38.1655
G1 X6.2754 Y-38.1522
G1 X6.2710 Y-38.1392
G1 X6.2215 Y-38.0006
G1 X6.2165 Y-37.9878
G1 X6.2109 Y-37.9752
G1 X6.1480 Y-37.8421
G1 X6.1418 Y-37.8299
G1 X6.1350 Y-37.8179
G1 X6.0594 Y-37.6916
G1 X6.0520 Y-37.6800
G1 X6.0441 Y-37.6688
G1 X5.9564 Y-37.5506
G1 X5.9480 Y-37.5397
G1 X5.9390 Y-37.5293
G1 X5.8401 Y-37.4203
G1 X5.8306 Y-37.4103
G1 X5.8207 Y-37.4008
G1 X5.7116 Y-37.3020
G1 X5.7012 Y-37.2930
G1 X5.6904 Y-37.2845
G1 X5.5722 Y-37.1968
G1 X5.5609 Y-37.1889
G1 X5.5493 Y-37.1816
G1 X5.4230 Y-37.1059
G1 X5.4111 Y-37.0991
G1 X5.3988 Y-37.0930
G1 X5.2657 Y-37.0300
G1 X5.2532 Y-37.0244
G1 X5.2404 Y-37.0195
G1 X5.1018 Y-36.9699
G1 X5.0887 Y-36.9656
G1 X5.0755 Y-36.9619
G1 X4.9327 Y-36.9262
G1 X4.9193 Y-36.9232
G1 X4.9057 Y-36.9208
G1 X4.7601 Y-36.8992
G1 X4.7465 Y-36.8975
G1 X4.7328 Y-36.8965
G1 X4.5857 Y-36.8893
G1 X4.5720 Y-36.8890
G1 X4.5583 Y-36.8893
G1 X4.4112 Y-36.8965
G1 X4.3975 Y-36.8975
G1 X4.3839 Y-36.8992
G1 X4.2383 Y-36.9208
G1 X4.2247 Y-36.9232
G1 X4.2113 Y-36.9262
G1 X4.0685 Y-36.9619
G1 X4.0553 Y-36.9656
G1 X4.0422 Y-36.9699
G1 X3.9036 Y-37.0195
G1 X3.8908 Y-37.0244
G1 X3.8783 Y-37.0300
G1 X3.7452 Y-37.0930
G1 X3.7329 Y-37.0991
G1 X3.7210 Y-37.1059
G1 X3.5947 Y-37.1816
G1 X3.5831 Y-37.1889
G1 X3.5718 Y-37.1968
G1 X3.4536 Y-37.2845
G1 X3.4428 Y-37.2930
G1 X3.4324 Y-37.3020
G1 X3.3233 Y-37.4008
G1 X3.3134 Y-37.4103
G1 X3.3039 Y-37.4203
G1 X3.2050 Y-37.5293
G1 X3.1960 Y-37.5397
G1 X3.1876 Y-37.5506
G1 X3.0999 Y-37.6688
G1 X3.0920 Y-37.6800
G1 X3.0846 Y-37.6916
G1 X3.0090 Y-37.8179
G1 X3.0022 Y-37.8299
G1 X2.9960 Y-37.8421
G1 X2.9331 Y-37.9752
G1 X2.9275 Y-37.9878
G1 X2.9225 Y-38.0006
G1 X2.8730 Y-38.1392
G1 X2.8686 Y-38.1522
G1 X2.8650 Y-38.1655
G1 X2.8292 Y-38.3083
G1 X2.8262 Y-38.3217
G1 X2.8239 Y-38.3352
G1 X2.8023 Y-38.4808
G1 X2.8006 Y-38.4945
G1 X2.7996 Y-38.5082
G1 X2.7923 Y-38.6552
G0 Z2.0000
G0 X2.9721 Y-38.6640
F800
G1 Z0.0000 F800
F500
G1 X2.9721 Y-38.6739
G1 X2.9797 Y-38.8258
G1 X3.0027 Y-38.9811
G1 X3.0409 Y-39.1334
G1 X3.0938 Y-39.2812
G1 X3.1609 Y-39.4232
G1 X3.2416 Y-39.5579
G1 X3.3352 Y-39.6840
G1 X3.4406 Y-39.8003
G1 X3.5570 Y-39.9058
G1 X3.6831 Y-39.9993
G1 X3.8178 Y-40.0800
G1 X3.9597 Y-40.1472
G1 X4.1075 Y-40.2001
G1 X4.2599 Y-40.2382
G1 X4.4152 Y-40.2612
G1 X4.5720 Y-40.2689
G1 X4.7288 Y-40.2612
G1 X4.8841 Y-40.2382
G1 X5.0365 Y-40.2001
G1 X5.1843 Y-40.1472
G1 X5.3262 Y-40.0800
G1 X5.4609 Y-39.9993
G1 X5.5870 Y-39.9058
G1 X5.7034 Y-39.8003
G1 X5.8088 Y-39.6840
G1 X5.9024 Y-39.5579
G1 X5.9831 Y-39.4232
G1 X6.0502 Y-39.2812
G1 X6.1031 Y-39.1334
G1 X6.1413 Y-38.9811
G1 X6.1643 Y-38.8258
G1 X6.1720 Y-38.6690
G1 X6.1643 Y-38.5121
G1 X6.1413 Y-38.3568
G1 X6.1031 Y-38.2045
G1 X6.0502 Y-38.0567
G1 X5.9831 Y-37.9147
G1 X5.9024 Y-37.7800
G1 X5.8088 Y-37.6539
G1 X5.7034 Y-37.5376
G1 X5.5870 Y-37.4321
G1 X5.4609 Y-37.3386
G1 X5.3262 Y-37.2579
G1 X5.1843 Y-37.1907
G1 X5.0365 Y-37.1378
G1 X4.8841 Y-37.0997
G1 X4.7288 Y-37.0767
G1 X4.5720 Y-37.0690
G1 X4.4152 Y-37.0767
G1 X4.2599 Y-37.0997
G1 X4.1075 Y-37.1378
G1 X3.9597 Y-37.1907
G1 X3.8178 Y-37.2579
G1 X3.6831 Y-37.3386
G1 X3.5570 Y-37.4321
G1 X3.4406 Y-37.5376
G1 X3.3352 Y-37.6539
G1 X3.2416 Y-37.7800
G1 X3.1609 Y-37.9147
G1 X3.0938 Y-38.0567
G1 X3.0409 Y-38.2045
G1 X3.0027 Y-38.3568
G1 X2.9797 Y-38.5121
G1 X2.9721 Y-38.6640
G0 Z2.0000
G0 X2.8712 Y-42.0935
F800
G1 Z0.0000 F800
F500
G1 X2.9175 Y-42.0429
G1 X2.9459 Y-42.0144
G1 X3.0848 Y-41.8885
G1 X3.1159 Y-41.8630
G1 X3.1319 Y-41.8508
G1 X3.2665 Y-41.7513
G1 X3.2831 Y-41.7399
G1 X3.3171 Y-41.7184
G1 X3.4433 Y-41.6427
G1 X3.4784 Y-41.6229
G1 X3.5143 Y-41.6048
G1 X3.6657 Y-41.5335
G1 X3.7029 Y-41.5181
G1 X3.7217 Y-41.5111
G1 X3.8603 Y-41.4615
G1 X3.8985 Y-41.4488
G1 X3.9373 Y-41.4381
G1 X4.0997 Y-41.3977
G1 X4.1392 Y-41.3898
G1 X4.1590 Y-41.3866
G1 X4.3047 Y-41.3650
G1 X4.3446 Y-41.3601
G1 X4.3847 Y-41.3572
G1 X4.5318 Y-41.3499
G1 X4.5519 Y-41.3492
G1 X4.5921 Y-41.3492
G1 X4.7793 Y-41.3584
G1 X4.7994 Y-41.3601
G1 X4.8393 Y-41.3650
G1 X5.0048 Y-41.3898
G1 X5.0246 Y-41.3935
G1 X5.0639 Y-41.4023
G1 X5.2067 Y-41.4381
G1 X5.2455 Y-41.4488
G1 X5.2837 Y-41.4615
G1 X5.4411 Y-41.5181
G1 X5.4598 Y-41.5255
G1 X5.4966 Y-41.5419
G1 X5.6297 Y-41.6048
G1 X5.6656 Y-41.6229
G1 X5.7007 Y-41.6427
G1 X5.8441 Y-41.7290
G1 X5.8609 Y-41.7399
G1 X5.8938 Y-41.7631
G1 X6.0281 Y-41.8630
G1 X6.0592 Y-41.8885
G1 X6.1189 Y-41.9423
G1 X6.1189 Y-40.3956
G1 X6.0592 Y-40.4494
G1 X6.0281 Y-40.4749
G1 X5.8938 Y-40.5748
G1 X5.8775 Y-40.5866
G1 X5.8441 Y-40.6089
G1 X5.7007 Y-40.6952
G1 X5.6656 Y-40.7150
G1 X5.6297 Y-40.7331
G1 X5.4966 Y-40.7960
G1 X5.4598 Y-40.8124
G1 X5.4411 Y-40.8198
G1 X5.2837 Y-40.8764
G1 X5.2455 Y-40.8891
G1 X5.2067 Y-40.8998
G1 X5.0639 Y-40.9356
G1 X5.0246 Y-40.9444
G1 X5.0048 Y-40.9481
G1 X4.8393 Y-40.9729
G1 X4.8194 Y-40.9756
G1 X4.7793 Y-40.9795
G1 X4.5921 Y-40.9887
G1 X4.5519 Y-40.9887
G1 X4.5318 Y-40.9880
G1 X4.3847 Y-40.9807
G1 X4.3446 Y-40.9778
G1 X4.3047 Y-40.9729
G1 X4.1590 Y-40.9513
G1 X4.1392 Y-40.9481
G1 X4.0997 Y-40.9402
G1 X3.9373 Y-40.8998
G1 X3.8985 Y-40.8891
G1 X3.8603 Y-40.8764
G1 X3.7217 Y-40.8268
G1 X3.6842 Y-40.8124
G1 X3.6657 Y-40.8044
G1 X3.5143 Y-40.7331
G1 X3.4784 Y-40.7150
G1 X3.4433 Y-40.6952
G1 X3.3171 Y-40.6195
G1 X3.2831 Y-40.5980
G1 X3.2665 Y-40.5866
G1 X3.1319 Y-40.4871
G1 X3.1002 Y-40.4623
G1 X3.0848 Y-40.4494
G1 X2.9459 Y-40.3235
G1 X2.9175 Y-40.2950
G1 X2.8712 Y-40.2444
G1 X2.8712 Y-42.0935
G0 Z2.0000
G0 X2.6912 Y-42.6483
F800
G1 Z0.0000 F800
F500
G1 X2.7002 Y-42.6328
G1 X2.7841 Y-42.4932
G1 X2.7927 Y-42.4800
G1 X2.8107 Y-42.4543
G1 X2.8984 Y-42.3361
G1 X2.9178 Y-42.3113
G1 X2.9383 Y-42.2876
G1 X3.0371 Y-42.1785
G1 X3.0588 Y-42.1557
G1 X3.0815 Y-42.1341
G1 X3.1906 Y-42.0352
G1 X3.2144 Y-42.0147
G1 X3.2392 Y-41.9954
G1 X3.3574 Y-41.9077
G1 X3.3831 Y-41.8896
G1 X3.4096 Y-41.8728
G1 X3.5359 Y-41.7971
G1 X3.5632 Y-41.7816
G1 X3.5913 Y-41.7675
G1 X3.7243 Y-41.7046
G1 X3.7531 Y-41.6918
G1 X3.7824 Y-41.6805
G1 X3.9210 Y-41.6310
G1 X3.9508 Y-41.6211
G1 X3.9811 Y-41.6127
G1 X4.1239 Y-41.5770
G1 X4.1545 Y-41.5701
G1 X4.1855 Y-41.5647
G1 X4.3311 Y-41.5431
G1 X4.3622 Y-41.5393
G1 X4.3779 Y-41.5379
G1 X4.5563 Y-41.5291
G1 X4.5720 Y-41.5290
G1 X4.6034 Y-41.5297
G1 X4.7504 Y-41.5369
G1 X4.7818 Y-41.5393
G1 X4.8129 Y-41.5431
G1 X4.9585 Y-41.5647
G1 X4.9895 Y-41.5701
G1 X5.0201 Y-41.5770
G1 X5.1629 Y-41.6127
G1 X5.1932 Y-41.6211
G1 X5.2230 Y-41.6310
G1 X5.3616 Y-41.6805
G1 X5.3909 Y-41.6918
G1 X5.4054 Y-41.6980
G1 X5.5668 Y-41.7744
G1 X5.5808 Y-41.7816
G1 X5.6081 Y-41.7971
G1 X5.7344 Y-41.8728
G1 X5.7609 Y-41.8896
G1 X5.7866 Y-41.9077
G1 X5.9173 Y-42.0049
G1 X5.9296 Y-42.0147
G1 X5.9534 Y-42.0352
G1 X6.0625 Y-42.1341
G1 X6.0852 Y-42.1557
G1 X6.0962 Y-42.1670
G1 X6.2057 Y-42.2876
G1 X6.2262 Y-42.3113
G1 X6.2456 Y-42.3361
G1 X6.2989 Y-42.4080
G1 X6.2989 Y-39.9299
G1 X6.2456 Y-40.0018
G1 X6.2262 Y-40.0266
G1 X6.2057 Y-40.0503
G1 X6.0962 Y-40.1709
G1 X6.0740 Y-40.1931
G1 X6.0625 Y-40.2038
G1 X5.9534 Y-40.3027
G1 X5.9416 Y-40.3131
G1 X5.9173 Y-40.3330
G1 X5.7739 Y-40.4394
G1 X5.7478 Y-40.4569
G1 X5.7344 Y-40.4651
G1 X5.6081 Y-40.5408
G1 X5.5808 Y-40.5563
G1 X5.5527 Y-40.5704
G1 X5.4054 Y-40.6399
G1 X5.3764 Y-40.6519
G1 X5.3616 Y-40.6574
G1 X5.2230 Y-40.7069
G1 X5.1932 Y-40.7168
G1 X5.1629 Y-40.7252
G1 X5.0201 Y-40.7609
G1 X4.9895 Y-40.7678
G1 X4.9585 Y-40.7732
G1 X4.8129 Y-40.7948
G1 X4.7818 Y-40.7986
G1 X4.7504 Y-40.8010
G1 X4.6034 Y-40.8082
G1 X4.5720 Y-40.8089
G1 X4.5563 Y-40.8088
G1 X4.3779 Y-40.8000
G1 X4.3622 Y-40.7986
G1 X4.3311 Y-40.7948
G1 X4.1855 Y-40.7732
G1 X4.1545 Y-40.7678
G1 X4.1239 Y-40.7609
G1 X3.9811 Y-40.7252
G1 X3.9508 Y-40.7168
G1 X3.9210 Y-40.7069
G1 X3.7824 Y-40.6574
G1 X3.7531 Y-40.6461
G1 X3.7243 Y-40.6333
G1 X3.5913 Y-40.5704
G1 X3.5632 Y-40.5563
G1 X3.5359 Y-40.5408
G1 X3.4096 Y-40.4651
G1 X3.3831 Y-40.4483
G1 X3.3574 Y-40.4302
G1 X3.2392 Y-40.3425
G1 X3.2144 Y-40.3232
G1 X3.1906 Y-40.3027
G1 X3.0815 Y-40.2038
G1 X3.0588 Y-40.1822
G1 X3.0371 Y-40.1594
G1 X2.9383 Y-40.0503
G1 X2.9178 Y-40.0266
G1 X2.8984 Y-40.0018
G1 X2.8107 Y-39.8836
G1 X2.8015 Y-39.8708
G1 X2.7841 Y-39.8447
G1 X2.7002 Y-39.7051
G1 X2.6912 Y-39.6896
G1 X2.6912 Y-42.6483
G0 Z2.0000
G0 X2.6126 Y-43.6464
F800
G1 Z0.0000 F800
F500
G1 X2.6120 Y-43.6689
G1 X2.6126 Y-43.6915
G1 X2.6198 Y-43.8385
G1 X2.6214 Y-43.8611
G1 X2.6242 Y-43.8835
G1 X2.6458 Y-44.0291
G1 X2.6497 Y-44.0513
G1 X2.6546 Y-44.0734
G1 X2.6904 Y-44.2161
G1 X2.6964 Y-44.2379
G1 X2.7035 Y-44.2593
G1 X2.7531 Y-44.3979
G1 X2.7612 Y-44.4190
G1 X2.7703 Y-44.4397
G1 X2.8333 Y-44.5727
G1 X2.8434 Y-44.5929
G1 X2.8546 Y-44.6125
G1 X2.9302 Y-44.7388
G1 X2.9423 Y-44.7579
G1 X2.9553 Y-44.7763
G1 X3.0430 Y-44.8946
G1 X3.0569 Y-44.9124
G1 X3.0716 Y-44.9295
G1 X3.1705 Y-45.0385
G1 X3.1861 Y-45.0549
G1 X3.2024 Y-45.0704
G1 X3.3115 Y-45.1693
G1 X3.3286 Y-45.1841
G1 X3.3464 Y-45.1979
G1 X3.4646 Y-45.2856
G1 X3.4831 Y-45.2986
G1 X3.5022 Y-45.3107
G1 X3.6284 Y-45.3864
G1 X3.6481 Y-45.3975
G1 X3.6682 Y-45.4077
G1 X3.8013 Y-45.4706
G1 X3.8219 Y-45.4798
G1 X3.8430 Y-45.4879
G1 X3.9816 Y-45.5375
G1 X4.0030 Y-45.5446
G1 X4.0248 Y-45.5506
G1 X4.1676 Y-45.5863
G1 X4.1896 Y-45.5913
G1 X4.2119 Y-45.5951
G1 X4.3687 Y-45.6183
G1 X4.3911 Y-45.6205
G1 X4.4024 Y-45.6212
G1 X4.5494 Y-45.6284
G1 X4.5720 Y-45.6289
G1 X4.5946 Y-45.6284
G1 X4.7416 Y-45.6212
G1 X4.7641 Y-45.6195
G1 X4.7865 Y-45.6167
G1 X4.9321 Y-45.5951
G1 X4.9544 Y-45.5913
G1 X4.9764 Y-45.5863
G1 X5.1192 Y-45.5506
G1 X5.1410 Y-45.5446
G1 X5.1624 Y-45.5375
G1 X5.3010 Y-45.4879
G1 X5.3221 Y-45.4798
G1 X5.3427 Y-45.4706
G1 X5.4758 Y-45.4077
G1 X5.4959 Y-45.3975
G1 X5.5156 Y-45.3864
G1 X5.6418 Y-45.3107
G1 X5.6609 Y-45.2986
G1 X5.6702 Y-45.2922
G1 X5.7976 Y-45.1979
G1 X5.8154 Y-45.1841
G1 X5.8325 Y-45.1693
G1 X5.9416 Y-45.0704
G1 X5.9579 Y-45.0549
G1 X5.9735 Y-45.0385
G1 X6.0724 Y-44.9295
G1 X6.0871 Y-44.9124
G1 X6.1010 Y-44.8946
G1 X6.1953 Y-44.7672
G1 X6.2017 Y-44.7579
G1 X6.2138 Y-44.7388
G1 X6.2894 Y-44.6125
G1 X6.3006 Y-44.5929
G1 X6.3107 Y-44.5727
G1 X6.3784 Y-44.4294
G1 X6.3870 Y-44.4085
G1 X6.3909 Y-44.3979
G1 X6.4442 Y-44.2487
G1 X6.4476 Y-44.2379
G1 X6.4536 Y-44.2161
G1 X6.4789 Y-44.1154
G1 X6.4789 Y-45.6871
G1 X5.3119 Y-46.8541
G1 X5.1624 Y-46.8004
G1 X5.1410 Y-46.7933
G1 X5.1192 Y-46.7873
G1 X4.9764 Y-46.7515
G1 X4.9544 Y-46.7466
G1 X4.9321 Y-46.7427
G1 X4.7865 Y-46.7211
G1 X4.7641 Y-46.7184
G1 X4.7416 Y-46.7167
G1 X4.5946 Y-46.7095
G1 X4.5720 Y-46.7089
G1 X4.5494 Y-46.7095
G1 X4.4024 Y-46.7167
G1 X4.3799 Y-46.7184
G1 X4.3575 Y-46.7211
G1 X4.2119 Y-46.7427
G1 X4.1896 Y-46.7466
G1 X4.1676 Y-46.7515
G1 X4.0248 Y-46.7873
G1 X4.0030 Y-46.7933
G1 X3.9816 Y-46.8004
G1 X3.8430 Y-46.8500
G1 X3.8219 Y-46.8581
G1 X3.8013 Y-46.8673
G1 X3.6682 Y-46.9302
G1 X3.6481 Y-46.9404
G1 X3.6284 Y-46.9515
G1 X3.5022 Y-47.0272
G1 X3.4831 Y-47.0393
G1 X3.4646 Y-47.0523
G1 X3.3464 Y-47.1399
G1 X3.3286 Y-47.1538
G1 X3.3115 Y-47.1686
G1 X3.2024 Y-47.2674
G1 X3.1861 Y-47.2830
G1 X3.1705 Y-47.2994
G1 X3.0716 Y-47.4084
G1 X3.0569 Y-47.4255
G1 X3.0430 Y-47.4433
G1 X2.9553 Y-47.5616
G1 X2.9423 Y-47.5800
G1 X2.9302 Y-47.5991
G1 X2.8546 Y-47.7254
G1 X2.8434 Y-47.7450
G1 X2.8333 Y-47.7652
G1 X2.7703 Y-47.8982
G1 X2.7612 Y-47.9189
G1 X2.7531 Y-47.9399
G1 X2.7035 Y-48.0785
G1 X2.6964 Y-48.1000
G1 X2.6904 Y-48.1217
G1 X2.6546 Y-48.2645
G1 X2.6520 Y-48.2755
G1 X2.6476 Y-48.2977
G1 X2.6242 Y-48.4544
G1 X2.6214 Y-48.4768
G1 X2.6198 Y-48.4993
G1 X2.6126 Y-48.6464
G1 X2.6120 Y-48.6689
G1 X2.6126 Y-48.6915
G1 X2.6198 Y-48.8385
G1 X2.6214 Y-48.8611
G1 X2.6242 Y-48.8835
G1 X2.6458 Y-49.0291
G1 X2.6497 Y-49.0513
G1 X2.6546 Y-49.0733
G1 X2.6904 Y-49.2161
G1 X2.6964 Y-49.2379
G1 X2.7035 Y-49.2593
G1 X2.7531 Y-49.3979
G1 X2.7612 Y-49.4190
G1 X2.7703 Y-49.4396
G1 X2.8333 Y-49.5727
G1 X2.8434 Y-49.5929
G1 X2.8546 Y-49.6125
G1 X2.9302 Y-49.7388
G1 X2.9423 Y-49.7579
G1 X2.9553 Y-49.7763
G1 X3.0430 Y-49.8946
G1 X3.0569 Y-49.9124
G1 X3.0716 Y-49.9294
G1 X3.1705 Y-50.0385
G1 X3.1861 Y-50.0549
G1 X3.2024 Y-50.0704
G1 X3.3115 Y-50.1693
G1 X3.3286 Y-50.1840
G1 X3.3464 Y-50.1979
G1 X3.4646 Y-50.2856
G1 X3.4831 Y-50.2986
G1 X3.5022 Y-50.3107
G1 X3.6284 Y-50.3864
G1 X3.6481 Y-50.3975
G1 X3.6682 Y-50.4077
G1 X3.8013 Y-50.4706
G1 X3.8219 Y-50.4797
G1 X3.8430 Y-50.4879
G1 X3.9816 Y-50.5375
G1 X4.0030 Y-50.5445
G1 X4.0248 Y-50.5506
G1 X4.1676 Y-50.5863
G1 X4.1896 Y-50.5913
G1 X4.2119 Y-50.5951
G1 X4.3575 Y-50.6167
G1 X4.3799 Y-50.6195
G1 X4.4024 Y-50.6212
G1 X4.5494 Y-50.6284
G1 X4.5720 Y-50.6289
G1 X4.5946 Y-50.6284
G1 X4.7416 Y-50.6212
G1 X4.7641 Y-50.6195
G1 X4.7865 Y-50.6167
G1 X4.9321 Y-50.5951
G1 X4.9544 Y-50.5913
G1 X4.9764 Y-50.5863
G1 X5.1192 Y-50.5506
G1 X5.1410 Y-50.5445
G1 X5.1624 Y-50.5375
G1 X5.3116 Y-50.4839
G1 X5.3221 Y-50.4797
G1 X5.3427 Y-50.4706
G1 X5.4758 Y-50.4077
G1 X5.4959 Y-50.3975
G1 X5.5156 Y-50.3864
G1 X5.6418 Y-50.3107
G1 X5.6609 Y-50.2986
G1 X5.6794 Y-50.2856
G1 X5.7976 Y-50.1979
G1 X5.8154 Y-50.1840
G1 X5.8325 Y-50.1693
G1 X5.9416 Y-50.0704
G1 X5.9579 Y-50.0549
G1 X5.9735 Y-50.0385
G1 X6.0724 Y-49.9294
G1 X6.0871 Y-49.9124
G1 X6.1010 Y-49.8946
G1 X6.1887 Y-49.7763
G1 X6.2017 Y-49.7579
G1 X6.2138 Y-49.7388
G1 X6.2894 Y-49.6125
G1 X6.3006 Y-49.5929
G1 X6.3107 Y-49.5727
G1 X6.3737 Y-49.4396
G1 X6.3828 Y-49.4190
G1 X6.3909 Y-49.3979
G1 X6.4405 Y-49.2593
G1 X6.4476 Y-49.2379
G1 X6.4536 Y-49.2161
G1 X6.4894 Y-49.0733
G1 X6.4943 Y-49.0513
G1 X6.4982 Y-49.0291
G1 X6.5198 Y-48.8835
G1 X6.5226 Y-48.8611
G1 X6.5242 Y-48.8385
G1 X6.5314 Y-48.6915
G1 X6.5320 Y-48.6689
G1 X6.5314 Y-48.6464
G1 X6.5242 Y-48.4993
G1 X6.5226 Y-48.4768
G1 X6.5198 Y-48.4544
G1 X6.4982 Y-48.3088
G1 X6.4943 Y-48.2866
G1 X6.4894 Y-48.2645
G1 X6.4536 Y-48.1217
G1 X6.4476 Y-48.1000
G1 X6.4405 Y-48.0785
G1 X6.3869 Y-47.9291
G1 X7.7765 Y-46.5394
G1 X7.7921 Y-46.5231
G1 X7.8119 Y-46.5013
G1 X7.8266 Y-46.4842
G1 X7.8405 Y-46.4664
G1 X7.8647 Y-46.4336
G1 X7.8710 Y-46.4243
G1 X7.8831 Y-46.4052
G1 X7.8983 Y-46.3799
G1 X7.9094 Y-46.3603
G1 X7.9195 Y-46.3401
G1 X7.9321 Y-46.3135
G1 X7.9368 Y-46.3032
G1 X7.9455 Y-46.2824
G1 X7.9593 Y-46.2440
G1 X7.9664 Y-46.2226
G1 X7.9724 Y-46.2008
G1 X7.9796 Y-46.1723
G1 X7.9822 Y-46.1613
G1 X7.9866 Y-46.1391
G1 X7.9942 Y-46.0877
G1 X7.9965 Y-46.0652
G1 X7.9972 Y-46.0539
G1 X7.9986 Y-46.0245
G1 X7.9991 Y-46.0019
G1 X7.9991 Y-39.4407
G1 X8.0193 Y-39.4627
G1 X8.0353 Y-39.4787
G1 X8.1203 Y-39.5558
G1 X8.1378 Y-39.5701
G1 X8.1468 Y-39.5770
G1 X8.2209 Y-39.6319
G1 X8.2300 Y-39.6385
G1 X8.2488 Y-39.6510
G1 X8.3375 Y-39.7044
G1 X8.3571 Y-39.7155
G1 X8.3773 Y-39.7257
G1 X8.4607 Y-39.7651
G1 X8.4813 Y-39.7742
G1 X8.5024 Y-39.7824
G1 X8.5892 Y-39.8134
G1 X8.6107 Y-39.8205
G1 X8.6324 Y-39.8265
G1 X8.7219 Y-39.8490
G1 X8.7439 Y-39.8539
G1 X8.7662 Y-39.8578
G1 X8.8574 Y-39.8713
G1 X8.8798 Y-39.8741
G1 X8.9023 Y-39.8757
G1 X8.9944 Y-39.8802
G1 X9.0170 Y-39.8808
G1 X9.0396 Y-39.8802
G1 X9.1317 Y-39.8757
G1 X9.1542 Y-39.8741
G1 X9.1766 Y-39.8713
G1 X9.2678 Y-39.8578
G1 X9.2901 Y-39.8539
G1 X9.3121 Y-39.8490
G1 X9.4016 Y-39.8265
G1 X9.4233 Y-39.8205
G1 X9.4448 Y-39.8134
G1 X9.5316 Y-39.7824
G1 X9.5527 Y-39.7742
G1 X9.5733 Y-39.7651
G1 X9.6567 Y-39.7257
G1 X9.6769 Y-39.7155
G1 X9.6965 Y-39.7044
G1 X9.7756 Y-39.6570
G1 X9.7947 Y-39.6449
G1 X9.8131 Y-39.6319
G1 X9.8872 Y-39.5770
G1 X9.9050 Y-39.5631
G1 X9.9221 Y-39.5483
G1 X9.9905 Y-39.4864
G1 X10.0068 Y-39.4708
G1 X10.0224 Y-39.4545
G1 X10.0843 Y-39.3861
G1 X10.0991 Y-39.3690
G1 X10.1130 Y-39.3512
G1 X10.1679 Y-39.2771
G1 X10.1809 Y-39.2587
G1 X10.1930 Y-39.2396
G1 X10.2404 Y-39.1605
G1 X10.2515 Y-39.1409
G1 X10.2617 Y-39.1207
G1 X10.3011 Y-39.0373
G1 X10.3102 Y-39.0167
G1 X10.3184 Y-38.9956
G1 X10.3494 Y-38.9088
G1 X10.3531 Y-38.8981
G1 X10.3597 Y-38.8765
G1 X10.3850 Y-38.7761
G1 X10.3899 Y-38.7541
G1 X10.3938 Y-38.7318
G1 X10.4073 Y-38.6406
G1 X10.4101 Y-38.6182
G1 X10.4117 Y-38.5957
G1 X10.4162 Y-38.5036
G1 X10.4168 Y-38.4810
G1 X10.4162 Y-38.4584
G1 X10.4117 Y-38.3663
G1 X10.4101 Y-38.3438
G1 X10.4073 Y-38.3214
G1 X10.3920 Y-38.2190
G1 X10.3876 Y-38.1969
G1 X10.3850 Y-38.1859
G1 X10.3625 Y-38.0964
G1 X10.3565 Y-38.0747
G1 X10.3494 Y-38.0532
G1 X10.3184 Y-37.9664
G1 X10.3102 Y-37.9453
G1 X10.3011 Y-37.9247
G1 X10.2617 Y-37.8413
G1 X10.2515 Y-37.8211
G1 X10.2404 Y-37.8015
G1 X10.1930 Y-37.7224
G1 X10.1870 Y-37.7128
G1 X10.1745 Y-37.6940
G1 X10.1130 Y-37.6108
G1 X10.0991 Y-37.5930
G1 X10.0843 Y-37.5759
G1 X10.0224 Y-37.5075
G1 X10.0068 Y-37.4912
G1 X9.9905 Y-37.4756
G1 X9.9221 Y-37.4137
G1 X9.9050 Y-37.3989
G1 X9.8872 Y-37.3850
G1 X9.8131 Y-37.3301
G1 X9.7947 Y-37.3171
G1 X9.7756 Y-37.3050
G1 X9.6868 Y-37.2519
G1 X9.6769 Y-37.2465
G1 X9.6567 Y-37.2363
G1 X9.5733 Y-37.1969
G1 X9.5527 Y-37.1878
G1 X9.5316 Y-37.1796
G1 X9.4448 Y-37.1486
G1 X9.4233 Y-37.1415
G1 X9.4016 Y-37.1355
G1 X9.3011 Y-37.1104
G1 X9.2901 Y-37.1081
G1 X9.2678 Y-37.1042
G1 X9.1766 Y-37.0907
G1 X9.1542 Y-37.0879
G1 X9.1317 Y-37.0863
G1 X9.0396 Y-37.0818
G1 X9.0170 Y-37.0812
G1 X8.9944 Y-37.0818
G1 X8.9023 Y-37.0863
G1 X8.8798 Y-37.0879
G1 X8.8574 Y-37.0907
G1 X8.7662 Y-37.1042
G1 X8.7439 Y-37.1081
G1 X8.7329 Y-37.1104
G1 X8.6324 Y-37.1355
G1 X8.6107 Y-37.1415
G1 X8.5892 Y-37.1486
G1 X8.5024 Y-37.1796
G1 X8.4813 Y-37.1878
G1 X8.4607 Y-37.1969
G1 X8.3773 Y-37.2363
G1 X8.3571 Y-37.2465
G1 X8.3375 Y-37.2576
G1 X8.2584 Y-37.3050
G1 X8.2393 Y-37.3171
G1 X8.2209 Y-37.3301
G1 X8.1378 Y-37.3919
G1 X8.1203 Y-37.4062
G1 X8.1119 Y-37.4137
G1 X8.0353 Y-37.4833
G1 X8.0193 Y-37.4993
G1 X7.9991 Y-37.5213
G1 X7.9991 Y-35.8563
G1 X8.0480 Y-35.9222
G1 X8.0619 Y-35.9400
G1 X8.0767 Y-35.9571
G1 X8.1386 Y-36.0255
G1 X8.1542 Y-36.0418
G1 X8.1705 Y-36.0574
G1 X8.2389 Y-36.1193
G1 X8.2560 Y-36.1341
G1 X8.2738 Y-36.1480
G1 X8.3479 Y-36.2029
G1 X8.3663 Y-36.2159
G1 X8.3854 Y-36.2280
G1 X8.4645 Y-36.2754
G1 X8.4841 Y-36.2865
G1 X8.5043 Y-36.2967
G1 X8.5877 Y-36.3361
G1 X8.6083 Y-36.3452
G1 X8.6294 Y-36.3534
G1 X8.7162 Y-36.3844
G1 X8.7377 Y-36.3915
G1 X8.7594 Y-36.3975
G1 X8.8489 Y-36.4200
G1 X8.8709 Y-36.4249
G1 X8.8820 Y-36.4270
G1 X8.9956 Y-36.4438
G1 X9.0068 Y-36.4451
G1 X9.0293 Y-36.4467
G1 X9.1214 Y-36.4512
G1 X9.1440 Y-36.4518
G1 X9.1666 Y-36.4512
G1 X9.2587 Y-36.4467
G1 X9.2812 Y-36.4451
G1 X9.3036 Y-36.4423
G1 X9.3948 Y-36.4288
G1 X9.4171 Y-36.4249
G1 X9.4391 Y-36.4200
G1 X9.5286 Y-36.3975
G1 X9.5395 Y-36.3947
G1 X9.5611 Y-36.3881
G1 X9.6692 Y-36.3494
G1 X9.6797 Y-36.3452
G1 X9.7003 Y-36.3361
G1 X9.7837 Y-36.2967
G1 X9.8039 Y-36.2865
G1 X9.8235 Y-36.2754
G1 X9.9122 Y-36.2220
G1 X9.9217 Y-36.2159
G1 X9.9401 Y-36.2029
G1 X10.0142 Y-36.1480
G1 X10.0320 Y-36.1341
G1 X10.0491 Y-36.1193
G1 X10.1175 Y-36.0574
G1 X10.1338 Y-36.0418
G1 X10.1494 Y-36.0255
G1 X10.2113 Y-35.9571
G1 X10.2261 Y-35.9400
G1 X10.2400 Y-35.9222
G1 X10.2949 Y-35.8481
G1 X10.3015 Y-35.8390
G1 X10.3140 Y-35.8202
G1 X10.3731 Y-35.7218
G1 X10.3837 Y-35.7018
G1 X10.3887 Y-35.6917
G1 X10.4281 Y-35.6083
G1 X10.4372 Y-35.5877
G1 X10.4454 Y-35.5666
G1 X10.4764 Y-35.4798
G1 X10.4801 Y-35.4691
G1 X10.4867 Y-35.4475
G1 X10.5120 Y-35.3471
G1 X10.5169 Y-35.3251
G1 X10.5208 Y-35.3028
G1 X10.5343 Y-35.2116
G1 X10.5371 Y-35.1892
G1 X10.5387 Y-35.1667
G1 X10.5432 Y-35.0746
G1 X10.5438 Y-35.0520
G1 X10.5432 Y-35.0294
G1 X10.5387 Y-34.9373
G1 X10.5371 Y-34.9148
G1 X10.5343 Y-34.8924
G1 X10.5208 Y-34.8012
G1 X10.5169 Y-34.7789
G1 X10.5120 Y-34.7569
G1 X10.4895 Y-34.6674
G1 X10.4835 Y-34.6457
G1 X10.4764 Y-34.6242
G1 X10.4454 Y-34.5374
G1 X10.4372 Y-34.5163
G1 X10.4281 Y-34.4957
G1 X10.3887 Y-34.4123
G1 X10.3785 Y-34.3921
G1 X10.3674 Y-34.3725
G1 X10.3200 Y-34.2934
G1 X10.3140 Y-34.2838
G1 X10.3015 Y-34.2650
G1 X10.2400 Y-34.1818
G1 X10.2261 Y-34.1640
G1 X10.2113 Y-34.1469
G1 X10.1494 Y-34.0785
G1 X10.1338 Y-34.0622
G1 X10.1175 Y-34.0466
G1 X10.0491 Y-33.9847
G1 X10.0407 Y-33.9772
G1 X10.0232 Y-33.9629
G1 X9.9401 Y-33.9011
G1 X9.9217 Y-33.8881
G1 X9.9026 Y-33.8760
G1 X9.8235 Y-33.8286
G1 X9.8039 Y-33.8175
G1 X9.7938 Y-33.8123
G1 X9.7003 Y-33.7679
G1 X9.6797 Y-33.7588
G1 X9.6692 Y-33.7546
G1 X9.5611 Y-33.7159
G1 X9.5395 Y-33.7093
G1 X9.5286 Y-33.7065
G1 X9.4391 Y-33.6840
G1 X9.4171 Y-33.6791
G1 X9.3948 Y-33.6752
G1 X9.3036 Y-33.6617
G1 X9.2812 Y-33.6589
G1 X9.2700 Y-33.6580
G1 X9.1666 Y-33.6528
G1 X9.1553 Y-33.6523
G1 X9.1327 Y-33.6523
G1 X9.0180 Y-33.6580
G1 X8.9956 Y-33.6602
G1 X8.9844 Y-33.6617
G1 X8.8820 Y-33.6770
G1 X8.8709 Y-33.6791
G1 X8.8489 Y-33.6840
G1 X8.7594 Y-33.7065
G1 X8.7377 Y-33.7125
G1 X8.7162 Y-33.7196
G1 X8.6294 Y-33.7506
G1 X8.6083 Y-33.7588
G1 X8.5877 Y-33.7679
G1 X8.5043 Y-33.8073
G1 X8.4841 Y-33.8175
G1 X8.4645 Y-33.8286
G1 X8.3854 Y-33.8760
G1 X8.3663 Y-33.8881
G1 X8.3479 Y-33.9011
G1 X8.2738 Y-33.9560
G1 X8.2560 Y-33.9699
G1 X8.2389 Y-33.9847
G1 X8.1705 Y-34.0466
G1 X8.1542 Y-34.0622
G1 X8.1386 Y-34.0785
G1 X8.0767 Y-34.1469
G1 X8.0619 Y-34.1640
G1 X8.0480 Y-34.1818
G1 X7.9931 Y-34.2559
G1 X7.9801 Y-34.2743
G1 X7.9690 Y-34.2918
G1 X7.2277 Y-34.2920
G1 X7.1870 Y-34.2938
G1 X7.1645 Y-34.2955
G1 X7.1421 Y-34.2983
G1 X7.1129 Y-34.3026
G1 X7.0907 Y-34.3065
G1 X7.0687 Y-34.3114
G1 X7.0401 Y-34.3186
G1 X7.0183 Y-34.3246
G1 X6.9969 Y-34.3317
G1 X6.9586 Y-34.3455
G1 X6.9377 Y-34.3542
G1 X6.9008 Y-34.3715
G1 X6.8807 Y-34.3816
G1 X6.8610 Y-34.3927
G1 X6.8261 Y-34.4138
G1 X6.8074 Y-34.4263
G1 X6.7656 Y-34.4573
G1 X6.7481 Y-34.4717
G1 X6.7178 Y-34.4989
G1 X6.7015 Y-34.5145
G1 X6.6859 Y-34.5308
G1 X6.6661 Y-34.5527
G1 X6.6514 Y-34.5698
G1 X6.6375 Y-34.5876
G1 X6.6133 Y-34.6204
G1 X6.6008 Y-34.6391
G1 X6.5797 Y-34.6740
G1 X6.5686 Y-34.6937
G1 X6.5585 Y-34.7138
G1 X6.5412 Y-34.7507
G1 X6.5325 Y-34.7716
G1 X6.5187 Y-34.8099
G1 X6.5116 Y-34.8313
G1 X6.5056 Y-34.8531
G1 X6.4984 Y-34.8817
G1 X6.4935 Y-34.9037
G1 X6.4896 Y-34.9259
G1 X6.4838 Y-34.9663
G1 X6.4815 Y-34.9887
G1 X6.4794 Y-35.0294
G1 X6.4789 Y-35.0520
G1 X6.4789 Y-38.2225
G1 X6.4536 Y-38.1218
G1 X6.4476 Y-38.1000
G1 X6.4405 Y-38.0786
G1 X6.3870 Y-37.9294
G1 X6.3828 Y-37.9189
G1 X6.3737 Y-37.8982
G1 X6.3107 Y-37.7652
G1 X6.3058 Y-37.7550
G1 X6.2951 Y-37.7351
G1 X6.2138 Y-37.5991
G1 X6.2017 Y-37.5800
G1 X6.1887 Y-37.5616
G1 X6.1010 Y-37.4433
G1 X6.0871 Y-37.4255
G1 X6.0724 Y-37.4084
G1 X5.9735 Y-37.2994
G1 X5.9658 Y-37.2911
G1 X5.9498 Y-37.2751
G1 X5.8325 Y-37.1686
G1 X5.8154 Y-37.1538
G1 X5.7976 Y-37.1400
G1 X5.6794 Y-37.0523
G1 X5.6609 Y-37.0393
G1 X5.6418 Y-37.0272
G1 X5.5156 Y-36.9515
G1 X5.4959 Y-36.9404
G1 X5.4758 Y-36.9302
G1 X5.3427 Y-36.8673
G1 X5.3221 Y-36.8581
G1 X5.3010 Y-36.8500
G1 X5.1624 Y-36.8004
G1 X5.1410 Y-36.7933
G1 X5.1192 Y-36.7873
G1 X4.9654 Y-36.7489
G1 X4.9433 Y-36.7445
G1 X4.9321 Y-36.7428
G1 X4.7865 Y-36.7212
G1 X4.7641 Y-36.7184
G1 X4.7416 Y-36.7167
G1 X4.5946 Y-36.7095
G1 X4.5720 Y-36.7090
G1 X4.5494 Y-36.7095
G1 X4.4024 Y-36.7167
G1 X4.3799 Y-36.7184
G1 X4.3575 Y-36.7212
G1 X4.2119 Y-36.7428
G1 X4.1896 Y-36.7466
G1 X4.1676 Y-36.7516
G1 X4.0248 Y-36.7873
G1 X4.0030 Y-36.7933
G1 X3.9816 Y-36.8004
G1 X3.8430 Y-36.8500
G1 X3.8219 Y-36.8581
G1 X3.8013 Y-36.8673
G1 X3.6682 Y-36.9302
G1 X3.6481 Y-36.9404
G1 X3.6284 Y-36.9515
G1 X3.5022 Y-37.0272
G1 X3.4831 Y-37.0393
G1 X3.4646 Y-37.0523
G1 X3.3464 Y-37.1400
G1 X3.3286 Y-37.1538
G1 X3.3115 Y-37.1686
G1 X3.2024 Y-37.2675
G1 X3.1861 Y-37.2830
G1 X3.1705 Y-37.2994
G1 X3.0716 Y-37.4084
G1 X3.0642 Y-37.4169
G1 X3.0498 Y-37.4344
G1 X2.9553 Y-37.5616
G1 X2.9423 Y-37.5800
G1 X2.9302 Y-37.5991
G1 X2.8546 Y-37.7254
G1 X2.8434 Y-37.7450
G1 X2.8333 Y-37.7652
G1 X2.7703 Y-37.8982
G1 X2.7612 Y-37.9189
G1 X2.7531 Y-37.9400
G1 X2.7035 Y-38.0786
G1 X2.6964 Y-38.1000
G1 X2.6904 Y-38.1218
G1 X2.6546 Y-38.2645
G1 X2.6497 Y-38.2866
G1 X2.6458 Y-38.3088
G1 X2.6242 Y-38.4544
G1 X2.6214 Y-38.4768
G1 X2.6198 Y-38.4994
G1 X2.6126 Y-38.6464
G1 X2.6120 Y-38.6689
G1 X2.6126 Y-38.6915
G1 X2.6198 Y-38.8385
G1 X2.6214 Y-38.8611
G1 X2.6242 Y-38.8835
G1 X2.6458 Y-39.0291
G1 X2.6497 Y-39.0513
G1 X2.6546 Y-39.0734
G1 X2.6904 Y-39.2161
G1 X2.6964 Y-39.2379
G1 X2.7035 Y-39.2593
G1 X2.7531 Y-39.3979
G1 X2.7612 Y-39.4190
G1 X2.7703 Y-39.4397
G1 X2.8333 Y-39.5727
G1 X2.8434 Y-39.5929
G1 X2.8546 Y-39.6125
G1 X2.9302 Y-39.7388
G1 X2.9423 Y-39.7579
G1 X2.9553 Y-39.7763
G1 X3.0430 Y-39.8946
G1 X3.0569 Y-39.9124
G1 X3.0716 Y-39.9295
G1 X3.1705 Y-40.0385
G1 X3.1861 Y-40.0549
G1 X3.2024 Y-40.0704
G1 X3.3115 Y-40.1693
G1 X3.3286 Y-40.1841
G1 X3.3464 Y-40.1979
G1 X3.4646 Y-40.2856
G1 X3.4831 Y-40.2986
G1 X3.5022 Y-40.3107
G1 X3.6284 Y-40.3864
G1 X3.6481 Y-40.3975
G1 X3.6581 Y-40.4027
G1 X3.8013 Y-40.4706
G1 X3.8219 Y-40.4798
G1 X3.8430 Y-40.4879
G1 X3.9816 Y-40.5375
G1 X4.0030 Y-40.5446
G1 X4.0248 Y-40.5506
G1 X4.1676 Y-40.5863
G1 X4.1896 Y-40.5913
G1 X4.2119 Y-40.5951
G1 X4.3575 Y-40.6167
G1 X4.3799 Y-40.6195
G1 X4.4024 Y-40.6212
G1 X4.5494 Y-40.6284
G1 X4.5720 Y-40.6289
G1 X4.5946 Y-40.6284
G1 X4.7416 Y-40.6212
G1 X4.7641 Y-40.6195
G1 X4.7865 Y-40.6167
G1 X4.9321 Y-40.5951
G1 X4.9544 Y-40.5913
G1 X4.9764 Y-40.5863
G1 X5.1192 Y-40.5506
G1 X5.1410 Y-40.5446
G1 X5.1624 Y-40.5375
G1 X5.3010 Y-40.4879
G1 X5.3221 Y-40.4798
G1 X5.3324 Y-40.4753
G1 X5.4758 Y-40.4077
G1 X5.4959 Y-40.3975
G1 X5.5156 Y-40.3864
G1 X5.6418 Y-40.3107
G1 X5.6609 Y-40.2986
G1 X5.6794 Y-40.2856
G1 X5.7976 Y-40.1979
G1 X5.8154 Y-40.1841
G1 X5.8325 Y-40.1693
G1 X5.9416 Y-40.0704
G1 X5.9579 Y-40.0549
G1 X5.9735 Y-40.0385
G1 X6.0798 Y-39.9210
G1 X6.0871 Y-39.9124
G1 X6.1010 Y-39.8946
G1 X6.1887 Y-39.7763
G1 X6.2017 Y-39.7579
G1 X6.2138 Y-39.7388
G1 X6.2894 Y-39.6125
G1 X6.3006 Y-39.5929
G1 X6.3058 Y-39.5829
G1 X6.3737 Y-39.4397
G1 X6.3828 Y-39.4190
G1 X6.3909 Y-39.3979
G1 X6.4405 Y-39.2593
G1 X6.4476 Y-39.2379
G1 X6.4536 Y-39.2161
G1 X6.4789 Y-39.1154
G1 X6.4789 Y-43.2225
G1 X6.4536 Y-43.1218
G1 X6.4476 Y-43.1000
G1 X6.4442 Y-43.0892
G1 X6.3909 Y-42.9400
G1 X6.3828 Y-42.9189
G1 X6.3784 Y-42.9085
G1 X6.3107 Y-42.7652
G1 X6.3006 Y-42.7450
G1 X6.2894 Y-42.7254
G1 X6.2138 Y-42.5991
G1 X6.2017 Y-42.5800
G1 X6.1953 Y-42.5707
G1 X6.1010 Y-42.4433
G1 X6.0871 Y-42.4255
G1 X6.0724 Y-42.4084
G1 X5.9735 Y-42.2994
G1 X5.9579 Y-42.2830
G1 X5.9416 Y-42.2675
G1 X5.8325 Y-42.1686
G1 X5.8154 Y-42.1538
G1 X5.7976 Y-42.1400
G1 X5.6702 Y-42.0457
G1 X5.6609 Y-42.0393
G1 X5.6418 Y-42.0272
G1 X5.5156 Y-41.9515
G1 X5.4959 Y-41.9404
G1 X5.4758 Y-41.9302
G1 X5.3427 Y-41.8673
G1 X5.3221 Y-41.8581
G1 X5.3010 Y-41.8500
G1 X5.1624 Y-41.8004
G1 X5.1410 Y-41.7933
G1 X5.1192 Y-41.7873
G1 X4.9764 Y-41.7516
G1 X4.9544 Y-41.7466
G1 X4.9321 Y-41.7428
G1 X4.7865 Y-41.7212
G1 X4.7641 Y-41.7184
G1 X4.7416 Y-41.7167
G1 X4.5946 Y-41.7095
G1 X4.5720 Y-41.7090
G1 X4.5494 Y-41.7095
G1 X4.4024 Y-41.7167
G1 X4.3799 Y-41.7184
G1 X4.3575 Y-41.7212
G1 X4.2119 Y-41.7428
G1 X4.1896 Y-41.7466
G1 X4.1676 Y-41.7516
G1 X4.0248 Y-41.7873
G1 X4.0030 Y-41.7933
G1 X3.9816 Y-41.8004
G1 X3.8430 Y-41.8500
G1 X3.8219 Y-41.8581
G1 X3.8013 Y-41.8673
G1 X3.6682 Y-41.9302
G1 X3.6481 Y-41.9404
G1 X3.6284 Y-41.9515
G1 X3.5022 Y-42.0272
G1 X3.4831 Y-42.0393
G1 X3.4646 Y-42.0523
G1 X3.3464 Y-42.1400
G1 X3.3286 Y-42.1538
G1 X3.3115 Y-42.1686
G1 X3.2024 Y-42.2675
G1 X3.1861 Y-42.2830
G1 X3.1705 Y-42.2994
G1 X3.0716 Y-42.4084
G1 X3.0569 Y-42.4255
G1 X3.0430 Y-42.4433
G1 X2.9553 Y-42.5616
G1 X2.9423 Y-42.5800
G1 X2.9302 Y-42.5991
G1 X2.8546 Y-42.7254
G1 X2.8434 Y-42.7450
G1 X2.8333 Y-42.7652
G1 X2.7703 Y-42.8982
G1 X2.7612 Y-42.9189
G1 X2.7531 Y-42.9400
G1 X2.7035 Y-43.0786
G1 X2.6964 Y-43.1000
G1 X2.6904 Y-43.1218
G1 X2.6546 Y-43.2645
G1 X2.6497 Y-43.2866
G1 X2.6458 Y-43.3088
G1 X2.6242 Y-43.4544
G1 X2.6214 Y-43.4768
G1 X2.6198 Y-43.4994
G1 X2.6126 Y-43.6464
G0 Z2.0000
G0 X2.7923 Y-43.6552
F800
G1 Z0.0000 F800
F500
G1 X2.7920 Y-43.6689
G1 X2.7923 Y-43.6827
G1 X2.7996 Y-43.8297
G1 X2.8006 Y-43.8434
G1 X2.8023 Y-43.8571
G1 X2.8239 Y-44.0027
G1 X2.8262 Y-44.0162
G1 X2.8292 Y-44.0296
G1 X2.8650 Y-44.1724
G1 X2.8686 Y-44.1857
G1 X2.8730 Y-44.1987
G1 X2.9225 Y-44.3373
G1 X2.9275 Y-44.3501
G1 X2.9331 Y-44.3627
G1 X2.9960 Y-44.4958
G1 X3.0022 Y-44.5080
G1 X3.0090 Y-44.5200
G1 X3.0846 Y-44.6463
G1 X3.0920 Y-44.6579
G1 X3.0999 Y-44.6691
G1 X3.1876 Y-44.7873
G1 X3.1960 Y-44.7982
G1 X3.2050 Y-44.8086
G1 X3.3039 Y-44.9176
G1 X3.3134 Y-44.9276
G1 X3.3233 Y-44.9371
G1 X3.4324 Y-45.0359
G1 X3.4428 Y-45.0449
G1 X3.4536 Y-45.0534
G1 X3.5718 Y-45.1411
G1 X3.5831 Y-45.1490
G1 X3.5947 Y-45.1563
G1 X3.7210 Y-45.2320
G1 X3.7329 Y-45.2388
G1 X3.7452 Y-45.2449
G1 X3.8783 Y-45.3079
G1 X3.8908 Y-45.3135
G1 X3.9036 Y-45.3184
G1 X4.0422 Y-45.3680
G1 X4.0553 Y-45.3723
G1 X4.0685 Y-45.3760
G1 X4.2113 Y-45.4117
G1 X4.2247 Y-45.4147
G1 X4.2383 Y-45.4171
G1 X4.3839 Y-45.4387
G1 X4.3975 Y-45.4404
G1 X4.4112 Y-45.4414
G1 X4.5583 Y-45.4486
G1 X4.5720 Y-45.4489
G1 X4.5857 Y-45.4486
G1 X4.7328 Y-45.4414
G1 X4.7465 Y-45.4404
G1 X4.7601 Y-45.4387
G1 X4.9057 Y-45.4171
G1 X4.9193 Y-45.4147
G1 X4.9327 Y-45.4117
G1 X5.0755 Y-45.3760
G1 X5.0887 Y-45.3723
G1 X5.1018 Y-45.3680
G1 X5.2404 Y-45.3184
G1 X5.2532 Y-45.3135
G1 X5.2657 Y-45.3079
G1 X5.3988 Y-45.2449
G1 X5.4111 Y-45.2388
G1 X5.4230 Y-45.2320
G1 X5.5493 Y-45.1563
G1 X5.5609 Y-45.1490
G1 X5.5722 Y-45.1411
G1 X5.6904 Y-45.0534
G1 X5.7012 Y-45.0449
G1 X5.7116 Y-45.0359
G1 X5.8207 Y-44.9371
G1 X5.8306 Y-44.9276
G1 X5.8401 Y-44.9176
G1 X5.9390 Y-44.8086
G1 X5.9480 Y-44.7982
G1 X5.9564 Y-44.7873
G1 X6.0441 Y-44.6691
G1 X6.0520 Y-44.6579
G1 X6.0594 Y-44.6463
G1 X6.1350 Y-44.5200
G1 X6.1418 Y-44.5080
G1 X6.1480 Y-44.4958
G1 X6.2109 Y-44.3627
G1 X6.2165 Y-44.3501
G1 X6.2215 Y-44.3373
G1 X6.2710 Y-44.1987
G1 X6.2754 Y-44.1857
G1 X6.2790 Y-44.1724
G1 X6.3148 Y-44.0296
G1 X6.3178 Y-44.0162
G1 X6.3201 Y-44.0027
G1 X6.3417 Y-43.8571
G1 X6.3434 Y-43.8434
G1 X6.3444 Y-43.8297
G1 X6.3517 Y-43.6827
G1 X6.3520 Y-43.6690
G1 X6.3517 Y-43.6552
G1 X6.3444 Y-43.5082
G1 X6.3434 Y-43.4945
G1 X6.3417 Y-43.4808
G1 X6.3201 Y-43.3352
G1 X6.3178 Y-43.3217
G1 X6.3148 Y-43.3083
G1 X6.2790 Y-43.1655
G1 X6.2754 Y-43.1522
G1 X6.2710 Y-43.1392
G1 X6.2215 Y-43.0006
G1 X6.2165 Y-42.9878
G1 X6.2109 Y-42.9752
G1 X6.1480 Y-42.8421
G1 X6.1418 Y-42.8299
G1 X6.1350 Y-42.8179
G1 X6.0594 Y-42.6916
G1 X6.0520 Y-42.6800
G1 X6.0441 Y-42.6688
G1 X5.9564 Y-42.5506
G1 X5.9480 Y-42.5397
G1 X5.9390 Y-42.5293
G1 X5.8401 Y-42.4203
G1 X5.8306 Y-42.4103
G1 X5.8207 Y-42.4008
G1 X5.7116 Y-42.3020
G1 X5.7012 Y-42.2930
G1 X5.6904 Y-42.2845
G1 X5.5722 Y-42.1968
G1 X5.5609 Y-42.1889
G1 X5.5493 Y-42.1816
G1 X5.4230 Y-42.1059
G1 X5.4111 Y-42.0991
G1 X5.3988 Y-42.0930
G1 X5.2657 Y-42.0300
G1 X5.2532 Y-42.0244
G1 X5.2404 Y-42.0195
G1 X5.1018 Y-41.9699
G1 X5.0887 Y-41.9656
G1 X5.0755 Y-41.9619
G1 X4.9327 Y-41.9262
G1 X4.9193 Y-41.9232
G1 X4.9057 Y-41.9208
G1 X4.7601 Y-41.8992
G1 X4.7465 Y-41.8975
G1 X4.7328 Y-41.8965
G1 X4.5857 Y-41.8893
G1 X4.5720 Y-41.8890
G1 X4.5583 Y-41.8893
G1 X4.4112 Y-41.8965
G1 X4.3975 Y-41.8975
G1 X4.3839 Y-41.8992
G1 X4.2383 Y-41.9208
G1 X4.2247 Y-41.9232
G1 X4.2113 Y-41.9262
G1 X4.0685 Y-41.9619
G1 X4.0553 Y-41.9656
G1 X4.0422 Y-41.9699
G1 X3.9036 Y-42.0195
G1 X3.8908 Y-42.0244
G1 X3.8783 Y-42.0300
G1 X3.7452 Y-42.0930
G1 X3.7329 Y-42.0991
G1 X3.7210 Y-42.1059
G1 X3.5947 Y-42.1816
G1 X3.5831 Y-42.1889
G1 X3.5718 Y-42.1968
G1 X3.4536 Y-42.2845
G1 X3.4428 Y-42.2930
G1 X3.4324 Y-42.3020
G1 X3.3233 Y-42.4008
G1 X3.3134 Y-42.4103
G1 X3.3039 Y-42.4203
G1 X3.2050 Y-42.5293
G1 X3.1960 Y-42.5397
G1 X3.1876 Y-42.5506
G1 X3.0999 Y-42.6688
G1 X3.0920 Y-42.6800
G1 X3.0846 Y-42.6916
G1 X3.0090 Y-42.8179
G1 X3.0022 Y-42.8299
G1 X2.9960 Y-42.8421
G1 X2.9331 Y-42.9752
G1 X2.9275 Y-42.9878
G1 X2.9225 Y-43.0006
G1 X2.8730 Y-43.1392
G1 X2.8686 Y-43.1522
G1 X2.8650 Y-43.1655
G1 X2.8292 Y-43.3083
G1 X2.8262 Y-43.3217
G1 X2.8239 Y-43.3352
G1 X2.8023 Y-43.4808
G1 X2.8006 Y-43.4945
G1 X2.7996 Y-43.5082
G1 X2.7923 Y-43.6552
G0 Z2.0000
G0 X2.9721 Y-43.6640
F800
G1 Z0.0000 F800
F500
G1 X2.9721 Y-43.6739
G1 X2.9797 Y-43.8258
G1 X3.0027 Y-43.9811
G1 X3.0409 Y-44.1334
G1 X3.0938 Y-44.2812
G1 X3.1609 Y-44.4232
G1 X3.2416 Y-44.5579
G1 X3.3352 Y-44.6840
G1 X3.4406 Y-44.8003
G1 X3.5570 Y-44.9058
G1 X3.6831 Y-44.9993
G1 X3.8178 Y-45.0800
G1 X3.9597 Y-45.1472
G1 X4.1075 Y-45.2001
G1 X4.2599 Y-45.2382
G1 X4.4152 Y-45.2612
G1 X4.5720 Y-45.2689
G1 X4.7288 Y-45.2612
G1 X4.8841 Y-45.2382
G1 X5.0365 Y-45.2001
G1 X5.1843 Y-45.1472
G1 X5.3262 Y-45.0800
G1 X5.4609 Y-44.9993
G1 X5.5870 Y-44.9058
G1 X5.7034 Y-44.8003
G1 X5.8088 Y-44.6840
G1 X5.9024 Y-44.5579
G1 X5.9831 Y-44.4232
G1 X6.0502 Y-44.2812
G1 X6.1031 Y-44.1334
G1 X6.1413 Y-43.9811
G1 X6.1643 Y-43.8258
G1 X6.1720 Y-43.6690
G1 X6.1643 Y-43.5121
G1 X6.1413 Y-43.3568
G1 X6.1031 Y-43.2045
G1 X6.0502 Y-43.0567
G1 X5.9831 Y-42.9147
G1 X5.9024 Y-42.7800
G1 X5.8088 Y-42.6539
G1 X5.7034 Y-42.5376
G1 X5.5870 Y-42.4321
G1 X5.4609 Y-42.3386
G1 X5.3262 Y-42.2579
G1 X5.1843 Y-42.1907
G1 X5.0365 Y-42.1378
G1 X4.8841 Y-42.0997
G1 X4.7288 Y-42.0767
G1 X4.5720 Y-42.0690
G1 X4.4152 Y-42.0767
G1 X4.2599 Y-42.0997
G1 X4.1075 Y-42.1378
G1 X3.9597 Y-42.1907
G1 X3.8178 Y-42.2579
G1 X3.6831 Y-42.3386
G1 X3.5570 Y-42.4321
G1 X3.4406 Y-42.5376
G1 X3.3352 Y-42.6539
G1 X3.2416 Y-42.7800
G1 X3.1609 Y-42.9147
G1 X3.0938 Y-43.0567
G1 X3.0409 Y-43.2045
G1 X3.0027 Y-43.3568
G1 X2.9797 Y-43.5121
G1 X2.9721 Y-43.6640
G0 Z2.0000
G0 X2.8712 Y-47.0935
F800
G1 Z0.0000 F800
F500
G1 X2.9175 Y-47.0429
G1 X2.9459 Y-47.0144
G1 X3.0848 Y-46.8885
G1 X3.1159 Y-46.8630
G1 X3.1319 Y-46.8508
G1 X3.2502 Y-46.7631
G1 X3.2665 Y-46.7513
G1 X3.2999 Y-46.7290
G1 X3.4433 Y-46.6427
G1 X3.4784 Y-46.6229
G1 X3.5143 Y-46.6048
G1 X3.6474 Y-46.5418
G1 X3.6842 Y-46.5255
G1 X3.7217 Y-46.5111
G1 X3.8603 Y-46.4615
G1 X3.8794 Y-46.4549
G1 X3.9179 Y-46.4432
G1 X4.0801 Y-46.4023
G1 X4.1194 Y-46.3935
G1 X4.1590 Y-46.3866
G1 X4.3047 Y-46.3650
G1 X4.3446 Y-46.3601
G1 X4.3847 Y-46.3572
G1 X4.5318 Y-46.3499
G1 X4.5720 Y-46.3489
G1 X4.6122 Y-46.3499
G1 X4.7593 Y-46.3572
G1 X4.7994 Y-46.3601
G1 X4.8393 Y-46.3650
G1 X4.9850 Y-46.3866
G1 X5.0246 Y-46.3935
G1 X5.0639 Y-46.4023
G1 X5.2162 Y-46.4406
G1 X6.1189 Y-45.5380
G1 X6.1189 Y-45.3956
G1 X6.0592 Y-45.4494
G1 X6.0281 Y-45.4749
G1 X5.8938 Y-45.5748
G1 X5.8775 Y-45.5866
G1 X5.8441 Y-45.6089
G1 X5.7007 Y-45.6952
G1 X5.6656 Y-45.7150
G1 X5.6297 Y-45.7331
G1 X5.4966 Y-45.7960
G1 X5.4598 Y-45.8124
G1 X5.4411 Y-45.8198
G1 X5.2837 Y-45.8764
G1 X5.2455 Y-45.8891
G1 X5.2067 Y-45.8998
G1 X5.0639 Y-45.9356
G1 X5.0246 Y-45.9444
G1 X5.0048 Y-45.9481
G1 X4.8393 Y-45.9729
G1 X4.8194 Y-45.9756
G1 X4.7793 Y-45.9795
G1 X4.5921 Y-45.9887
G1 X4.5519 Y-45.9887
G1 X4.5318 Y-45.9880
G1 X4.3847 Y-45.9807
G1 X4.3446 Y-45.9778
G1 X4.3047 Y-45.9729
G1 X4.1590 Y-45.9513
G1 X4.1392 Y-45.9481
G1 X4.0997 Y-45.9402
G1 X3.9373 Y-45.8998
G1 X3.8985 Y-45.8891
G1 X3.8603 Y-45.8764
G1 X3.7217 Y-45.8268
G1 X3.6842 Y-45.8124
G1 X3.6657 Y-45.8044
G1 X3.5143 Y-45.7331
G1 X3.4784 Y-45.7150
G1 X3.4433 Y-45.6952
G1 X3.3171 Y-45.6195
G1 X3.2831 Y-45.5980
G1 X3.2665 Y-45.5866
G1 X3.1319 Y-45.4871
G1 X3.1002 Y-45.4623
G1 X3.0848 Y-45.4494
G1 X2.9459 Y-45.3235
G1 X2.9175 Y-45.2950
G1 X2.8712 Y-45.2444
G1 X2.8712 Y-47.0935
G0 Z2.0000
G0 X2.6912 Y-47.6483
F800
G1 Z0.0000 F800
F500
G1 X2.7758 Y-47.5066
G1 X2.7927 Y-47.4800
G1 X2.8107 Y-47.4543
G1 X2.8984 Y-47.3361
G1 X2.9178 Y-47.3113
G1 X2.9383 Y-47.2876
G1 X3.0371 Y-47.1785
G1 X3.0588 Y-47.1557
G1 X3.0815 Y-47.1341
G1 X3.1906 Y-47.0352
G1 X3.2144 Y-47.0147
G1 X3.2267 Y-47.0049
G1 X3.3574 Y-46.9077
G1 X3.3831 Y-46.8896
G1 X3.4096 Y-46.8728
G1 X3.5359 Y-46.7971
G1 X3.5632 Y-46.7816
G1 X3.5913 Y-46.7675
G1 X3.7243 Y-46.7046
G1 X3.7386 Y-46.6980
G1 X3.7676 Y-46.6860
G1 X3.9210 Y-46.6309
G1 X3.9508 Y-46.6211
G1 X3.9811 Y-46.6127
G1 X4.1239 Y-46.5769
G1 X4.1545 Y-46.5701
G1 X4.1855 Y-46.5647
G1 X4.3311 Y-46.5431
G1 X4.3622 Y-46.5392
G1 X4.3936 Y-46.5369
G1 X4.5563 Y-46.5291
G1 X4.5877 Y-46.5291
G1 X4.6034 Y-46.5297
G1 X4.7504 Y-46.5369
G1 X4.7818 Y-46.5392
G1 X4.8129 Y-46.5431
G1 X4.9741 Y-46.5672
G1 X4.9895 Y-46.5701
G1 X5.0201 Y-46.5769
G1 X5.1781 Y-46.6167
G1 X5.2082 Y-46.6258
G1 X5.2653 Y-46.6461
G1 X6.2989 Y-45.6125
G1 X6.2989 Y-44.9299
G1 X6.2456 Y-45.0018
G1 X6.2262 Y-45.0266
G1 X6.2057 Y-45.0503
G1 X6.0962 Y-45.1709
G1 X6.0740 Y-45.1931
G1 X6.0625 Y-45.2038
G1 X5.9534 Y-45.3027
G1 X5.9416 Y-45.3131
G1 X5.9173 Y-45.3330
G1 X5.7739 Y-45.4394
G1 X5.7478 Y-45.4569
G1 X5.7344 Y-45.4651
G1 X5.6081 Y-45.5408
G1 X5.5808 Y-45.5563
G1 X5.5527 Y-45.5704
G1 X5.4054 Y-45.6399
G1 X5.3764 Y-45.6519
G1 X5.3616 Y-45.6574
G1 X5.2230 Y-45.7069
G1 X5.1932 Y-45.7168
G1 X5.1629 Y-45.7252
G1 X5.0201 Y-45.7609
G1 X4.9895 Y-45.7678
G1 X4.9585 Y-45.7732
G1 X4.8129 Y-45.7948
G1 X4.7818 Y-45.7986
G1 X4.7504 Y-45.8010
G1 X4.6034 Y-45.8082
G1 X4.5720 Y-45.8089
G1 X4.5563 Y-45.8088
G1 X4.3779 Y-45.8000
G1 X4.3622 Y-45.7986
G1 X4.3311 Y-45.7948
G1 X4.1855 Y-45.7732
G1 X4.1545 Y-45.7678
G1 X4.1239 Y-45.7609
G1 X3.9811 Y-45.7252
G1 X3.9508 Y-45.7168
G1 X3.9210 Y-45.7069
G1 X3.7824 Y-45.6574
G1 X3.7531 Y-45.6461
G1 X3.7243 Y-45.6333
G1 X3.5913 Y-45.5704
G1 X3.5632 Y-45.5563
G1 X3.5359 Y-45.5408
G1 X3.4096 Y-45.4651
G1 X3.3831 Y-45.4483
G1 X3.3574 Y-45.4302
G1 X3.2392 Y-45.3425
G1 X3.2144 Y-45.3232
G1 X3.1906 Y-45.3027
G1 X3.0815 Y-45.2038
G1 X3.0588 Y-45.1822
G1 X3.0371 Y-45.1594
G1 X2.9383 Y-45.0503
G1 X2.9178 Y-45.0266
G1 X2.8984 Y-45.0018
G1 X2.8107 Y-44.8836
G1 X2.8015 Y-44.8708
G1 X2.7841 Y-44.8447
G1 X2.7002 Y-44.7051
G1 X2.6912 Y-44.6896
G1 X2.6912 Y-47.6483
G0 Z2.0000
G0 X5.3504 Y-47.0701
F800
G1 Z0.0000 F800
F500
G1 X5.2657 Y-47.0300
G1 X5.2468 Y-47.0219
G1 X5.1018 Y-46.9699
G1 X5.0821 Y-46.9637
G1 X4.9327 Y-46.9262
G1 X4.9193 Y-46.9231
G1 X4.9057 Y-46.9208
G1 X4.7601 Y-46.8992
G1 X4.7396 Y-46.8969
G1 X4.5857 Y-46.8893
G1 X4.5720 Y-46.8889
G1 X4.5583 Y-46.8893
G1 X4.4112 Y-46.8965
G1 X4.3975 Y-46.8975
G1 X4.3839 Y-46.8992
G1 X4.2383 Y-46.9208
G1 X4.2247 Y-46.9231
G1 X4.2113 Y-46.9262
G1 X4.0685 Y-46.9619
G1 X4.0487 Y-46.9677
G1 X3.9036 Y-47.0195
G1 X3.8908 Y-47.0244
G1 X3.8783 Y-47.0300
G1 X3.7452 Y-47.0929
G1 X3.7329 Y-47.0991
G1 X3.7210 Y-47.1059
G1 X3.5947 Y-47.1816
G1 X3.5831 Y-47.1889
G1 X3.5718 Y-47.1968
G1 X3.4536 Y-47.2845
G1 X3.4428 Y-47.2930
G1 X3.4324 Y-47.3020
G1 X3.3233 Y-47.4008
G1 X3.3134 Y-47.4103
G1 X3.3039 Y-47.4202
G1 X3.2050 Y-47.5293
G1 X3.1960 Y-47.5397
G1 X3.1876 Y-47.5506
G1 X3.0999 Y-47.6688
G1 X3.0920 Y-47.6800
G1 X3.0846 Y-47.6916
G1 X3.0090 Y-47.8179
G1 X2.9990 Y-47.8360
G1 X2.9331 Y-47.9752
G1 X2.9275 Y-47.9878
G1 X2.9225 Y-48.0006
G1 X2.8730 Y-48.1392
G1 X2.8686 Y-48.1522
G1 X2.8650 Y-48.1655
G1 X2.8292 Y-48.3083
G1 X2.8262 Y-48.3217
G1 X2.8239 Y-48.3352
G1 X2.8023 Y-48.4808
G1 X2.8006 Y-48.4945
G1 X2.7996 Y-48.5082
G1 X2.7923 Y-48.6552
G1 X2.7920 Y-48.6689
G1 X2.7923 Y-48.6827
G1 X2.7996 Y-48.8297
G1 X2.8006 Y-48.8434
G1 X2.8023 Y-48.8571
G1 X2.8239 Y-49.0027
G1 X2.8262 Y-49.0162
G1 X2.8292 Y-49.0296
G1 X2.8650 Y-49.1724
G1 X2.8686 Y-49.1856
G1 X2.8730 Y-49.1987
G1 X2.9225 Y-49.3373
G1 X2.9275 Y-49.3501
G1 X2.9331 Y-49.3627
G1 X2.9960 Y-49.4958
G1 X3.0022 Y-49.5080
G1 X3.0090 Y-49.5200
G1 X3.0846 Y-49.6462
G1 X3.0920 Y-49.6579
G1 X3.0999 Y-49.6691
G1 X3.1876 Y-49.7873
G1 X3.1960 Y-49.7982
G1 X3.2050 Y-49.8086
G1 X3.3039 Y-49.9176
G1 X3.3134 Y-49.9276
G1 X3.3233 Y-49.9371
G1 X3.4324 Y-50.0359
G1 X3.4428 Y-50.0449
G1 X3.4536 Y-50.0534
G1 X3.5718 Y-50.1410
G1 X3.5831 Y-50.1490
G1 X3.5947 Y-50.1563
G1 X3.7210 Y-50.2320
G1 X3.7390 Y-50.2419
G1 X3.8783 Y-50.3079
G1 X3.8908 Y-50.3134
G1 X3.9036 Y-50.3184
G1 X4.0422 Y-50.3680
G1 X4.0553 Y-50.3723
G1 X4.0685 Y-50.3760
G1 X4.2113 Y-50.4117
G1 X4.2247 Y-50.4147
G1 X4.2383 Y-50.4171
G1 X4.3839 Y-50.4387
G1 X4.3975 Y-50.4404
G1 X4.4112 Y-50.4414
G1 X4.5583 Y-50.4486
G1 X4.5720 Y-50.4489
G1 X4.5857 Y-50.4486
G1 X4.7328 Y-50.4414
G1 X4.7465 Y-50.4404
G1 X4.7601 Y-50.4387
G1 X4.9057 Y-50.4171
G1 X4.9193 Y-50.4147
G1 X4.9327 Y-50.4117
G1 X5.0755 Y-50.3760
G1 X5.0887 Y-50.3723
G1 X5.1018 Y-50.3680
G1 X5.2404 Y-50.3184
G1 X5.2532 Y-50.3134
G1 X5.2657 Y-50.3079
G1 X5.3988 Y-50.2449
G1 X5.4111 Y-50.2388
G1 X5.4230 Y-50.2320
G1 X5.5493 Y-50.1563
G1 X5.5609 Y-50.1490
G1 X5.5722 Y-50.1410
G1 X5.6904 Y-50.0534
G1 X5.7012 Y-50.0449
G1 X5.7116 Y-50.0359
G1 X5.8207 Y-49.9371
G1 X5.8306 Y-49.9276
G1 X5.8401 Y-49.9176
G1 X5.9390 Y-49.8086
G1 X5.9480 Y-49.7982
G1 X5.9564 Y-49.7873
G1 X6.0441 Y-49.6691
G1 X6.0520 Y-49.6579
G1 X6.0594 Y-49.6462
G1 X6.1350 Y-49.5200
G1 X6.1418 Y-49.5080
G1 X6.1480 Y-49.4958
G1 X6.2109 Y-49.3627
G1 X6.2165 Y-49.3501
G1 X6.2215 Y-49.3373
G1 X6.2710 Y-49.1987
G1 X6.2754 Y-49.1856
G1 X6.2790 Y-49.1724
G1 X6.3148 Y-49.0296
G1 X6.3191 Y-49.0094
G1 X6.3417 Y-48.8571
G1 X6.3434 Y-48.8434
G1 X6.3444 Y-48.8297
G1 X6.3517 Y-48.6827
G1 X6.3520 Y-48.6689
G1 X6.3517 Y-48.6552
G1 X6.3444 Y-48.5082
G1 X6.3427 Y-48.4876
G1 X6.3201 Y-48.3352
G1 X6.3178 Y-48.3217
G1 X6.3148 Y-48.3083
G1 X6.2773 Y-48.1588
G1 X6.2710 Y-48.1392
G1 X6.2191 Y-47.9941
G1 X6.2109 Y-47.9752
G1 X6.1709 Y-47.8905
G1 X7.6540 Y-46.4072
G1 X7.6785 Y-46.3804
G1 X7.6918 Y-46.3646
G1 X7.7175 Y-46.3299
G1 X7.7287 Y-46.3126
G1 X7.7506 Y-46.2754
G1 X7.7694 Y-46.2365
G1 X7.7775 Y-46.2176
G1 X7.7899 Y-46.1834
G1 X7.7942 Y-46.1703
G1 X7.7978 Y-46.1571
G1 X7.8066 Y-46.1218
G1 X7.8093 Y-46.1084
G1 X7.8147 Y-46.0724
G1 X7.8164 Y-46.0588
G1 X7.8188 Y-46.0157
G1 X7.8191 Y-46.0019
G1 X7.8191 Y-38.7108
G1 X7.8236 Y-38.7324
G1 X7.8461 Y-38.8218
G1 X7.8497 Y-38.8351
G1 X7.8540 Y-38.8481
G1 X7.8851 Y-38.9350
G1 X7.8901 Y-38.9478
G1 X7.8956 Y-38.9604
G1 X7.9351 Y-39.0437
G1 X7.9412 Y-39.0560
G1 X7.9480 Y-39.0680
G1 X7.9954 Y-39.1471
G1 X8.0028 Y-39.1587
G1 X8.0107 Y-39.1699
G1 X8.0656 Y-39.2440
G1 X8.0741 Y-39.2548
G1 X8.0831 Y-39.2652
G1 X8.1450 Y-39.3336
G1 X8.1545 Y-39.3435
G1 X8.1644 Y-39.3530
G1 X8.2328 Y-39.4149
G1 X8.2432 Y-39.4239
G1 X8.2540 Y-39.4324
G1 X8.3281 Y-39.4873
G1 X8.3393 Y-39.4952
G1 X8.3509 Y-39.5026
G1 X8.4300 Y-39.5500
G1 X8.4420 Y-39.5568
G1 X8.4543 Y-39.5629
G1 X8.5376 Y-39.6024
G1 X8.5502 Y-39.6079
G1 X8.5630 Y-39.6129
G1 X8.6499 Y-39.6440
G1 X8.6629 Y-39.6483
G1 X8.6762 Y-39.6519
G1 X8.7656 Y-39.6744
G1 X8.7790 Y-39.6774
G1 X8.7926 Y-39.6797
G1 X8.8838 Y-39.6932
G1 X8.8974 Y-39.6949
G1 X8.9111 Y-39.6959
G1 X9.0033 Y-39.7005
G1 X9.0170 Y-39.7008
G1 X9.0307 Y-39.7005
G1 X9.1229 Y-39.6959
G1 X9.1366 Y-39.6949
G1 X9.1502 Y-39.6932
G1 X9.2414 Y-39.6797
G1 X9.2550 Y-39.6774
G1 X9.2684 Y-39.6744
G1 X9.3578 Y-39.6519
G1 X9.3711 Y-39.6483
G1 X9.3841 Y-39.6440
G1 X9.4710 Y-39.6129
G1 X9.4838 Y-39.6079
G1 X9.4964 Y-39.6024
G1 X9.5797 Y-39.5629
G1 X9.5920 Y-39.5568
G1 X9.6040 Y-39.5500
G1 X9.6831 Y-39.5026
G1 X9.6947 Y-39.4952
G1 X9.7059 Y-39.4873
G1 X9.7800 Y-39.4324
G1 X9.7908 Y-39.4239
G1 X9.8012 Y-39.4149
G1 X9.8696 Y-39.3530
G1 X9.8795 Y-39.3435
G1 X9.8890 Y-39.3336
G1 X9.9509 Y-39.2652
G1 X9.9599 Y-39.2548
G1 X9.9684 Y-39.2440
G1 X10.0233 Y-39.1699
G1 X10.0312 Y-39.1587
G1 X10.0386 Y-39.1471
G1 X10.0860 Y-39.0680
G1 X10.0928 Y-39.0560
G1 X10.0989 Y-39.0437
G1 X10.1384 Y-38.9604
G1 X10.1439 Y-38.9478
G1 X10.1489 Y-38.9350
G1 X10.1800 Y-38.8481
G1 X10.1843 Y-38.8351
G1 X10.1879 Y-38.8218
G1 X10.2104 Y-38.7324
G1 X10.2134 Y-38.7190
G1 X10.2157 Y-38.7054
G1 X10.2292 Y-38.6142
G1 X10.2309 Y-38.6006
G1 X10.2319 Y-38.5869
G1 X10.2365 Y-38.4947
G1 X10.2368 Y-38.4810
G1 X10.2365 Y-38.4673
G1 X10.2319 Y-38.3751
G1 X10.2309 Y-38.3614
G1 X10.2292 Y-38.3478
G1 X10.2157 Y-38.2566
G1 X10.2134 Y-38.2430
G1 X10.2104 Y-38.2296
G1 X10.1879 Y-38.1402
G1 X10.1843 Y-38.1269
G1 X10.1800 Y-38.1139
G1 X10.1489 Y-38.0270
G1 X10.1439 Y-38.0142
G1 X10.1384 Y-38.0016
G1 X10.0989 Y-37.9183
G1 X10.0928 Y-37.9060
G1 X10.0860 Y-37.8940
G1 X10.0386 Y-37.8149
G1 X10.0312 Y-37.8033
G1 X10.0233 Y-37.7921
G1 X9.9684 Y-37.7180
G1 X9.9599 Y-37.7072
G1 X9.9509 Y-37.6968
G1 X9.8890 Y-37.6284
G1 X9.8795 Y-37.6185
G1 X9.8696 Y-37.6090
G1 X9.8012 Y-37.5471
G1 X9.7908 Y-37.5381
G1 X9.7800 Y-37.5296
G1 X9.7059 Y-37.4747
G1 X9.6947 Y-37.4668
G1 X9.6831 Y-37.4594
G1 X9.6040 Y-37.4120
G1 X9.5920 Y-37.4052
G1 X9.5797 Y-37.3991
G1 X9.4964 Y-37.3596
G1 X9.4838 Y-37.3541
G1 X9.4710 Y-37.3491
G1 X9.3841 Y-37.3180
G1 X9.3711 Y-37.3137
G1 X9.3578 Y-37.3101
G1 X9.2684 Y-37.2876
G1 X9.2550 Y-37.2846
G1 X9.2414 Y-37.2823
G1 X9.1502 Y-37.2688
G1 X9.1366 Y-37.2671
G1 X9.1229 Y-37.2661
G1 X9.0307 Y-37.2615
G1 X9.0170 Y-37.2612
G1 X9.0033 Y-37.2615
G1 X8.9111 Y-37.2661
G1 X8.8974 Y-37.2671
G1 X8.8838 Y-37.2688
G1 X8.7926 Y-37.2823
G1 X8.7790 Y-37.2846
G1 X8.7656 Y-37.2876
G1 X8.6762 Y-37.3101
G1 X8.6629 Y-37.3137
G1 X8.6499 Y-37.3180
G1 X8.5630 Y-37.3491
G1 X8.5502 Y-37.3541
G1 X8.5376 Y-37.3596
G1 X8.4543 Y-37.3991
G1 X8.4420 Y-37.4052
G1 X8.4300 Y-37.4120
G1 X8.3509 Y-37.4594
G1 X8.3393 Y-37.4668
G1 X8.3281 Y-37.4747
G1 X8.2540 Y-37.5296
G1 X8.2432 Y-37.5381
G1 X8.2328 Y-37.5471
G1 X8.1644 Y-37.6090
G1 X8.1545 Y-37.6185
G1 X8.1450 Y-37.6284
G1 X8.0831 Y-37.6968
G1 X8.0741 Y-37.7072
G1 X8.0656 Y-37.7180
G1 X8.0107 Y-37.7921
G1 X8.0028 Y-37.8033
G1 X7.9954 Y-37.8149
G1 X7.9480 Y-37.8940
G1 X7.9412 Y-37.9060
G1 X7.9351 Y-37.9183
G1 X7.8956 Y-38.0016
G1 X7.8901 Y-38.0142
G1 X7.8851 Y-38.0270
G1 X7.8540 Y-38.1139
G1 X7.8497 Y-38.1269
G1 X7.8461 Y-38.1402
G1 X7.8236 Y-38.2296
G1 X7.8191 Y-38.2512
G1 X7.8191 Y-35.6322
G1 X8.0711 Y-35.6321
G1 X8.1224 Y-35.7181
G1 X8.1298 Y-35.7297
G1 X8.1377 Y-35.7409
G1 X8.1926 Y-35.8150
G1 X8.2011 Y-35.8258
G1 X8.2101 Y-35.8362
G1 X8.2720 Y-35.9046
G1 X8.2815 Y-35.9145
G1 X8.2914 Y-35.9240
G1 X8.3598 Y-35.9859
G1 X8.3702 Y-35.9949
G1 X8.3810 Y-36.0034
G1 X8.4551 Y-36.0583
G1 X8.4663 Y-36.0662
G1 X8.4779 Y-36.0736
G1 X8.5570 Y-36.1210
G1 X8.5690 Y-36.1278
G1 X8.5813 Y-36.1339
G1 X8.6646 Y-36.1734
G1 X8.6772 Y-36.1789
G1 X8.6900 Y-36.1839
G1 X8.7769 Y-36.2150
G1 X8.7899 Y-36.2193
G1 X8.8032 Y-36.2229
G1 X8.8926 Y-36.2454
G1 X8.9060 Y-36.2484
G1 X8.9196 Y-36.2507
G1 X9.0176 Y-36.2652
G1 X9.0381 Y-36.2669
G1 X9.1303 Y-36.2715
G1 X9.1440 Y-36.2718
G1 X9.1577 Y-36.2715
G1 X9.2499 Y-36.2669
G1 X9.2636 Y-36.2659
G1 X9.2772 Y-36.2642
G1 X9.3684 Y-36.2507
G1 X9.3820 Y-36.2484
G1 X9.3954 Y-36.2454
G1 X9.4848 Y-36.2229
G1 X9.4981 Y-36.2193
G1 X9.5111 Y-36.2150
G1 X9.5980 Y-36.1839
G1 X9.6108 Y-36.1789
G1 X9.6234 Y-36.1734
G1 X9.7067 Y-36.1339
G1 X9.7190 Y-36.1278
G1 X9.7310 Y-36.1210
G1 X9.8101 Y-36.0736
G1 X9.8217 Y-36.0662
G1 X9.8329 Y-36.0583
G1 X9.9070 Y-36.0034
G1 X9.9178 Y-35.9949
G1 X9.9282 Y-35.9859
G1 X9.9966 Y-35.9240
G1 X10.0113 Y-35.9096
G1 X10.0779 Y-35.8362
G1 X10.0869 Y-35.8258
G1 X10.0954 Y-35.8150
G1 X10.1503 Y-35.7409
G1 X10.1582 Y-35.7297
G1 X10.1656 Y-35.7181
G1 X10.2130 Y-35.6390
G1 X10.2198 Y-35.6270
G1 X10.2259 Y-35.6147
G1 X10.2654 Y-35.5314
G1 X10.2709 Y-35.5188
G1 X10.2759 Y-35.5060
G1 X10.3070 Y-35.4191
G1 X10.3113 Y-35.4061
G1 X10.3149 Y-35.3928
G1 X10.3374 Y-35.3034
G1 X10.3404 Y-35.2900
G1 X10.3427 Y-35.2764
G1 X10.3562 Y-35.1852
G1 X10.3579 Y-35.1716
G1 X10.3589 Y-35.1579
G1 X10.3635 Y-35.0657
G1 X10.3638 Y-35.0520
G1 X10.3635 Y-35.0383
G1 X10.3589 Y-34.9461
G1 X10.3579 Y-34.9324
G1 X10.3562 Y-34.9188
G1 X10.3427 Y-34.8276
G1 X10.3404 Y-34.8140
G1 X10.3374 Y-34.8006
G1 X10.3149 Y-34.7112
G1 X10.3113 Y-34.6979
G1 X10.3070 Y-34.6849
G1 X10.2759 Y-34.5980
G1 X10.2709 Y-34.5852
G1 X10.2654 Y-34.5726
G1 X10.2259 Y-34.4893
G1 X10.2198 Y-34.4770
G1 X10.2130 Y-34.4650
G1 X10.1656 Y-34.3859
G1 X10.1582 Y-34.3743
G1 X10.1503 Y-34.3631
G1 X10.0954 Y-34.2890
G1 X10.0869 Y-34.2782
G1 X10.0779 Y-34.2678
G1 X10.0160 Y-34.1994
G1 X10.0065 Y-34.1895
G1 X9.9966 Y-34.1800
G1 X9.9282 Y-34.1181
G1 X9.9178 Y-34.1091
G1 X9.9070 Y-34.1006
G1 X9.8329 Y-34.0457
G1 X9.8217 Y-34.0378
G1 X9.8101 Y-34.0304
G1 X9.7310 Y-33.9830
G1 X9.7190 Y-33.9762
G1 X9.7067 Y-33.9701
G1 X9.6234 Y-33.9306
G1 X9.6108 Y-33.9251
G1 X9.5980 Y-33.9201
G1 X9.5111 Y-33.8890
G1 X9.4981 Y-33.8847
G1 X9.4848 Y-33.8811
G1 X9.3954 Y-33.8586
G1 X9.3820 Y-33.8556
G1 X9.3684 Y-33.8533
G1 X9.2772 Y-33.8398
G1 X9.2636 Y-33.8381
G1 X9.2499 Y-33.8371
G1 X9.1577 Y-33.8325
G1 X9.1440 Y-33.8322
G1 X9.1303 Y-33.8325
G1 X9.0381 Y-33.8371
G1 X9.0244 Y-33.8381
G1 X9.0108 Y-33.8398
G1 X8.9196 Y-33.8533
G1 X8.9060 Y-33.8556
G1 X8.8926 Y-33.8586
G1 X8.8032 Y-33.8811
G1 X8.7899 Y-33.8847
G1 X8.7769 Y-33.8890
G1 X8.6900 Y-33.9201
G1 X8.6772 Y-33.9251
G1 X8.6646 Y-33.9306
G1 X8.5813 Y-33.9701
G1 X8.5690 Y-33.9762
G1 X8.5570 Y-33.9830
G1 X8.4779 Y-34.0304
G1 X8.4663 Y-34.0378
G1 X8.4551 Y-34.0457
G1 X8.3810 Y-34.1006
G1 X8.3702 Y-34.1091
G1 X8.3598 Y-34.1181
G1 X8.2914 Y-34.1800
G1 X8.2815 Y-34.1895
G1 X8.2720 Y-34.1994
G1 X8.2101 Y-34.2678
G1 X8.2011 Y-34.2782
G1 X8.1926 Y-34.2890
G1 X8.1377 Y-34.3631
G1 X8.1298 Y-34.3743
G1 X8.1224 Y-34.3859
G1 X8.0711 Y-34.4718
G1 X7.2321 Y-34.4719
G1 X7.1958 Y-34.4736
G1 X7.1821 Y-34.4746
G1 X7.1394 Y-34.4806
G1 X7.1191 Y-34.4844
G1 X7.0838 Y-34.4932
G1 X7.0706 Y-34.4968
G1 X7.0575 Y-34.5011
G1 X7.0234 Y-34.5135
G1 X7.0044 Y-34.5216
G1 X6.9655 Y-34.5404
G1 X6.9283 Y-34.5623
G1 X6.9110 Y-34.5735
G1 X6.8763 Y-34.5992
G1 X6.8606 Y-34.6125
G1 X6.8288 Y-34.6418
G1 X6.7995 Y-34.6736
G1 X6.7862 Y-34.6893
G1 X6.7605 Y-34.7240
G1 X6.7493 Y-34.7413
G1 X6.7274 Y-34.7785
G1 X6.7086 Y-34.8174
G1 X6.7005 Y-34.8364
G1 X6.6881 Y-34.8705
G1 X6.6838 Y-34.8836
G1 X6.6730 Y-34.9254
G1 X6.6700 Y-34.9388
G1 X6.6633 Y-34.9815
G1 X6.6611 Y-35.0020
G1 X6.6592 Y-35.0383
G1 X6.6589 Y-35.0520
G1 X6.6589 Y-45.7616
G1 X5.3504 Y-47.0701
G0 Z2.0000
G0 X6.1694 Y-53.6132
F800
G1 Z0.0000 F800
F500
G1 X12.0270 Y-53.6131
G1 X12.0361 Y-53.6229
G1 X13.0538 Y-54.6407
G1 X13.0774 Y-54.6621
G1 X13.0850 Y-54.6683
G1 X13.1127 Y-54.6887
G1 X13.1421 Y-54.7065
G1 X13.1508 Y-54.7111
G1 X13.1819 Y-54.7257
G1 X13.2188 Y-54.7389
G1 X13.2569 Y-54.7485
G1 X13.2909 Y-54.7536
G1 X13.3007 Y-54.7546
G1 X13.3350 Y-54.7561
G1 X15.7480 Y-54.7561
G1 X15.7872 Y-54.7542
G1 X15.8212 Y-54.7493
G1 X15.8309 Y-54.7474
G1 X15.8665 Y-54.7382
G1 X15.8966 Y-54.7275
G1 X15.9056 Y-54.7237
G1 X15.9366 Y-54.7089
G1 X15.9662 Y-54.6913
G1 X15.9743 Y-54.6859
G1 X16.0019 Y-54.6653
